public/luts/blockbuster.cube
# Studiio — look « blockbuster », genere par scripts/lut/generer-luts.mjs
# Source : les coefficients de LOOKS_RENDUS, calcules par ffmpeg lui-meme.
# Aucune LUT tierce, aucun telechargement : provenance et licence du depot.
LUT_3D_SIZE 16
DOMAIN_MIN 0.0 0.0 0.0
DOMAIN_MAX 1.0 1.0 1.0
0.000000 0.000000 0.070588
0.000000 0.000000 0.070588
0.007843 0.000000 0.070588
0.074510 0.000000 0.070588
0.149020 0.000000 0.070588
0.239216 0.000000 0.050980
0.329412 0.000000 0.031373
0.411765 0.000000 0.011765
0.498039 0.000000 0.000000
0.568627 0.000000 0.000000
0.674510 0.000000 0.000000
0.756863 0.000000 0.000000
0.850980 0.000000 0.000000
0.929412 0.000000 0.000000
1.000000 0.000000 0.000000
1.000000 0.000000 0.000000
0.000000 0.000000 0.070588
0.000000 0.000000 0.070588
0.003922 0.000000 0.070588
0.082353 0.000000 0.070588
0.160784 0.000000 0.070588
0.239216 0.000000 0.050980
0.333333 0.000000 0.031373
0.419608 0.000000 0.007843
0.494118 0.000000 0.000000
0.580392 0.000000 0.000000
0.670588 0.000000 0.000000
0.772549 0.003922 0.000000
0.850980 0.000000 0.000000
0.925490 0.000000 0.000000
1.000000 0.007843 0.000000
1.000000 0.003922 0.000000
0.000000 0.058824 0.070588
0.000000 0.058824 0.070588
0.003922 0.062745 0.070588
0.082353 0.062745 0.070588
0.160784 0.070588 0.070588
0.247059 0.062745 0.050980
0.325490 0.066667 0.031373
0.423529 0.070588 0.007843
0.501961 0.070588 0.000000
0.584314 0.066667 0.000000
0.670588 0.074510 0.000000
0.764706 0.074510 0.000000
0.858824 0.078431 0.000000
0.937255 0.078431 0.000000
1.000000 0.078431 0.000000
1.000000 0.086275 0.000000
0.000000 0.137255 0.070588
0.000000 0.133333 0.070588
0.007843 0.133333 0.070588
0.090196 0.133333 0.070588
0.156863 0.141176 0.070588
0.258824 0.141176 0.047059
0.341176 0.145098 0.027451
0.427451 0.137255 0.007843
0.501961 0.149020 0.000000
0.584314 0.152941 0.000000
0.678431 0.149020 0.000000
0.776471 0.156863 0.000000
0.854902 0.149020 0.000000
0.929412 0.152941 0.000000
1.000000 0.156863 0.000000
1.000000 0.156863 0.000000
0.000000 0.207843 0.070588
0.000000 0.215686 0.066667
0.015686 0.211765 0.070588
0.090196 0.215686 0.066667
0.176471 0.219608 0.066667
0.243137 0.219608 0.050980
0.341176 0.215686 0.027451
0.427451 0.223529 0.007843
0.513725 0.223529 0.000000
0.592157 0.231373 0.000000
0.686275 0.223529 0.000000
0.772549 0.227451 0.000000
0.870588 0.231373 0.000000
0.937255 0.235294 0.000000
1.000000 0.227451 0.000000
1.000000 0.235294 0.000000
0.000000 0.286275 0.047059
0.000000 0.286275 0.047059
0.043137 0.294118 0.047059
0.105882 0.290196 0.047059
0.184314 0.290196 0.047059
0.262745 0.294118 0.047059
0.352941 0.294118 0.023529
0.431373 0.298039 0.007843
0.505882 0.301961 0.000000
0.600000 0.298039 0.000000
0.690196 0.305882 0.000000
0.780392 0.305882 0.000000
0.858824 0.301961 0.000000
0.945098 0.309804 0.000000
1.000000 0.309804 0.000000
1.000000 0.309804 0.000000
0.000000 0.368627 0.023529
0.000000 0.364706 0.027451
0.047059 0.364706 0.027451
0.129412 0.368627 0.023529
0.200000 0.376471 0.023529
0.274510 0.372549 0.023529
0.349020 0.372549 0.023529
0.439216 0.372549 0.003922
0.509804 0.376471 0.000000
0.603922 0.380392 0.000000
0.690196 0.376471 0.000000
0.784314 0.372549 0.000000
0.866667 0.384314 0.000000
0.945098 0.384314 0.000000
1.000000 0.388235 0.000000
1.000000 0.388235 0.000000
0.000000 0.439216 0.003922
0.000000 0.435294 0.007843
0.066667 0.447059 0.003922
0.145098 0.447059 0.003922
0.211765 0.443137 0.003922
0.294118 0.443137 0.003922
0.364706 0.450980 0.003922
0.443137 0.454902 0.000000
0.517647 0.450980 0.000000
0.603922 0.450980 0.000000
0.694118 0.458824 0.000000
0.784314 0.458824 0.000000
0.874510 0.458824 0.000000
0.949020 0.458824 0.000000
1.000000 0.462745 0.000000
1.000000 0.462745 0.000000
0.000000 0.521569 0.000000
0.000000 0.521569 0.000000
0.070588 0.517647 0.000000
0.141176 0.525490 0.000000
0.219608 0.525490 0.000000
0.294118 0.525490 0.000000
0.372549 0.525490 0.000000
0.439216 0.525490 0.000000
0.517647 0.529412 0.000000
0.607843 0.533333 0.000000
0.705882 0.533333 0.000000
0.784314 0.533333 0.000000
0.878431 0.533333 0.000000
0.949020 0.537255 0.000000
1.000000 0.541176 0.000000
1.000000 0.537255 0.000000
0.011765 0.588235 0.000000
0.011765 0.596078 0.000000
0.090196 0.596078 0.000000
0.160784 0.600000 0.000000
0.243137 0.596078 0.000000
0.309804 0.600000 0.000000
0.384314 0.603922 0.000000
0.466667 0.607843 0.000000
0.541176 0.607843 0.000000
0.607843 0.603922 0.000000
0.698039 0.611765 0.000000
0.796078 0.607843 0.000000
0.882353 0.615686 0.000000
0.952941 0.611765 0.000000
1.000000 0.615686 0.000000
1.000000 0.615686 0.000000
0.031373 0.674510 0.000000
0.035294 0.670588 0.000000
0.094118 0.670588 0.000000
0.184314 0.674510 0.000000
0.254902 0.678431 0.000000
0.341176 0.678431 0.000000
0.407843 0.686275 0.000000
0.482353 0.678431 0.000000
0.560784 0.686275 0.000000
0.639216 0.682353 0.000000
0.705882 0.686275 0.000000
0.800000 0.686275 0.000000
0.878431 0.686275 0.000000
0.960784 0.686275 0.000000
1.000000 0.694118 0.000000
1.000000 0.694118 0.000000
0.047059 0.745098 0.000000
0.054902 0.749020 0.000000
0.129412 0.749020 0.000000
0.207843 0.749020 0.000000
0.278431 0.756863 0.000000
0.352941 0.749020 0.000000
0.427451 0.752941 0.000000
0.501961 0.760784 0.000000
0.576471 0.760784 0.000000
0.650980 0.760784 0.000000
0.729412 0.760784 0.000000
0.800000 0.760784 0.000000
0.886275 0.768627 0.000000
0.960784 0.768627 0.000000
1.000000 0.764706 0.000000
1.000000 0.768627 0.000000
0.054902 0.823529 0.000000
0.058824 0.827451 0.000000
0.141176 0.831373 0.000000
0.211765 0.827451 0.000000
0.290196 0.827451 0.000000
0.360784 0.835294 0.000000
0.439216 0.831373 0.000000
0.509804 0.831373 0.000000
0.592157 0.835294 0.000000
0.658824 0.839216 0.000000
0.741176 0.843137 0.000000
0.815686 0.843137 0.000000
0.890196 0.839216 0.000000
0.960784 0.847059 0.000000
1.000000 0.847059 0.000000
1.000000 0.843137 0.000000
0.054902 0.894118 0.000000
0.066667 0.901961 0.000000
0.145098 0.898039 0.000000
0.215686 0.909804 0.000000
0.298039 0.905882 0.000000
0.364706 0.901961 0.000000
0.443137 0.909804 0.000000
0.513725 0.909804 0.000000
0.588235 0.913725 0.000000
0.670588 0.913725 0.000000
0.741176 0.913725 0.000000
0.811765 0.913725 0.000000
0.890196 0.921569 0.000000
0.968627 0.917647 0.000000
1.000000 0.925490 0.000000
1.000000 0.921569 0.000000
0.054902 0.980392 0.000000
0.070588 0.976471 0.000000
0.145098 0.984314 0.000000
0.219608 0.976471 0.000000
0.286275 0.980392 0.000000
0.372549 0.984314 0.000000
0.443137 0.984314 0.000000
0.529412 0.988235 0.000000
0.588235 0.988235 0.000000
0.670588 0.988235 0.000000
0.745098 0.992157 0.000000
0.827451 0.992157 0.000000
0.886275 0.992157 0.000000
0.964706 1.000000 0.000000
1.000000 0.996078 0.000000
1.000000 0.996078 0.000000
0.054902 1.000000 0.000000
0.078431 1.000000 0.000000
0.145098 1.000000 0.000000
0.227451 1.000000 0.000000
0.301961 1.000000 0.000000
0.368627 1.000000 0.000000
0.447059 1.000000 0.000000
0.517647 1.000000 0.000000
0.596078 1.000000 0.000000
0.674510 1.000000 0.000000
0.745098 1.000000 0.000000
0.819608 1.000000 0.000000
0.901961 1.000000 0.000000
0.972549 1.000000 0.000000
1.000000 1.000000 0.000000
1.000000 1.000000 0.000000
0.000000 0.000000 0.070588
0.000000 0.000000 0.070588
0.003922 0.000000 0.070588
0.074510 0.000000 0.070588
0.156863 0.000000 0.070588
0.239216 0.000000 0.050980
0.329412 0.000000 0.031373
0.407843 0.000000 0.011765
0.501961 0.000000 0.000000
0.580392 0.000000 0.000000
0.666667 0.000000 0.000000
0.760784 0.000000 0.000000
0.847059 0.000000 0.000000
0.925490 0.000000 0.000000
1.000000 0.000000 0.000000
1.000000 0.000000 0.000000
0.000000 0.000000 0.070588
0.000000 0.000000 0.070588
0.003922 0.000000 0.070588
0.086275 0.000000 0.070588
0.152941 0.000000 0.070588
0.243137 0.000000 0.050980
0.325490 0.000000 0.031373
0.427451 0.000000 0.007843
0.490196 0.000000 0.000000
0.584314 0.000000 0.000000
0.670588 0.000000 0.000000
0.772549 0.000000 0.000000
0.854902 0.007843 0.000000
0.929412 0.000000 0.000000
1.000000 0.003922 0.000000
1.000000 0.003922 0.000000
0.000000 0.058824 0.070588
0.000000 0.058824 0.070588
0.007843 0.062745 0.070588
0.086275 0.062745 0.070588
0.160784 0.066667 0.070588
0.258824 0.066667 0.047059
0.329412 0.066667 0.031373
0.423529 0.066667 0.007843
0.505882 0.070588 0.000000
0.584314 0.074510 0.000000
0.674510 0.074510 0.000000
0.760784 0.078431 0.000000
0.858824 0.074510 0.000000
0.933333 0.078431 0.000000
1.000000 0.082353 0.000000
1.000000 0.078431 0.000000
0.000000 0.129412 0.070588
0.000000 0.141176 0.070588
0.015686 0.137255 0.070588
0.082353 0.141176 0.070588
0.160784 0.137255 0.070588
0.247059 0.141176 0.050980
0.345098 0.145098 0.027451
0.423529 0.149020 0.007843
0.505882 0.149020 0.000000
0.588235 0.149020 0.000000
0.686275 0.149020 0.000000
0.764706 0.152941 0.000000
0.862745 0.156863 0.000000
0.933333 0.152941 0.000000
1.000000 0.152941 0.000000
1.000000 0.160784 0.000000
0.000000 0.211765 0.070588
0.000000 0.215686 0.066667
0.015686 0.211765 0.070588
0.094118 0.215686 0.066667
0.168627 0.211765 0.070588
0.250980 0.223529 0.050980
0.345098 0.219608 0.027451
0.431373 0.223529 0.007843
0.513725 0.219608 0.000000
0.588235 0.227451 0.000000
0.686275 0.235294 0.000000
0.776471 0.227451 0.000000
0.862745 0.227451 0.000000
0.937255 0.231373 0.000000
1.000000 0.235294 0.000000
1.000000 0.235294 0.000000
0.000000 0.286275 0.047059
0.000000 0.290196 0.047059
0.027451 0.294118 0.047059
0.113725 0.294118 0.047059
0.184314 0.298039 0.043137
0.258824 0.290196 0.047059
0.341176 0.301961 0.027451
0.435294 0.298039 0.003922
0.509804 0.298039 0.003922
0.600000 0.298039 0.000000
0.682353 0.301961 0.000000
0.788235 0.305882 0.000000
0.866667 0.309804 0.000000
0.945098 0.305882 0.000000
1.000000 0.313725 0.000000
1.000000 0.309804 0.000000
0.000000 0.364706 0.027451
0.000000 0.364706 0.027451
0.050980 0.368627 0.023529
0.125490 0.364706 0.027451
0.200000 0.372549 0.023529
0.278431 0.372549 0.023529
0.352941 0.372549 0.027451
0.447059 0.372549 0.003922
0.513725 0.376471 0.003922
0.592157 0.380392 0.000000
0.701961 0.380392 0.000000
0.788235 0.384314 0.000000
0.866667 0.380392 0.000000
0.941176 0.384314 0.000000
1.000000 0.388235 0.000000
1.000000 0.392157 0.000000
0.000000 0.443137 0.003922
0.000000 0.443137 0.003922
0.062745 0.443137 0.003922
0.145098 0.447059 0.003922
0.223529 0.447059 0.007843
0.286275 0.447059 0.003922
0.368627 0.450980 0.003922
0.439216 0.450980 0.003922
0.525490 0.454902 0.011765
0.603922 0.458824 0.000000
0.698039 0.450980 0.000000
0.792157 0.458824 0.000000
0.878431 0.454902 0.000000
0.945098 0.462745 0.000000
1.000000 0.466667 0.000000
1.000000 0.462745 0.000000
0.000000 0.513725 0.000000
0.000000 0.521569 0.000000
0.078431 0.517647 0.003922
0.141176 0.521569 0.000000
0.223529 0.521569 0.003922
0.298039 0.525490 0.000000
0.376471 0.521569 0.007843
0.447059 0.533333 0.003922
0.517647 0.529412 0.007843
0.615686 0.533333 0.000000
0.701961 0.533333 0.000000
0.792157 0.537255 0.000000
0.878431 0.541176 0.000000
0.952941 0.537255 0.000000
1.000000 0.537255 0.000000
1.000000 0.545098 0.000000
0.011765 0.600000 0.000000
0.011765 0.596078 0.000000
0.090196 0.600000 0.000000
0.164706 0.600000 0.000000
0.235294 0.603922 0.000000
0.317647 0.607843 0.000000
0.388235 0.603922 0.000000
0.466667 0.600000 0.000000
0.541176 0.607843 0.003922
0.615686 0.611765 0.000000
0.701961 0.603922 0.000000
0.803922 0.607843 0.000000
0.874510 0.611765 0.000000
0.956863 0.615686 0.000000
1.000000 0.619608 0.000000
1.000000 0.615686 0.000000
0.027451 0.666667 0.000000
0.039216 0.670588 0.000000
0.105882 0.674510 0.000000
0.176471 0.670588 0.000000
0.258824 0.674510 0.000000
0.337255 0.674510 0.000000
0.411765 0.682353 0.000000
0.486275 0.686275 0.000000
0.556863 0.678431 0.000000
0.639216 0.686275 0.000000
0.713725 0.686275 0.000000
0.796078 0.690196 0.000000
0.886275 0.690196 0.000000
0.956863 0.690196 0.000000
1.000000 0.690196 0.000000
1.000000 0.698039 0.000000
0.047059 0.749020 0.000000
0.047059 0.745098 0.000000
0.129412 0.749020 0.000000
0.200000 0.752941 0.000000
0.282353 0.752941 0.000000
0.356863 0.760784 0.000000
0.431373 0.752941 0.000000
0.498039 0.756863 0.000000
0.588235 0.760784 0.000000
0.654902 0.760784 0.000000
0.745098 0.764706 0.000000
0.803922 0.764706 0.000000
0.886275 0.760784 0.000000
0.960784 0.768627 0.000000
1.000000 0.768627 0.000000
1.000000 0.768627 0.000000
0.054902 0.823529 0.000000
0.062745 0.827451 0.000000
0.141176 0.823529 0.000000
0.219608 0.831373 0.000000
0.294118 0.827451 0.000000
0.360784 0.827451 0.000000
0.443137 0.831373 0.000000
0.517647 0.835294 0.000000
0.584314 0.831373 0.000000
0.662745 0.839216 0.000000
0.733333 0.839216 0.000000
0.819608 0.843137 0.000000
0.890196 0.843137 0.000000
0.960784 0.843137 0.000000
1.000000 0.847059 0.000000
1.000000 0.847059 0.000000
0.054902 0.901961 0.000000
0.066667 0.894118 0.000000
0.137255 0.905882 0.000000
0.215686 0.901961 0.000000
0.294118 0.909804 0.000000
0.372549 0.909804 0.000000
0.435294 0.909804 0.000000
0.517647 0.909804 0.000000
0.592157 0.913725 0.000000
0.670588 0.913725 0.000000
0.741176 0.921569 0.000000
0.815686 0.913725 0.000000
0.890196 0.913725 0.000000
0.972549 0.921569 0.000000
1.000000 0.925490 0.000000
1.000000 0.929412 0.000000
0.054902 0.980392 0.000000
0.070588 0.976471 0.000000
0.145098 0.976471 0.000000
0.227451 0.980392 0.000000
0.290196 0.980392 0.000000
0.368627 0.980392 0.000000
0.447059 0.984314 0.000000
0.521569 0.988235 0.000000
0.596078 0.992157 0.000000
0.666667 0.988235 0.000000
0.745098 0.988235 0.000000
0.823529 0.996078 0.000000
0.894118 0.996078 0.000000
0.964706 0.996078 0.000000
1.000000 0.996078 0.000000
1.000000 1.000000 0.000000
0.054902 1.000000 0.000000
0.070588 1.000000 0.000000
0.145098 1.000000 0.000000
0.219608 1.000000 0.000000
0.301961 1.000000 0.000000
0.368627 1.000000 0.000000
0.443137 1.000000 0.000000
0.521569 1.000000 0.000000
0.600000 1.000000 0.000000
0.670588 1.000000 0.000000
0.752941 1.000000 0.000000
0.819608 1.000000 0.000000
0.901961 1.000000 0.000000
0.968627 1.000000 0.000000
1.000000 1.000000 0.000000
1.000000 1.000000 0.000000
0.000000 0.000000 0.125490
0.000000 0.000000 0.109804
0.011765 0.000000 0.117647
0.074510 0.000000 0.113725
0.152941 0.000000 0.125490
0.243137 0.000000 0.094118
0.325490 0.000000 0.086275
0.411765 0.000000 0.062745
0.494118 0.000000 0.058824
0.584314 0.000000 0.050980
0.666667 0.000000 0.043137
0.760784 0.000000 0.027451
0.850980 0.000000 0.023529
0.929412 0.000000 0.015686
0.996078 0.000000 0.019608
1.000000 0.000000 0.023529
0.000000 0.000000 0.117647
0.000000 0.000000 0.113725
0.007843 0.000000 0.125490
0.086275 0.000000 0.113725
0.152941 0.000000 0.121569
0.243137 0.000000 0.101961
0.329412 0.000000 0.090196
0.423529 0.000000 0.054902
0.498039 0.000000 0.058824
0.588235 0.000000 0.050980
0.674510 0.000000 0.047059
0.764706 0.000000 0.027451
0.850980 0.000000 0.019608
0.929412 0.007843 0.023529
1.000000 0.003922 0.031373
1.000000 0.003922 0.019608
0.000000 0.054902 0.117647
0.000000 0.058824 0.129412
0.011765 0.062745 0.121569
0.082353 0.066667 0.121569
0.172549 0.062745 0.113725
0.247059 0.070588 0.086275
0.349020 0.070588 0.070588
0.427451 0.074510 0.058824
0.505882 0.066667 0.058824
0.592157 0.078431 0.043137
0.694118 0.074510 0.031373
0.780392 0.078431 0.019608
0.866667 0.078431 0.031373
0.925490 0.082353 0.019608
1.000000 0.082353 0.031373
1.000000 0.082353 0.031373
0.000000 0.137255 0.121569
0.000000 0.133333 0.125490
0.019608 0.137255 0.129412
0.086275 0.141176 0.133333
0.180392 0.145098 0.109804
0.266667 0.145098 0.090196
0.356863 0.141176 0.070588
0.431373 0.149020 0.058824
0.517647 0.149020 0.058824
0.607843 0.149020 0.043137
0.701961 0.156863 0.043137
0.784314 0.152941 0.019608
0.854902 0.152941 0.027451
0.941176 0.156863 0.031373
1.000000 0.156863 0.035294
1.000000 0.160784 0.027451
0.000000 0.211765 0.129412
0.000000 0.211765 0.133333
0.023529 0.215686 0.105882
0.113725 0.219608 0.113725
0.172549 0.219608 0.113725
0.262745 0.215686 0.101961
0.356863 0.223529 0.070588
0.439216 0.223529 0.070588
0.517647 0.231373 0.066667
0.607843 0.227451 0.043137
0.701961 0.227451 0.039216
0.796078 0.231373 0.031373
0.862745 0.235294 0.035294
0.937255 0.231373 0.023529
1.000000 0.235294 0.035294
1.000000 0.235294 0.035294
0.000000 0.290196 0.101961
0.000000 0.290196 0.113725
0.039216 0.294118 0.094118
0.121569 0.290196 0.098039
0.200000 0.298039 0.090196
0.278431 0.294118 0.098039
0.352941 0.294118 0.074510
0.439216 0.298039 0.078431
0.521569 0.301961 0.062745
0.619608 0.298039 0.054902
0.705882 0.305882 0.043137
0.788235 0.305882 0.023529
0.870588 0.309804 0.035294
0.945098 0.309804 0.035294
1.000000 0.309804 0.039216
1.000000 0.317647 0.035294
0.000000 0.364706 0.090196
0.000000 0.364706 0.098039
0.062745 0.364706 0.066667
0.137255 0.376471 0.074510
0.207843 0.368627 0.074510
0.290196 0.372549 0.082353
0.364706 0.372549 0.074510
0.435294 0.376471 0.074510
0.529412 0.380392 0.070588
0.615686 0.376471 0.058824
0.709804 0.376471 0.039216
0.792157 0.384314 0.043137
0.870588 0.384314 0.039216
0.949020 0.392157 0.035294
1.000000 0.384314 0.039216
1.000000 0.388235 0.039216
0.000000 0.439216 0.062745
0.000000 0.447059 0.074510
0.066667 0.443137 0.066667
0.141176 0.443137 0.074510
0.223529 0.447059 0.070588
0.290196 0.450980 0.074510
0.376471 0.454902 0.078431
0.443137 0.450980 0.082353
0.533333 0.450980 0.066667
0.627451 0.458824 0.062745
0.713725 0.458824 0.047059
0.796078 0.454902 0.043137
0.874510 0.462745 0.039216
0.949020 0.462745 0.047059
1.000000 0.462745 0.047059
1.000000 0.466667 0.039216
0.000000 0.513725 0.066667
0.000000 0.517647 0.074510
0.082353 0.525490 0.062745
0.160784 0.525490 0.066667
0.227451 0.521569 0.062745
0.317647 0.525490 0.070588
0.380392 0.529412 0.062745
0.462745 0.529412 0.066667
0.537255 0.533333 0.070588
0.627451 0.525490 0.062745
0.717647 0.537255 0.047059
0.803922 0.533333 0.047059
0.874510 0.537255 0.047059
0.960784 0.537255 0.054902
1.000000 0.541176 0.043137
1.000000 0.537255 0.050980
0.011765 0.596078 0.054902
0.015686 0.596078 0.066667
0.098039 0.596078 0.050980
0.188235 0.596078 0.058824
0.254902 0.603922 0.050980
0.333333 0.600000 0.054902
0.411765 0.607843 0.058824
0.486275 0.600000 0.062745
0.552941 0.607843 0.054902
0.635294 0.611765 0.062745
0.729412 0.611765 0.050980
0.800000 0.607843 0.047059
0.878431 0.615686 0.043137
0.949020 0.615686 0.050980
1.000000 0.619608 0.054902
1.000000 0.619608 0.062745
0.027451 0.666667 0.058824
0.027451 0.670588 0.054902
0.125490 0.678431 0.039216
0.200000 0.678431 0.043137
0.274510 0.670588 0.039216
0.349020 0.678431 0.047059
0.423529 0.678431 0.043137
0.505882 0.686275 0.050980
0.584314 0.682353 0.050980
0.647059 0.682353 0.050980
0.729412 0.686275 0.047059
0.807843 0.686275 0.050980
0.886275 0.686275 0.050980
0.956863 0.694118 0.062745
1.000000 0.690196 0.047059
1.000000 0.694118 0.058824
0.047059 0.749020 0.047059
0.054902 0.749020 0.043137
0.137255 0.745098 0.039216
0.207843 0.752941 0.043137
0.286275 0.752941 0.035294
0.360784 0.752941 0.043137
0.443137 0.756863 0.047059
0.505882 0.756863 0.047059
0.584314 0.764706 0.043137
0.662745 0.760784 0.050980
0.737255 0.764706 0.050980
0.811765 0.768627 0.062745
0.882353 0.768627 0.047059
0.960784 0.764706 0.054902
1.000000 0.772549 0.058824
1.000000 0.772549 0.066667
0.054902 0.815686 0.039216
0.062745 0.827451 0.043137
0.137255 0.827451 0.043137
0.215686 0.827451 0.043137
0.286275 0.835294 0.054902
0.360784 0.827451 0.047059
0.435294 0.831373 0.039216
0.517647 0.835294 0.050980
0.584314 0.839216 0.050980
0.658824 0.831373 0.050980
0.737255 0.839216 0.047059
0.815686 0.839216 0.054902
0.886275 0.847059 0.058824
0.968627 0.843137 0.066667
1.000000 0.843137 0.050980
1.000000 0.847059 0.062745
0.054902 0.901961 0.043137
0.070588 0.901961 0.043137
0.137255 0.901961 0.047059
0.219608 0.901961 0.047059
0.290196 0.905882 0.047059
0.376471 0.909804 0.050980
0.443137 0.909804 0.058824
0.517647 0.905882 0.050980
0.592157 0.913725 0.047059
0.666667 0.913725 0.054902
0.741176 0.917647 0.054902
0.815686 0.921569 0.066667
0.890196 0.917647 0.050980
0.964706 0.917647 0.058824
1.000000 0.925490 0.062745
1.000000 0.925490 0.070588
0.054902 0.976471 0.047059
0.066667 0.980392 0.047059
0.149020 0.976471 0.047059
0.215686 0.984314 0.047059
0.298039 0.984314 0.058824
0.364706 0.980392 0.050980
0.450980 0.984314 0.054902
0.517647 0.992157 0.054902
0.596078 0.988235 0.062745
0.674510 0.996078 0.066667
0.749020 0.988235 0.050980
0.815686 0.992157 0.058824
0.898039 0.996078 0.062745
0.972549 0.996078 0.070588
1.000000 0.992157 0.054902
1.000000 1.000000 0.066667
0.054902 1.000000 0.047059
0.070588 1.000000 0.047059
0.152941 1.000000 0.058824
0.223529 1.000000 0.050980
0.301961 1.000000 0.050980
0.372549 1.000000 0.054902
0.450980 1.000000 0.062745
0.525490 1.000000 0.058824
0.596078 1.000000 0.058824
0.670588 1.000000 0.058824
0.749020 1.000000 0.070588
0.827451 1.000000 0.070588
0.894118 1.000000 0.062745
0.972549 1.000000 0.066667
1.000000 1.000000 0.066667
1.000000 1.000000 0.074510
0.000000 0.000000 0.180392
0.000000 0.000000 0.188235
0.003922 0.000000 0.188235
0.082353 0.000000 0.196078
0.149020 0.000000 0.184314
0.247059 0.000000 0.176471
0.325490 0.000000 0.156863
0.423529 0.000000 0.145098
0.501961 0.000000 0.125490
0.584314 0.000000 0.125490
0.670588 0.000000 0.113725
0.764706 0.000000 0.109804
0.854902 0.000000 0.086275
0.929412 0.000000 0.098039
1.000000 0.000000 0.094118
1.000000 0.000000 0.101961
0.000000 0.000000 0.188235
0.000000 0.000000 0.196078
0.007843 0.000000 0.184314
0.090196 0.000000 0.196078
0.156863 0.000000 0.196078
0.243137 0.000000 0.180392
0.341176 0.000000 0.152941
0.411765 0.000000 0.141176
0.498039 0.000000 0.129412
0.584314 0.000000 0.137255
0.678431 0.000000 0.109804
0.768627 0.007843 0.109804
0.854902 0.000000 0.094118
0.929412 0.000000 0.101961
1.000000 0.007843 0.098039
1.000000 0.011765 0.101961
0.000000 0.054902 0.200000
0.000000 0.066667 0.196078
0.011765 0.062745 0.196078
0.086275 0.062745 0.200000
0.180392 0.070588 0.176471
0.254902 0.066667 0.160784
0.345098 0.066667 0.141176
0.431373 0.070588 0.141176
0.517647 0.070588 0.121569
0.596078 0.070588 0.117647
0.698039 0.074510 0.105882
0.784314 0.074510 0.101961
0.862745 0.082353 0.098039
0.933333 0.082353 0.101961
1.000000 0.082353 0.098039
1.000000 0.082353 0.109804
0.000000 0.137255 0.203922
0.000000 0.137255 0.200000
0.015686 0.129412 0.203922
0.098039 0.141176 0.180392
0.184314 0.145098 0.164706
0.282353 0.145098 0.149020
0.352941 0.152941 0.129412
0.431373 0.145098 0.129412
0.529412 0.152941 0.121569
0.627451 0.149020 0.113725
0.705882 0.156863 0.094118
0.792157 0.156863 0.101961
0.858824 0.152941 0.098039
0.937255 0.152941 0.105882
1.000000 0.160784 0.101961
1.000000 0.160784 0.109804
0.000000 0.211765 0.203922
0.000000 0.215686 0.196078
0.027451 0.215686 0.188235
0.117647 0.215686 0.164706
0.196078 0.223529 0.168627
0.278431 0.219608 0.145098
0.356863 0.219608 0.133333
0.454902 0.223529 0.137255
0.533333 0.227451 0.117647
0.635294 0.231373 0.113725
0.713725 0.227451 0.098039
0.788235 0.227451 0.105882
0.866667 0.235294 0.101961
0.937255 0.235294 0.109804
1.000000 0.231373 0.101961
1.000000 0.235294 0.113725
0.000000 0.290196 0.184314
0.000000 0.286275 0.180392
0.050980 0.294118 0.172549
0.129412 0.294118 0.141176
0.207843 0.290196 0.149020
0.286275 0.301961 0.149020
0.364706 0.298039 0.152941
0.439216 0.298039 0.133333
0.545098 0.298039 0.129412
0.627451 0.305882 0.117647
0.721569 0.309804 0.101961
0.796078 0.309804 0.109804
0.870588 0.301961 0.101961
0.941176 0.313725 0.113725
1.000000 0.313725 0.105882
1.000000 0.313725 0.113725
0.000000 0.360784 0.164706
0.000000 0.368627 0.156863
0.066667 0.364706 0.149020
0.141176 0.376471 0.145098
0.219608 0.372549 0.152941
0.290196 0.372549 0.137255
0.372549 0.372549 0.149020
0.450980 0.376471 0.141176
0.549020 0.376471 0.133333
0.643137 0.384314 0.117647
0.725490 0.376471 0.109804
0.792157 0.380392 0.109804
0.870588 0.388235 0.105882
0.949020 0.384314 0.113725
