public/luts/blockbuster.cube
# Studiio — look « blockbuster », genere par scripts/lut/generer-luts.mjs
# Source : les coefficients de LOOKS_RENDUS, calcules par ffmpeg lui-meme.
# Aucune LUT tierce, aucun telechargement : provenance et licence du depot.
LUT_3D_SIZE 6
DOMAIN_MIN 0.0 0.0 0.0
DOMAIN_MAX 1.0 1.0 1.0
0.000000 0.000000 0.070588
0.074510 0.000000 0.070588
0.329412 0.000000 0.031373
0.568627 0.000000 0.000000
0.850980 0.000000 0.000000
1.000000 0.000000 0.000000
0.000000 0.137255 0.070588
0.090196 0.133333 0.070588
0.341176 0.145098 0.027451
0.584314 0.152941 0.000000
0.854902 0.149020 0.000000
1.000000 0.156863 0.000000
0.000000 0.368627 0.023529
0.129412 0.368627 0.023529
0.349020 0.372549 0.023529
0.603922 0.380392 0.000000
0.866667 0.384314 0.000000
1.000000 0.388235 0.000000
0.011765 0.588235 0.000000
0.160784 0.600000 0.000000
0.384314 0.603922 0.000000
0.607843 0.603922 0.000000
0.882353 0.615686 0.000000
1.000000 0.615686 0.000000
0.054902 0.823529 0.000000
0.211765 0.827451 0.000000
0.439216 0.831373 0.000000
0.658824 0.839216 0.000000
0.890196 0.839216 0.000000
1.000000 0.843137 0.000000
0.054902 1.000000 0.000000
0.227451 1.000000 0.000000
0.447059 1.000000 0.000000
0.674510 1.000000 0.000000
0.901961 1.000000 0.000000
1.000000 1.000000 0.000000
0.000000 0.000000 0.180392
0.082353 0.000000 0.196078
0.325490 0.000000 0.156863
0.584314 0.000000 0.125490
0.854902 0.000000 0.086275
1.000000 0.000000 0.101961
0.000000 0.137255 0.203922
0.098039 0.141176 0.180392
0.352941 0.152941 0.129412
0.627451 0.149020 0.113725
0.858824 0.152941 0.098039
1.000000 0.160784 0.109804
0.000000 0.360784 0.164706
0.141176 0.376471 0.145098
0.372549 0.372549 0.149020
0.643137 0.384314 0.117647
0.870588 0.388235 0.105882
1.000000 0.388235 0.117647
0.011765 0.596078 0.137255
0.184314 0.600000 0.105882
0.423529 0.600000 0.125490
0.647059 0.607843 0.117647
0.886275 0.615686 0.129412
1.000000 0.623529 0.125490
0.054902 0.827451 0.117647
0.219608 0.823529 0.121569
0.439216 0.831373 0.117647
0.662745 0.843137 0.121569
0.886275 0.843137 0.133333
1.000000 0.847059 0.137255
0.054902 1.000000 0.117647
0.231373 1.000000 0.129412
0.447059 1.000000 0.133333
0.678431 1.000000 0.145098
0.898039 1.000000 0.141176
1.000000 1.000000 0.137255
0.000000 0.000000 0.372549
0.109804 0.000000 0.376471
0.333333 0.000000 0.380392
0.580392 0.000000 0.341176
0.850980 0.000000 0.321569
1.000000 0.000000 0.317647
0.000000 0.137255 0.380392
0.133333 0.145098 0.345098
0.360784 0.149020 0.364706
0.623529 0.156863 0.329412
0.866667 0.152941 0.321569
1.000000 0.164706 0.325490
0.000000 0.364706 0.380392
0.149020 0.372549 0.368627
0.415686 0.380392 0.329412
0.647059 0.388235 0.325490
0.878431 0.384314 0.337255
1.000000 0.392157 0.337255
0.011765 0.596078 0.352941
0.196078 0.596078 0.341176
0.427451 0.607843 0.333333
0.658824 0.603922 0.337255
0.886275 0.619608 0.345098
1.000000 0.627451 0.341176
0.054902 0.827451 0.333333
0.215686 0.831373 0.337255
0.435294 0.839216 0.337255
0.670588 0.839216 0.352941
0.890196 0.843137 0.352941
1.000000 0.847059 0.356863
0.054902 1.000000 0.345098
0.227451 1.000000 0.352941
0.454902 1.000000 0.360784
0.674510 1.000000 0.356863
0.898039 1.000000 0.356863
1.000000 1.000000 0.372549
0.003922 0.000000 0.556863
0.129412 0.000000 0.560784
0.356863 0.000000 0.560784
0.580392 0.000000 0.568627
0.854902 0.000000 0.533333
1.000000 0.000000 0.537255
0.003922 0.145098 0.560784
0.180392 0.141176 0.549020
0.400000 0.149020 0.545098
0.631373 0.152941 0.552941
0.862745 0.160784 0.541176
1.000000 0.160784 0.552941
0.007843 0.364706 0.572549
0.196078 0.376471 0.552941
0.423529 0.384314 0.541176
0.650980 0.380392 0.552941
0.874510 0.392157 0.556863
1.000000 0.392157 0.560784
0.011765 0.596078 0.588235
0.200000 0.600000 0.556863
0.439216 0.607843 0.560784
0.654902 0.611765 0.556863
0.874510 0.619608 0.552941
1.000000 0.623529 0.576471
0.054902 0.831373 0.560784
0.219608 0.835294 0.556863
0.443137 0.835294 0.568627
0.666667 0.847059 0.572549
0.898039 0.843137 0.576471
1.000000 0.847059 0.572549
0.054902 1.000000 0.568627
0.235294 1.000000 0.572549
0.450980 1.000000 0.576471
0.670588 1.000000 0.572549
0.905882 1.000000 0.592157
1.000000 1.000000 0.588235
0.054902 0.000000 0.745098
0.184314 0.000000 0.741176
0.407843 0.000000 0.749020
0.635294 0.000000 0.752941
0.854902 0.000000 0.749020
1.000000 0.000000 0.760784
0.054902 0.141176 0.756863
0.192157 0.149020 0.752941
0.419608 0.149020 0.756863
0.647059 0.156863 0.760784
0.866667 0.160784 0.764706
1.000000 0.160784 0.772549
0.054902 0.368627 0.752941
0.192157 0.372549 0.752941
0.435294 0.380392 0.772549
0.650980 0.384314 0.772549
0.882353 0.392157 0.780392
1.000000 0.396078 0.776471
0.054902 0.600000 0.768627
0.211765 0.603922 0.772549
0.439216 0.607843 0.776471
0.658824 0.615686 0.772549
0.882353 0.615686 0.788235
1.000000 0.631373 0.792157
0.054902 0.835294 0.776471
0.227451 0.831373 0.788235
0.447059 0.839216 0.788235
0.674510 0.843137 0.796078
0.894118 0.850980 0.792157
1.000000 0.854902 0.792157
0.054902 1.000000 0.788235
0.235294 1.000000 0.796078
0.454902 1.000000 0.792157
0.678431 1.000000 0.807843
0.901961 1.000000 0.807843
1.000000 1.000000 0.815686
0.054902 0.000000 0.956863
0.184314 0.000000 0.956863
0.415686 0.000000 0.956863
0.631373 0.000000 0.956863
0.850980 0.000000 0.956863
1.000000 0.000000 0.956863
0.054902 0.145098 0.956863
0.196078 0.149020 0.956863
0.419608 0.152941 0.956863
0.643137 0.160784 0.956863
0.874510 0.160784 0.956863
1.000000 0.164706 0.956863
0.054902 0.372549 0.956863
0.203922 0.372549 0.956863
0.431373 0.384314 0.956863
0.654902 0.388235 0.956863
0.886275 0.396078 0.956863
1.000000 0.400000 0.956863
0.054902 0.600000 0.956863
0.211765 0.603922 0.956863
0.431373 0.611765 0.956863
0.666667 0.611765 0.956863
0.886275 0.619608 0.956863
1.000000 0.627451 0.956863
0.054902 0.827451 0.956863
0.223529 0.839216 0.956863
0.447059 0.839216 0.956863
0.670588 0.843137 0.956863
0.894118 0.850980 0.956863
1.000000 0.850980 0.956863
0.054902 1.000000 0.956863
0.227451 1.000000 0.956863
0.462745 1.000000 0.956863
0.682353 1.000000 0.956863
0.905882 1.000000 0.956863
1.000000 1.000000 0.956863
