public/luts/bright.cube
# Studiio — look « bright », genere par scripts/lut/generer-luts.mjs
# Source : les coefficients de LOOKS_RENDUS, calcules par ffmpeg lui-meme.
# Aucune LUT tierce, aucun telechargement : provenance et licence du depot.
LUT_3D_SIZE 16
DOMAIN_MIN 0.0 0.0 0.0
DOMAIN_MAX 1.0 1.0 1.0
0.062745 0.074510 0.058824
0.129412 0.070588 0.054902
0.203922 0.070588 0.062745
0.266667 0.070588 0.054902
0.341176 0.062745 0.058824
0.407843 0.070588 0.050980
0.482353 0.062745 0.050980
0.549020 0.066667 0.050980
0.627451 0.066667 0.058824
0.690196 0.066667 0.054902
0.768627 0.062745 0.058824
0.831373 0.066667 0.047059
0.905882 0.058824 0.050980
0.972549 0.062745 0.047059
1.000000 0.058824 0.050980
1.000000 0.054902 0.047059
0.066667 0.141176 0.062745
0.129412 0.141176 0.062745
0.203922 0.133333 0.058824
0.270588 0.141176 0.050980
0.345098 0.133333 0.050980
0.403922 0.133333 0.047059
0.482353 0.137255 0.058824
0.552941 0.137255 0.054902
0.611765 0.137255 0.054902
0.694118 0.137255 0.047059
0.756863 0.133333 0.050980
0.835294 0.133333 0.047059
0.898039 0.133333 0.050980
0.972549 0.125490 0.047059
1.000000 0.129412 0.050980
1.000000 0.129412 0.047059
0.050980 0.211765 0.058824
0.133333 0.207843 0.058824
0.192157 0.211765 0.050980
0.266667 0.203922 0.054902
0.341176 0.211765 0.058824
0.415686 0.203922 0.062745
0.474510 0.203922 0.054902
0.556863 0.207843 0.047059
0.615686 0.203922 0.050980
0.686275 0.203922 0.043137
0.756863 0.203922 0.050980
0.827451 0.200000 0.047059
0.898039 0.200000 0.050980
0.968627 0.196078 0.047059
1.000000 0.196078 0.043137
1.000000 0.200000 0.039216
0.054902 0.278431 0.050980
0.125490 0.274510 0.054902
0.192157 0.274510 0.050980
0.270588 0.278431 0.062745
0.337255 0.274510 0.054902
0.411765 0.274510 0.062745
0.478431 0.274510 0.050980
0.549020 0.270588 0.050980
0.619608 0.274510 0.050980
0.682353 0.274510 0.047059
0.756863 0.266667 0.047059
0.823529 0.270588 0.047059
0.894118 0.266667 0.043137
0.960784 0.266667 0.035294
1.000000 0.270588 0.047059
1.000000 0.266667 0.043137
0.054902 0.345098 0.050980
0.125490 0.352941 0.062745
0.200000 0.345098 0.054902
0.262745 0.345098 0.058824
0.337255 0.349020 0.050980
0.403922 0.345098 0.050980
0.470588 0.341176 0.047059
0.545098 0.341176 0.054902
0.611765 0.341176 0.047059
0.686275 0.341176 0.054902
0.752941 0.337255 0.043137
0.823529 0.337255 0.035294
0.901961 0.341176 0.047059
0.960784 0.341176 0.043137
1.000000 0.333333 0.043137
1.000000 0.341176 0.043137
0.054902 0.419608 0.054902
0.125490 0.415686 0.058824
0.196078 0.419608 0.050980
0.266667 0.415686 0.050980
0.333333 0.411765 0.047059
0.407843 0.411765 0.054902
0.474510 0.407843 0.047059
0.537255 0.407843 0.050980
0.611765 0.411765 0.043137
0.678431 0.407843 0.043137
0.756863 0.415686 0.047059
0.823529 0.411765 0.050980
0.894118 0.407843 0.043137
0.964706 0.407843 0.043137
1.000000 0.403922 0.047059
1.000000 0.403922 0.031373
0.050980 0.486275 0.043137
0.121569 0.486275 0.050980
0.192157 0.486275 0.047059
0.262745 0.486275 0.054902
0.333333 0.482353 0.047059
0.400000 0.478431 0.050980
0.474510 0.482353 0.043137
0.541176 0.478431 0.043137
0.607843 0.482353 0.043137
0.686275 0.478431 0.050980
0.749020 0.482353 0.043137
0.823529 0.474510 0.047059
0.890196 0.478431 0.047059
0.964706 0.474510 0.039216
1.000000 0.478431 0.039216
1.000000 0.474510 0.035294
0.050980 0.556863 0.047059
0.121569 0.552941 0.047059
0.188235 0.556863 0.047059
0.262745 0.549020 0.050980
0.325490 0.549020 0.035294
0.403922 0.549020 0.043137
0.470588 0.552941 0.043137
0.545098 0.552941 0.050980
0.611765 0.552941 0.043137
0.678431 0.545098 0.047059
0.752941 0.549020 0.047059
0.815686 0.549020 0.039216
0.890196 0.545098 0.035294
0.956863 0.549020 0.043137
1.000000 0.541176 0.035294
1.000000 0.541176 0.039216
0.050980 0.627451 0.047059
0.117647 0.623529 0.050980
0.188235 0.619608 0.035294
0.254902 0.623529 0.043137
0.333333 0.623529 0.043137
0.396078 0.623529 0.047059
0.474510 0.619608 0.043137
0.537255 0.619608 0.047059
0.611765 0.615686 0.043137
0.678431 0.619608 0.039216
0.752941 0.611765 0.035294
0.819608 0.615686 0.043137
0.894118 0.611765 0.035294
0.956863 0.611765 0.039216
1.000000 0.615686 0.039216
1.000000 0.607843 0.039216
0.050980 0.686275 0.050980
0.117647 0.694118 0.043137
0.196078 0.694118 0.043137
0.258824 0.694118 0.047059
0.337255 0.690196 0.043137
0.400000 0.690196 0.047059
0.458824 0.690196 0.043137
0.541176 0.690196 0.039216
0.600000 0.690196 0.035294
0.674510 0.682353 0.039216
0.741176 0.686275 0.035294
0.815686 0.682353 0.039216
0.882353 0.686275 0.039216
0.956863 0.678431 0.039216
1.000000 0.686275 0.031373
1.000000 0.682353 0.039216
0.043137 0.768627 0.050980
0.117647 0.760784 0.047059
0.180392 0.760784 0.047059
0.258824 0.760784 0.047059
0.321569 0.760784 0.043137
0.400000 0.760784 0.039216
0.462745 0.760784 0.035294
0.537255 0.752941 0.039216
0.603922 0.756863 0.035294
0.674510 0.752941 0.039216
0.741176 0.752941 0.035294
0.815686 0.752941 0.039216
0.886275 0.756863 0.031373
0.956863 0.752941 0.035294
1.000000 0.752941 0.035294
1.000000 0.752941 0.035294
0.043137 0.831373 0.047059
0.121569 0.831373 0.047059
0.184314 0.831373 0.050980
0.254902 0.827451 0.035294
0.325490 0.827451 0.043137
0.396078 0.827451 0.039216
0.462745 0.823529 0.031373
0.529412 0.827451 0.039216
0.603922 0.819608 0.035294
0.670588 0.823529 0.039216
0.749020 0.823529 0.031373
0.811765 0.823529 0.035294
0.886275 0.827451 0.035294
0.952941 0.823529 0.035294
1.000000 0.819608 0.031373
1.000000 0.819608 0.039216
0.047059 0.898039 0.050980
0.109804 0.901961 0.035294
0.188235 0.898039 0.043137
0.250980 0.898039 0.039216
0.317647 0.894118 0.039216
0.392157 0.898039 0.039216
0.458824 0.894118 0.043137
0.529412 0.890196 0.035294
0.607843 0.898039 0.031373
0.674510 0.894118 0.035294
0.749020 0.898039 0.035294
0.815686 0.894118 0.035294
0.882353 0.890196 0.031373
0.949020 0.894118 0.039216
1.000000 0.890196 0.023529
1.000000 0.886275 0.027451
0.039216 0.968627 0.039216
0.113725 0.968627 0.039216
0.180392 0.964706 0.039216
0.254902 0.968627 0.039216
0.321569 0.964706 0.043137
0.392157 0.960784 0.035294
0.462745 0.968627 0.039216
0.529412 0.968627 0.035294
0.600000 0.964706 0.035294
0.670588 0.964706 0.035294
0.741176 0.960784 0.039216
0.807843 0.956863 0.031373
0.882353 0.960784 0.023529
0.949020 0.956863 0.027451
1.000000 0.960784 0.027451
1.000000 0.956863 0.027451
0.035294 1.000000 0.039216
0.105882 1.000000 0.035294
0.180392 1.000000 0.043137
0.247059 1.000000 0.035294
0.321569 1.000000 0.035294
0.392157 1.000000 0.035294
0.462745 1.000000 0.035294
0.533333 1.000000 0.035294
0.596078 1.000000 0.039216
0.670588 1.000000 0.031373
0.737255 1.000000 0.039216
0.811765 1.000000 0.027451
0.874510 1.000000 0.027451
0.945098 1.000000 0.027451
1.000000 1.000000 0.023529
1.000000 1.000000 0.023529
0.039216 1.000000 0.043137
0.109804 1.000000 0.035294
0.176471 1.000000 0.035294
0.254902 1.000000 0.035294
0.317647 1.000000 0.035294
0.384314 1.000000 0.031373
0.458824 1.000000 0.039216
0.525490 1.000000 0.031373
0.596078 1.000000 0.035294
0.666667 1.000000 0.027451
0.737255 1.000000 0.027451
0.803922 1.000000 0.027451
0.878431 1.000000 0.031373
0.941176 1.000000 0.023529
1.000000 1.000000 0.035294
1.000000 1.000000 0.023529
0.066667 0.074510 0.133333
0.133333 0.070588 0.129412
0.200000 0.066667 0.121569
0.266667 0.070588 0.129412
0.341176 0.066667 0.125490
0.403922 0.066667 0.125490
0.482353 0.062745 0.125490
0.545098 0.062745 0.129412
0.631373 0.066667 0.121569
0.694118 0.066667 0.125490
0.760784 0.062745 0.121569
0.835294 0.062745 0.125490
0.894118 0.066667 0.121569
0.968627 0.058824 0.125490
1.000000 0.062745 0.113725
1.000000 0.054902 0.117647
0.062745 0.137255 0.129412
0.129412 0.141176 0.129412
0.200000 0.137255 0.125490
0.266667 0.133333 0.125490
0.333333 0.141176 0.125490
0.407843 0.133333 0.129412
0.474510 0.141176 0.117647
0.552941 0.137255 0.125490
0.615686 0.137255 0.121569
0.694118 0.133333 0.125490
0.756863 0.133333 0.121569
0.831373 0.129412 0.125490
0.898039 0.133333 0.113725
0.972549 0.125490 0.117647
1.000000 0.125490 0.113725
1.000000 0.129412 0.117647
0.054902 0.211765 0.133333
0.129412 0.203922 0.125490
0.196078 0.207843 0.133333
0.270588 0.203922 0.129412
0.337255 0.207843 0.117647
0.415686 0.207843 0.125490
0.478431 0.207843 0.121569
0.549020 0.203922 0.121569
0.619608 0.203922 0.121569
0.682353 0.203922 0.125490
0.756863 0.200000 0.109804
0.823529 0.203922 0.117647
0.898039 0.196078 0.113725
0.964706 0.200000 0.117647
1.000000 0.196078 0.113725
1.000000 0.196078 0.117647
0.054902 0.274510 0.129412
0.121569 0.278431 0.129412
0.200000 0.278431 0.125490
0.262745 0.278431 0.121569
0.341176 0.274510 0.129412
0.403922 0.274510 0.121569
0.482353 0.274510 0.129412
0.545098 0.274510 0.125490
0.619608 0.270588 0.109804
0.686275 0.274510 0.117647
0.752941 0.270588 0.113725
0.823529 0.266667 0.113725
0.894118 0.266667 0.113725
0.964706 0.262745 0.117647
1.000000 0.266667 0.113725
1.000000 0.266667 0.113725
0.062745 0.349020 0.125490
0.125490 0.349020 0.121569
0.196078 0.349020 0.129412
0.266667 0.345098 0.121569
0.333333 0.341176 0.125490
0.407843 0.345098 0.125490
0.474510 0.341176 0.125490
0.549020 0.345098 0.117647
0.615686 0.341176 0.121569
0.686275 0.337255 0.113725
0.752941 0.341176 0.113725
0.827451 0.333333 0.117647
0.894118 0.341176 0.113725
0.964706 0.341176 0.113725
1.000000 0.337255 0.109804
1.000000 0.333333 0.109804
0.058824 0.419608 0.129412
0.129412 0.415686 0.121569
0.188235 0.415686 0.125490
0.270588 0.415686 0.125490
0.329412 0.411765 0.125490
0.400000 0.411765 0.113725
0.470588 0.411765 0.121569
0.541176 0.411765 0.113725
0.607843 0.407843 0.117647
0.682353 0.407843 0.117647
0.752941 0.407843 0.121569
0.827451 0.411765 0.113725
0.898039 0.407843 0.109804
0.964706 0.403922 0.109804
1.000000 0.411765 0.109804
1.000000 0.403922 0.113725
0.050980 0.486275 0.125490
0.121569 0.482353 0.121569
0.192157 0.482353 0.125490
0.262745 0.482353 0.113725
0.333333 0.482353 0.121569
0.403922 0.478431 0.113725
0.470588 0.474510 0.117647
0.545098 0.478431 0.117647
0.611765 0.482353 0.121569
0.678431 0.482353 0.109804
0.752941 0.482353 0.117647
0.819608 0.478431 0.109804
0.890196 0.474510 0.113725
0.960784 0.474510 0.113725
1.000000 0.474510 0.105882
1.000000 0.474510 0.113725
0.050980 0.556863 0.125490
0.117647 0.556863 0.113725
0.184314 0.552941 0.117647
0.258824 0.552941 0.113725
0.325490 0.549020 0.117647
0.396078 0.545098 0.113725
0.474510 0.552941 0.121569
0.541176 0.549020 0.109804
0.615686 0.552941 0.117647
0.678431 0.552941 0.109804
0.752941 0.545098 0.113725
0.819608 0.549020 0.113725
0.894118 0.541176 0.113725
0.952941 0.541176 0.109804
1.000000 0.541176 0.109804
1.000000 0.541176 0.101961
0.047059 0.623529 0.117647
0.121569 0.623529 0.113725
0.188235 0.619608 0.117647
0.250980 0.619608 0.113725
0.337255 0.623529 0.121569
0.396078 0.623529 0.109804
0.470588 0.615686 0.113725
0.537255 0.623529 0.109804
0.607843 0.615686 0.113725
0.678431 0.619608 0.113725
0.749020 0.615686 0.113725
0.815686 0.611765 0.109804
0.882353 0.619608 0.109804
0.956863 0.611765 0.101961
1.000000 0.611765 0.105882
1.000000 0.615686 0.109804
0.047059 0.694118 0.117647
0.113725 0.690196 0.113725
0.192157 0.694118 0.121569
0.258824 0.694118 0.109804
0.321569 0.694118 0.113725
0.400000 0.690196 0.109804
0.462745 0.690196 0.113725
0.537255 0.686275 0.109804
0.603922 0.690196 0.113725
0.678431 0.682353 0.109804
0.741176 0.682353 0.105882
0.819608 0.682353 0.101961
0.882353 0.682353 0.105882
0.964706 0.686275 0.109804
1.000000 0.682353 0.113725
1.000000 0.682353 0.105882
0.043137 0.764706 0.117647
0.121569 0.760784 0.125490
0.184314 0.764706 0.113725
0.258824 0.756863 0.105882
0.325490 0.760784 0.113725
0.400000 0.756863 0.109804
0.466667 0.760784 0.113725
0.529412 0.760784 0.109804
0.603922 0.752941 0.105882
0.670588 0.756863 0.101961
0.745098 0.752941 0.105882
0.807843 0.752941 0.101961
0.890196 0.752941 0.113725
0.952941 0.752941 0.105882
1.000000 0.745098 0.109804
1.000000 0.752941 0.101961
0.047059 0.835294 0.113725
0.109804 0.831373 0.113725
0.188235 0.831373 0.113725
0.250980 0.831373 0.117647
0.325490 0.823529 0.109804
0.392157 0.831373 0.109804
0.466667 0.823529 0.105882
0.529412 0.823529 0.098039
0.607843 0.819608 0.105882
0.670588 0.823529 0.101961
0.745098 0.827451 0.113725
0.815686 0.823529 0.105882
0.882353 0.819608 0.109804
0.956863 0.823529 0.101961
1.000000 0.819608 0.101961
1.000000 0.815686 0.098039
0.050980 0.901961 0.113725
0.113725 0.901961 0.117647
0.188235 0.894118 0.109804
0.254902 0.898039 0.117647
0.321569 0.898039 0.105882
0.388235 0.894118 0.105882
0.462745 0.894118 0.105882
0.529412 0.894118 0.101961
0.596078 0.894118 0.105882
0.678431 0.894118 0.105882
0.741176 0.894118 0.109804
0.819608 0.894118 0.101961
0.882353 0.894118 0.101961
0.949020 0.890196 0.098039
1.000000 0.890196 0.105882
1.000000 0.886275 0.098039
0.035294 0.972549 0.109804
0.109804 0.964706 0.113725
0.176471 0.968627 0.105882
0.250980 0.964706 0.105882
0.317647 0.968627 0.105882
0.388235 0.964706 0.109804
0.458824 0.964706 0.105882
0.533333 0.964706 0.113725
0.600000 0.964706 0.109804
0.670588 0.960784 0.094118
0.741176 0.964706 0.101961
0.811765 0.960784 0.098039
0.878431 0.956863 0.098039
0.952941 0.956863 0.098039
1.000000 0.956863 0.101961
1.000000 0.960784 0.094118
0.039216 1.000000 0.105882
0.109804 1.000000 0.105882
0.176471 1.000000 0.101961
0.250980 1.000000 0.109804
0.321569 1.000000 0.105882
0.392157 1.000000 0.109804
0.462745 1.000000 0.109804
0.525490 1.000000 0.101961
0.600000 1.000000 0.101961
0.666667 1.000000 0.105882
0.737255 1.000000 0.098039
0.807843 1.000000 0.105882
0.878431 1.000000 0.101961
0.945098 1.000000 0.086275
1.000000 1.000000 0.094118
1.000000 1.000000 0.094118
0.031373 1.000000 0.101961
0.105882 1.000000 0.109804
0.180392 1.000000 0.105882
0.247059 1.000000 0.109804
0.321569 1.000000 0.109804
0.388235 1.000000 0.101961
0.454902 1.000000 0.098039
0.529412 1.000000 0.105882
0.596078 1.000000 0.098039
0.662745 1.000000 0.105882
0.737255 1.000000 0.101961
0.800000 1.000000 0.105882
0.878431 1.000000 0.094118
0.945098 1.000000 0.101961
1.000000 1.000000 0.098039
1.000000 1.000000 0.094118
0.062745 0.070588 0.200000
0.129412 0.074510 0.200000
0.203922 0.066667 0.203922
0.266667 0.066667 0.196078
0.341176 0.070588 0.196078
0.407843 0.066667 0.192157
0.482353 0.066667 0.196078
0.549020 0.062745 0.192157
0.623529 0.062745 0.200000
0.694118 0.066667 0.200000
0.756863 0.066667 0.200000
0.831373 0.062745 0.188235
0.898039 0.066667 0.196078
0.972549 0.058824 0.188235
1.000000 0.058824 0.192157
1.000000 0.054902 0.192157
0.058824 0.141176 0.203922
0.129412 0.137255 0.196078
0.200000 0.137255 0.196078
0.270588 0.137255 0.192157
0.333333 0.137255 0.192157
0.411765 0.133333 0.192157
0.478431 0.137255 0.200000
0.552941 0.133333 0.192157
0.619608 0.137255 0.200000
0.694118 0.129412 0.188235
0.760784 0.133333 0.196078
0.827451 0.133333 0.188235
0.898039 0.129412 0.192157
0.964706 0.133333 0.192157
1.000000 0.125490 0.192157
1.000000 0.129412 0.180392
0.054902 0.207843 0.192157
0.133333 0.203922 0.200000
0.196078 0.203922 0.192157
0.266667 0.207843 0.192157
0.341176 0.207843 0.200000
0.403922 0.207843 0.192157
0.482353 0.203922 0.200000
0.545098 0.207843 0.188235
0.619608 0.200000 0.188235
0.686275 0.203922 0.188235
0.760784 0.200000 0.192157
0.823529 0.200000 0.184314
0.901961 0.196078 0.192157
0.964706 0.200000 0.180392
1.000000 0.196078 0.188235
1.000000 0.200000 0.184314
0.058824 0.274510 0.192157
0.117647 0.274510 0.196078
0.203922 0.278431 0.200000
0.266667 0.278431 0.200000
0.345098 0.274510 0.200000
0.407843 0.278431 0.188235
0.482353 0.270588 0.188235
0.549020 0.274510 0.188235
0.615686 0.270588 0.192157
0.682353 0.270588 0.184314
0.749020 0.270588 0.192157
0.823529 0.266667 0.180392
0.886275 0.266667 0.180392
0.972549 0.270588 0.184314
1.000000 0.270588 0.188235
1.000000 0.266667 0.188235
0.066667 0.349020 0.200000
0.125490 0.349020 0.200000
0.188235 0.349020 0.196078
0.266667 0.345098 0.196078
0.329412 0.349020 0.188235
0.403922 0.341176 0.192157
0.470588 0.345098 0.192157
0.545098 0.337255 0.192157
0.611765 0.341176 0.192157
0.686275 0.337255 0.180392
0.749020 0.337255 0.180392
0.827451 0.345098 0.184314
0.894118 0.341176 0.188235
0.964706 0.337255 0.184314
1.000000 0.337255 0.188235
1.000000 0.333333 0.184314
0.050980 0.419608 0.196078
0.129412 0.415686 0.196078
0.192157 0.415686 0.188235
0.262745 0.411765 0.192157
0.333333 0.415686 0.192157
0.403922 0.411765 0.192157
0.470588 0.407843 0.188235
0.545098 0.407843 0.196078
0.611765 0.407843 0.180392
0.678431 0.403922 0.184314
0.756863 0.411765 0.188235
0.819608 0.411765 0.184314
0.898039 0.407843 0.188235
0.960784 0.407843 0.184314
1.000000 0.403922 0.180392
1.000000 0.407843 0.176471
0.054902 0.486275 0.188235
0.121569 0.482353 0.192157
0.192157 0.482353 0.188235
0.258824 0.482353 0.192157
0.333333 0.478431 0.188235
0.400000 0.482353 0.196078
0.466667 0.482353 0.180392
0.537255 0.478431 0.184314
0.615686 0.482353 0.188235
0.682353 0.478431 0.192157
0.749020 0.474510 0.184314
0.823529 0.478431 0.192157
0.890196 0.474510 0.180392
0.964706 0.478431 0.176471
1.000000 0.474510 0.180392
1.000000 0.474510 0.176471
0.047059 0.552941 0.188235
0.121569 0.552941 0.192157
0.188235 0.552941 0.188235
0.258824 0.549020 0.192157
0.329412 0.552941 0.180392
0.400000 0.545098 0.184314
0.474510 0.552941 0.188235
0.545098 0.549020 0.192157
0.611765 0.545098 0.184314
0.678431 0.549020 0.192157
0.749020 0.549020 0.180392
0.815686 0.545098 0.180392
0.890196 0.545098 0.180392
0.956863 0.541176 0.184314
1.000000 0.541176 0.176471
1.000000 0.541176 0.176471
0.050980 0.623529 0.188235
0.113725 0.619608 0.192157
0.188235 0.623529 0.180392
0.254902 0.619608 0.184314
0.329412 0.623529 0.184314
0.400000 0.623529 0.192157
0.470588 0.619608 0.184314
0.537255 0.615686 0.188235
0.611765 0.619608 0.180392
0.678431 0.615686 0.180392
0.745098 0.619608 0.180392
0.819608 0.611765 0.184314
0.882353 0.611765 0.176471
0.960784 0.611765 0.184314
1.000000 0.611765 0.180392
1.000000 0.611765 0.176471
0.043137 0.690196 0.176471
0.117647 0.690196 0.184314
0.188235 0.694118 0.184314
0.262745 0.694118 0.192157
0.325490 0.694118 0.184314
0.400000 0.686275 0.188235
0.466667 0.694118 0.180392
0.541176 0.686275 0.180392
0.603922 0.686275 0.176471
0.674510 0.686275 0.184314
0.745098 0.682353 0.176471
0.811765 0.678431 0.180392
0.886275 0.682353 0.180392
0.952941 0.686275 0.176471
1.000000 0.686275 0.176471
1.000000 0.682353 0.180392
0.047059 0.764706 0.192157
0.113725 0.760784 0.184314
0.188235 0.764706 0.184314
0.254902 0.760784 0.188235
0.325490 0.756863 0.172549
0.392157 0.760784 0.180392
0.466667 0.756863 0.176471
0.533333 0.760784 0.184314
0.607843 0.752941 0.176471
0.666667 0.752941 0.180392
0.749020 0.752941 0.180392
0.815686 0.756863 0.176471
0.890196 0.749020 0.172549
0.956863 0.752941 0.180392
1.000000 0.749020 0.172549
1.000000 0.752941 0.180392
0.050980 0.831373 0.192157
0.109804 0.831373 0.188235
0.184314 0.823529 0.188235
0.250980 0.831373 0.180392
0.325490 0.827451 0.176471
0.388235 0.823529 0.176471
0.466667 0.823529 0.176471
0.529412 0.823529 0.180392
0.596078 0.827451 0.180392
0.678431 0.827451 0.176471
0.737255 0.827451 0.172549
0.819608 0.823529 0.180392
0.878431 0.823529 0.172549
0.952941 0.815686 0.176471
1.000000 0.823529 0.176471
1.000000 0.815686 0.176471
0.047059 0.894118 0.188235
0.113725 0.901961 0.180392
0.176471 0.901961 0.184314
0.250980 0.894118 0.176471
0.317647 0.898039 0.184314
0.392157 0.894118 0.180392
0.454902 0.894118 0.172549
0.537255 0.898039 0.176471
0.600000 0.898039 0.172549
0.674510 0.890196 0.176471
0.741176 0.894118 0.172549
0.811765 0.890196 0.176471
0.882353 0.894118 0.176471
0.952941 0.890196 0.176471
1.000000 0.886275 0.164706
1.000000 0.890196 0.172549
0.039216 0.972549 0.184314
0.113725 0.964706 0.176471
0.176471 0.964706 0.180392
0.254902 0.964706 0.180392
0.317647 0.960784 0.180392
0.396078 0.968627 0.176471
0.462745 0.964706 0.180392
0.533333 0.964706 0.176471
0.603922 0.964706 0.172549
0.666667 0.964706 0.176471
0.741176 0.956863 0.172549
0.807843 0.960784 0.176471
0.882353 0.956863 0.164706
0.945098 0.956863 0.168627
1.000000 0.956863 0.164706
1.000000 0.952941 0.168627
0.039216 1.000000 0.180392
0.105882 1.000000 0.180392
0.180392 1.000000 0.180392
0.247059 1.000000 0.172549
0.325490 1.000000 0.180392
0.388235 1.000000 0.176471
0.458824 1.000000 0.180392
0.529412 1.000000 0.176471
0.596078 1.000000 0.180392
0.670588 1.000000 0.176471
0.737255 1.000000 0.164706
0.807843 1.000000 0.168627
0.878431 1.000000 0.164706
0.949020 1.000000 0.168627
1.000000 1.000000 0.164706
1.000000 1.000000 0.176471
0.035294 1.000000 0.180392
0.109804 1.000000 0.172549
0.180392 1.000000 0.180392
0.250980 1.000000 0.176471
0.317647 1.000000 0.176471
0.392157 1.000000 0.176471
0.458824 1.000000 0.180392
0.529412 1.000000 0.172549
0.596078 1.000000 0.172549
0.662745 1.000000 0.168627
0.737255 1.000000 0.172549
0.803922 1.000000 0.168627
0.870588 1.000000 0.172549
0.949020 1.000000 0.176471
1.000000 1.000000 0.160784
1.000000 1.000000 0.164706
0.058824 0.074510 0.266667
0.129412 0.070588 0.266667
0.200000 0.070588 0.266667
0.270588 0.066667 0.270588
0.337255 0.062745 0.262745
0.411765 0.066667 0.270588
0.478431 0.062745 0.266667
0.556863 0.070588 0.270588
0.623529 0.066667 0.262745
0.694118 0.062745 0.266667
0.760784 0.066667 0.266667
0.835294 0.058824 0.266667
0.898039 0.058824 0.262745
0.968627 0.058824 0.270588
1.000000 0.058824 0.254902
1.000000 0.054902 0.258824
0.062745 0.141176 0.266667
0.133333 0.137255 0.270588
0.192157 0.137255 0.262745
0.274510 0.133333 0.270588
0.333333 0.137255 0.266667
0.407843 0.137255 0.262745
0.482353 0.141176 0.262745
0.549020 0.133333 0.266667
0.619608 0.133333 0.258824
0.690196 0.133333 0.266667
0.760784 0.129412 0.262745
0.827451 0.133333 0.270588
0.901961 0.129412 0.254902
0.960784 0.129412 0.258824
1.000000 0.125490 0.258824
1.000000 0.125490 0.258824
0.054902 0.207843 0.270588
0.129412 0.207843 0.270588
0.196078 0.203922 0.266667
0.270588 0.207843 0.262745
0.345098 0.207843 0.262745
0.403922 0.207843 0.266667
0.478431 0.203922 0.258824
0.545098 0.207843 0.266667
0.619608 0.200000 0.262745
0.682353 0.200000 0.262745
0.760784 0.200000 0.254902
0.823529 0.200000 0.258824
0.898039 0.200000 0.258824
0.964706 0.196078 0.258824
1.000000 0.196078 0.254902
1.000000 0.200000 0.266667
0.058824 0.274510 0.274510
0.125490 0.282353 0.262745
0.200000 0.274510 0.266667
0.266667 0.278431 0.266667
0.337255 0.274510 0.258824
0.407843 0.278431 0.266667
0.470588 0.278431 0.262745
0.545098 0.270588 0.262745
0.611765 0.274510 0.254902
0.686275 0.270588 0.258824
0.749020 0.270588 0.250980
0.827451 0.266667 0.258824
0.890196 0.266667 0.254902
0.968627 0.262745 0.262745
1.000000 0.270588 0.250980
1.000000 0.262745 0.254902
0.050980 0.349020 0.266667
0.129412 0.349020 0.266667
0.192157 0.349020 0.266667
0.266667 0.341176 0.262745
0.333333 0.345098 0.270588
0.407843 0.341176 0.262745
0.470588 0.341176 0.250980
0.549020 0.337255 0.258824
0.611765 0.341176 0.250980
0.682353 0.341176 0.258824
0.752941 0.337255 0.254902
0.819608 0.341176 0.262745
0.898039 0.341176 0.250980
0.960784 0.341176 0.254902
1.000000 0.333333 0.250980
1.000000 0.337255 0.254902
0.054902 0.419608 0.266667
0.129412 0.411765 0.262745
0.196078 0.415686 0.270588
0.258824 0.415686 0.262745
0.333333 0.411765 0.258824
0.400000 0.415686 0.258824
0.474510 0.407843 0.258824
0.537255 0.407843 0.254902
0.615686 0.407843 0.262745
0.682353 0.411765 0.262745
0.760784 0.411765 0.250980
0.823529 0.411765 0.254902
0.890196 0.407843 0.250980
0.964706 0.407843 0.254902
1.000000 0.403922 0.250980
1.000000 0.400000 0.254902
0.054902 0.482353 0.266667
0.121569 0.486275 0.262745
0.196078 0.482353 0.258824
0.262745 0.486275 0.258824
0.329412 0.482353 0.258824
0.396078 0.478431 0.254902
0.470588 0.478431 0.262745
0.545098 0.482353 0.262745
0.611765 0.478431 0.262745
0.686275 0.482353 0.254902
0.752941 0.474510 0.258824
0.823529 0.474510 0.250980
0.890196 0.478431 0.250980
0.964706 0.470588 0.254902
