public/luts/bright.cube
# Studiio — look « bright », genere par scripts/lut/generer-luts.mjs
# Source : les coefficients de LOOKS_RENDUS, calcules par ffmpeg lui-meme.
# Aucune LUT tierce, aucun telechargement : provenance et licence du depot.
LUT_3D_SIZE 6
DOMAIN_MIN 0.0 0.0 0.0
DOMAIN_MAX 1.0 1.0 1.0
0.062745 0.074510 0.058824
0.266667 0.070588 0.054902
0.482353 0.062745 0.050980
0.690196 0.066667 0.054902
0.905882 0.058824 0.050980
1.000000 0.054902 0.047059
0.054902 0.278431 0.050980
0.270588 0.278431 0.062745
0.478431 0.274510 0.050980
0.682353 0.274510 0.047059
0.894118 0.266667 0.043137
1.000000 0.266667 0.043137
0.050980 0.486275 0.043137
0.262745 0.486275 0.054902
0.474510 0.482353 0.043137
0.686275 0.478431 0.050980
0.890196 0.478431 0.047059
1.000000 0.474510 0.035294
0.050980 0.686275 0.050980
0.258824 0.694118 0.047059
0.458824 0.690196 0.043137
0.674510 0.682353 0.039216
0.882353 0.686275 0.039216
1.000000 0.682353 0.039216
0.047059 0.898039 0.050980
0.250980 0.898039 0.039216
0.458824 0.894118 0.043137
0.674510 0.894118 0.035294
0.882353 0.890196 0.031373
1.000000 0.886275 0.027451
0.039216 1.000000 0.043137
0.254902 1.000000 0.035294
0.458824 1.000000 0.039216
0.666667 1.000000 0.027451
0.878431 1.000000 0.031373
1.000000 1.000000 0.023529
0.058824 0.074510 0.266667
0.270588 0.066667 0.270588
0.478431 0.062745 0.266667
0.694118 0.062745 0.266667
0.898039 0.058824 0.262745
1.000000 0.054902 0.258824
0.058824 0.274510 0.274510
0.266667 0.278431 0.266667
0.470588 0.278431 0.262745
0.686275 0.270588 0.258824
0.890196 0.266667 0.254902
1.000000 0.262745 0.254902
0.054902 0.482353 0.266667
0.262745 0.486275 0.258824
0.470588 0.478431 0.262745
0.686275 0.482353 0.254902
0.890196 0.478431 0.250980
1.000000 0.474510 0.247059
0.047059 0.690196 0.258824
0.254902 0.694118 0.250980
0.462745 0.686275 0.254902
0.674510 0.682353 0.243137
0.886275 0.682353 0.250980
1.000000 0.682353 0.250980
0.039216 0.901961 0.254902
0.254902 0.894118 0.258824
0.458824 0.894118 0.247059
0.666667 0.898039 0.247059
0.882353 0.890196 0.243137
1.000000 0.886275 0.239216
0.039216 1.000000 0.247059
0.250980 1.000000 0.254902
0.454902 1.000000 0.243137
0.666667 1.000000 0.247059
0.874510 1.000000 0.235294
1.000000 1.000000 0.235294
0.062745 0.066667 0.486275
0.266667 0.066667 0.474510
0.482353 0.066667 0.482353
0.690196 0.062745 0.470588
0.894118 0.058824 0.474510
1.000000 0.054902 0.470588
0.062745 0.278431 0.482353
0.266667 0.278431 0.470588
0.474510 0.274510 0.474510
0.686275 0.266667 0.470588
0.898039 0.266667 0.470588
1.000000 0.266667 0.466667
0.043137 0.486275 0.470588
0.266667 0.478431 0.478431
0.474510 0.482353 0.470588
0.678431 0.482353 0.466667
0.894118 0.474510 0.462745
1.000000 0.474510 0.458824
0.043137 0.698039 0.466667
0.258824 0.686275 0.470588
0.462745 0.686275 0.458824
0.670588 0.678431 0.462745
0.890196 0.686275 0.458824
1.000000 0.686275 0.454902
0.043137 0.901961 0.458824
0.250980 0.894118 0.462745
0.458824 0.898039 0.454902
0.670588 0.890196 0.458824
0.878431 0.890196 0.447059
1.000000 0.882353 0.450980
0.039216 1.000000 0.462745
0.243137 1.000000 0.458824
0.458824 1.000000 0.462745
0.662745 1.000000 0.450980
0.870588 1.000000 0.450980
1.000000 1.000000 0.447059
0.054902 0.070588 0.690196
0.270588 0.062745 0.694118
0.478431 0.066667 0.686275
0.690196 0.062745 0.682353
0.898039 0.054902 0.678431
1.000000 0.054902 0.674510
0.054902 0.282353 0.686275
0.270588 0.274510 0.690196
0.474510 0.274510 0.678431
0.682353 0.266667 0.682353
0.898039 0.266667 0.674510
1.000000 0.262745 0.678431
0.047059 0.478431 0.682353
0.262745 0.478431 0.682353
0.470588 0.486275 0.674510
0.682353 0.478431 0.678431
0.890196 0.474510 0.674510
1.000000 0.466667 0.670588
0.047059 0.690196 0.686275
0.250980 0.690196 0.674510
0.466667 0.682353 0.678431
0.670588 0.682353 0.666667
0.878431 0.682353 0.666667
1.000000 0.678431 0.670588
0.039216 0.898039 0.678431
0.243137 0.898039 0.666667
0.462745 0.894118 0.674510
0.666667 0.894118 0.662745
0.878431 0.886275 0.666667
1.000000 0.882353 0.654902
0.039216 1.000000 0.674510
0.247059 1.000000 0.662745
0.458824 1.000000 0.666667
0.662745 1.000000 0.654902
0.874510 1.000000 0.666667
1.000000 1.000000 0.654902
0.054902 0.066667 0.909804
0.270588 0.062745 0.898039
0.478431 0.062745 0.901961
0.686275 0.058824 0.898039
0.898039 0.054902 0.894118
1.000000 0.054902 0.890196
0.058824 0.278431 0.909804
0.262745 0.274510 0.898039
0.478431 0.266667 0.901961
0.678431 0.266667 0.890196
0.894118 0.266667 0.890196
1.000000 0.262745 0.886275
0.047059 0.478431 0.894118
0.250980 0.478431 0.882353
0.474510 0.478431 0.898039
0.678431 0.478431 0.886275
0.886275 0.470588 0.890196
1.000000 0.474510 0.882353
0.043137 0.690196 0.894118
0.254902 0.686275 0.890196
0.462745 0.682353 0.886275
0.670588 0.686275 0.878431
0.882353 0.678431 0.882353
1.000000 0.678431 0.882353
0.039216 0.898039 0.886275
0.250980 0.894118 0.894118
0.454902 0.894118 0.882353
0.670588 0.886275 0.886275
0.874510 0.886275 0.874510
1.000000 0.890196 0.874510
0.043137 1.000000 0.882353
0.247059 1.000000 0.886275
0.450980 1.000000 0.874510
0.670588 1.000000 0.882353
0.874510 1.000000 0.870588
1.000000 1.000000 0.874510
0.058824 0.066667 1.000000
0.266667 0.070588 1.000000
0.482353 0.058824 1.000000
0.686275 0.058824 1.000000
0.886275 0.054902 1.000000
1.000000 0.054902 1.000000
0.054902 0.278431 1.000000
0.258824 0.274510 1.000000
0.474510 0.266667 1.000000
0.682353 0.270588 1.000000
0.894118 0.266667 1.000000
1.000000 0.258824 1.000000
0.043137 0.478431 1.000000
0.258824 0.478431 1.000000
0.466667 0.482353 1.000000
0.682353 0.470588 1.000000
0.886275 0.470588 1.000000
1.000000 0.470588 1.000000
0.047059 0.686275 1.000000
0.250980 0.686275 1.000000
0.454902 0.686275 1.000000
0.674510 0.678431 1.000000
0.878431 0.678431 1.000000
1.000000 0.678431 1.000000
0.043137 0.894118 1.000000
0.250980 0.898039 1.000000
0.458824 0.890196 1.000000
0.670588 0.886275 1.000000
0.874510 0.886275 1.000000
1.000000 0.886275 1.000000
0.035294 1.000000 1.000000
0.243137 1.000000 1.000000
0.454902 1.000000 1.000000
0.662745 1.000000 1.000000
0.878431 1.000000 1.000000
1.000000 1.000000 1.000000
