public/luts/cinema-cool.cube
# Studiio — look « cinema-cool », genere par scripts/lut/generer-luts.mjs
# Source : les coefficients de LOOKS_RENDUS, calcules par ffmpeg lui-meme.
# Aucune LUT tierce, aucun telechargement : provenance et licence du depot.
LUT_3D_SIZE 16
DOMAIN_MIN 0.0 0.0 0.0
DOMAIN_MAX 1.0 1.0 1.0
0.000000 0.000000 0.000000
0.000000 0.000000 0.000000
0.066667 0.000000 0.000000
0.125490 0.000000 0.000000
0.192157 0.000000 0.000000
0.254902 0.000000 0.019608
0.309804 0.000000 0.043137
0.352941 0.000000 0.062745
0.415686 0.000000 0.082353
0.478431 0.000000 0.082353
0.552941 0.000000 0.078431
0.623529 0.000000 0.070588
0.701961 0.000000 0.062745
0.772549 0.000000 0.054902
0.843137 0.000000 0.054902
0.905882 0.000000 0.054902
0.000000 0.003922 0.000000
0.000000 0.011765 0.000000
0.066667 0.007843 0.000000
0.141176 0.019608 0.000000
0.207843 0.019608 0.000000
0.254902 0.023529 0.019608
0.313725 0.027451 0.047059
0.364706 0.027451 0.066667
0.411765 0.035294 0.082353
0.486275 0.035294 0.082353
0.560784 0.039216 0.078431
0.635294 0.043137 0.070588
0.705882 0.047059 0.062745
0.780392 0.043137 0.054902
0.847059 0.054902 0.054902
0.913725 0.054902 0.054902
0.000000 0.074510 0.000000
0.015686 0.078431 0.000000
0.074510 0.090196 0.000000
0.141176 0.082353 0.000000
0.215686 0.094118 0.003922
0.258824 0.094118 0.023529
0.309804 0.098039 0.043137
0.368627 0.098039 0.070588
0.419608 0.105882 0.082353
0.490196 0.101961 0.082353
0.568627 0.109804 0.074510
0.643137 0.109804 0.066667
0.717647 0.117647 0.062745
0.788235 0.117647 0.054902
0.854902 0.121569 0.054902
0.917647 0.129412 0.054902
0.000000 0.152941 0.000000
0.019608 0.149020 0.000000
0.078431 0.149020 0.000000
0.152941 0.156863 0.000000
0.215686 0.160784 0.003922
0.270588 0.160784 0.027451
0.321569 0.168627 0.047059
0.372549 0.164706 0.070588
0.435294 0.172549 0.082353
0.490196 0.176471 0.082353
0.572549 0.180392 0.074510
0.647059 0.184314 0.066667
0.729412 0.184314 0.058824
0.788235 0.188235 0.054902
0.866667 0.192157 0.054902
0.925490 0.192157 0.054902
0.000000 0.215686 0.003922
0.015686 0.223529 0.003922
0.090196 0.227451 0.007843
0.145098 0.227451 0.007843
0.223529 0.231373 0.007843
0.270588 0.231373 0.027451
0.325490 0.235294 0.050980
0.372549 0.239216 0.070588
0.439216 0.243137 0.082353
0.505882 0.247059 0.082353
0.580392 0.250980 0.074510
0.650980 0.250980 0.066667
0.737255 0.254902 0.058824
0.796078 0.258824 0.054902
0.866667 0.258824 0.054902
0.933333 0.262745 0.054902
0.000000 0.290196 0.027451
0.003922 0.290196 0.027451
0.082353 0.298039 0.031373
0.145098 0.294118 0.027451
0.211765 0.301961 0.031373
0.274510 0.305882 0.031373
0.333333 0.305882 0.054902
0.380392 0.305882 0.074510
0.443137 0.317647 0.082353
0.509804 0.313725 0.082353
0.588235 0.325490 0.074510
0.658824 0.321569 0.066667
0.733333 0.325490 0.058824
0.811765 0.329412 0.054902
0.870588 0.333333 0.062745
0.937255 0.333333 0.054902
0.000000 0.360784 0.050980
0.003922 0.360784 0.050980
0.062745 0.368627 0.054902
0.137255 0.368627 0.054902
0.203922 0.372549 0.054902
0.262745 0.372549 0.054902
0.333333 0.380392 0.058824
0.388235 0.376471 0.078431
0.443137 0.384314 0.082353
0.521569 0.388235 0.082353
0.592157 0.388235 0.074510
0.670588 0.384314 0.070588
0.745098 0.400000 0.066667
0.811765 0.396078 0.062745
0.886275 0.403922 0.066667
0.941176 0.407843 0.062745
0.000000 0.431373 0.074510
0.000000 0.427451 0.074510
0.062745 0.435294 0.074510
0.121569 0.435294 0.074510
0.188235 0.439216 0.078431
0.262745 0.443137 0.078431
0.317647 0.450980 0.082353
0.384314 0.454902 0.082353
0.458824 0.454902 0.082353
0.517647 0.454902 0.086275
0.603922 0.462745 0.078431
0.674510 0.462745 0.070588
0.752941 0.462745 0.062745
0.815686 0.470588 0.070588
0.886275 0.470588 0.070588
0.949020 0.470588 0.070588
0.000000 0.501961 0.082353
0.000000 0.501961 0.082353
0.062745 0.505882 0.082353
0.121569 0.509804 0.082353
0.196078 0.513725 0.082353
0.254902 0.513725 0.082353
0.333333 0.517647 0.082353
0.388235 0.521569 0.086275
0.462745 0.521569 0.086275
0.533333 0.525490 0.086275
0.607843 0.529412 0.078431
0.682353 0.533333 0.078431
0.764706 0.537255 0.070588
0.819608 0.537255 0.070588
0.890196 0.549020 0.074510
0.956863 0.545098 0.078431
0.000000 0.568627 0.082353
0.000000 0.576471 0.078431
0.074510 0.576471 0.078431
0.133333 0.576471 0.078431
0.207843 0.584314 0.078431
0.266667 0.584314 0.082353
0.333333 0.588235 0.082353
0.407843 0.588235 0.086275
0.466667 0.596078 0.086275
0.537255 0.592157 0.090196
0.619608 0.603922 0.086275
0.686275 0.600000 0.078431
0.764706 0.611765 0.074510
0.831373 0.607843 0.078431
0.894118 0.615686 0.086275
0.972549 0.619608 0.098039
0.000000 0.643137 0.074510
0.015686 0.639216 0.074510
0.078431 0.647059 0.074510
0.152941 0.647059 0.074510
0.219608 0.650980 0.074510
0.286275 0.654902 0.078431
0.352941 0.662745 0.078431
0.419608 0.658824 0.082353
0.490196 0.670588 0.082353
0.556863 0.666667 0.082353
0.623529 0.670588 0.082353
0.705882 0.670588 0.082353
0.768627 0.678431 0.086275
0.835294 0.674510 0.086275
0.909804 0.682353 0.090196
0.968627 0.690196 0.098039
0.000000 0.709804 0.070588
0.035294 0.709804 0.070588
0.101961 0.713725 0.074510
0.160784 0.713725 0.066667
0.235294 0.721569 0.078431
0.301961 0.721569 0.074510
0.360784 0.729412 0.074510
0.431373 0.733333 0.078431
0.505882 0.733333 0.078431
0.564706 0.741176 0.082353
0.639216 0.741176 0.090196
0.701961 0.741176 0.090196
0.784314 0.749020 0.090196
0.843137 0.752941 0.098039
0.909804 0.752941 0.094118
0.972549 0.760784 0.105882
0.000000 0.780392 0.066667
0.039216 0.780392 0.058824
0.117647 0.788235 0.070588
0.172549 0.792157 0.066667
0.247059 0.792157 0.074510
0.309804 0.796078 0.070588
0.384314 0.796078 0.078431
0.439216 0.800000 0.074510
0.517647 0.803922 0.086275
0.580392 0.803922 0.086275
0.650980 0.815686 0.090196
0.717647 0.819608 0.098039
0.784314 0.815686 0.094118
0.850980 0.827451 0.105882
0.913725 0.827451 0.098039
0.972549 0.827451 0.105882
0.000000 0.847059 0.066667
0.047059 0.854902 0.066667
0.121569 0.854902 0.074510
0.188235 0.858824 0.070588
0.254902 0.862745 0.078431
0.313725 0.862745 0.074510
0.388235 0.870588 0.094118
0.454902 0.866667 0.086275
0.513725 0.874510 0.094118
0.592157 0.882353 0.098039
0.654902 0.882353 0.101961
0.717647 0.882353 0.094118
0.788235 0.890196 0.098039
0.862745 0.890196 0.105882
0.921569 0.898039 0.105882
0.972549 0.898039 0.113725
0.000000 0.921569 0.074510
0.054902 0.917647 0.066667
0.121569 0.929412 0.078431
0.188235 0.929412 0.074510
0.254902 0.929412 0.090196
0.321569 0.933333 0.086275
0.388235 0.937255 0.094118
0.466667 0.945098 0.098039
0.521569 0.949020 0.101961
0.592157 0.945098 0.094118
0.662745 0.952941 0.105882
0.737255 0.952941 0.105882
0.792157 0.956863 0.109804
0.862745 0.968627 0.113725
0.929412 0.960784 0.113725
0.972549 0.968627 0.121569
0.000000 0.996078 0.078431
0.066667 0.992157 0.074510
0.133333 0.992157 0.090196
0.200000 1.000000 0.086275
0.266667 1.000000 0.094118
0.325490 1.000000 0.090196
0.400000 1.000000 0.101961
0.458824 1.000000 0.094118
0.533333 1.000000 0.101961
0.600000 1.000000 0.105882
0.666667 1.000000 0.109804
0.737255 1.000000 0.113725
0.807843 1.000000 0.121569
0.866667 1.000000 0.121569
0.941176 1.000000 0.129412
0.972549 1.000000 0.129412
0.000000 0.000000 0.000000
0.000000 0.000000 0.000000
0.066667 0.000000 0.000000
0.133333 0.000000 0.000000
0.200000 0.000000 0.000000
0.250980 0.000000 0.031373
0.309804 0.000000 0.058824
0.352941 0.000000 0.078431
0.419608 0.000000 0.101961
0.482353 0.000000 0.105882
0.545098 0.000000 0.101961
0.627451 0.000000 0.098039
0.701961 0.000000 0.090196
0.776471 0.000000 0.086275
0.843137 0.000000 0.090196
0.909804 0.000000 0.098039
0.000000 0.003922 0.003922
0.003922 0.015686 0.000000
0.070588 0.019608 0.000000
0.137255 0.011765 0.011765
0.200000 0.027451 0.019608
0.254902 0.023529 0.043137
0.305882 0.027451 0.062745
0.360784 0.027451 0.098039
0.415686 0.035294 0.105882
0.494118 0.035294 0.109804
0.564706 0.043137 0.101961
0.635294 0.039216 0.098039
0.717647 0.050980 0.094118
0.784314 0.043137 0.098039
0.847059 0.050980 0.098039
0.921569 0.058824 0.109804
0.000000 0.082353 0.007843
0.011765 0.078431 0.011765
0.078431 0.090196 0.023529
0.145098 0.086275 0.015686
0.207843 0.090196 0.023529
0.258824 0.094118 0.054902
0.309804 0.098039 0.078431
0.364706 0.094118 0.101961
0.431373 0.105882 0.109804
0.490196 0.105882 0.113725
0.572549 0.109804 0.101961
0.647059 0.109804 0.105882
0.721569 0.117647 0.098039
0.792157 0.125490 0.109804
0.858824 0.121569 0.105882
0.913725 0.125490 0.105882
0.000000 0.149020 0.019608
0.015686 0.152941 0.015686
0.086275 0.152941 0.023529
0.145098 0.156863 0.019608
0.211765 0.160784 0.047059
0.258824 0.160784 0.054902
0.313725 0.168627 0.094118
0.360784 0.172549 0.109804
0.435294 0.172549 0.113725
0.498039 0.176471 0.121569
0.580392 0.180392 0.113725
0.650980 0.180392 0.109804
0.733333 0.184314 0.105882
0.792157 0.188235 0.105882
0.862745 0.188235 0.105882
0.933333 0.196078 0.117647
0.000000 0.219608 0.027451
0.011765 0.219608 0.031373
0.082353 0.227451 0.047059
0.149020 0.227451 0.039216
0.211765 0.231373 0.050980
0.266667 0.235294 0.070588
0.321569 0.235294 0.105882
0.368627 0.243137 0.125490
0.443137 0.243137 0.133333
0.513725 0.243137 0.125490
0.584314 0.254902 0.121569
0.662745 0.250980 0.113725
0.733333 0.254902 0.105882
0.807843 0.262745 0.117647
0.866667 0.266667 0.113725
0.937255 0.266667 0.117647
0.000000 0.290196 0.058824
0.003922 0.294118 0.058824
0.066667 0.298039 0.070588
0.137255 0.298039 0.070588
0.196078 0.305882 0.086275
0.262745 0.301961 0.082353
0.317647 0.309804 0.121569
0.380392 0.305882 0.129412
0.439216 0.313725 0.137255
0.521569 0.313725 0.125490
0.596078 0.317647 0.125490
0.674510 0.329412 0.121569
0.741176 0.329412 0.113725
0.811765 0.329412 0.117647
0.874510 0.337255 0.117647
0.945098 0.337255 0.133333
0.000000 0.360784 0.082353
0.000000 0.356863 0.086275
0.058824 0.368627 0.105882
0.125490 0.364706 0.105882
0.192157 0.372549 0.121569
0.254902 0.372549 0.117647
0.317647 0.376471 0.129412
0.388235 0.380392 0.133333
0.454902 0.384314 0.141176
0.517647 0.388235 0.129412
0.607843 0.392157 0.133333
0.678431 0.396078 0.121569
0.745098 0.396078 0.121569
0.815686 0.403922 0.133333
0.882353 0.400000 0.129412
0.949020 0.411765 0.141176
0.000000 0.431373 0.113725
0.000000 0.431373 0.121569
0.054902 0.431373 0.129412
0.117647 0.439216 0.129412
0.188235 0.439216 0.137255
0.250980 0.443137 0.129412
0.321569 0.450980 0.141176
0.384314 0.450980 0.137255
0.466667 0.454902 0.145098
0.529412 0.462745 0.137255
0.611765 0.458824 0.133333
0.690196 0.466667 0.133333
0.756863 0.462745 0.137255
0.819608 0.470588 0.133333
0.890196 0.470588 0.141176
0.956863 0.478431 0.141176
0.000000 0.498039 0.129412
0.000000 0.505882 0.129412
0.062745 0.505882 0.137255
0.125490 0.505882 0.129412
0.200000 0.513725 0.141176
0.258824 0.513725 0.137255
0.337255 0.513725 0.141176
0.400000 0.525490 0.141176
0.462745 0.525490 0.145098
0.549020 0.529412 0.149020
0.611765 0.533333 0.145098
0.694118 0.537255 0.133333
0.760784 0.537255 0.141176
0.831373 0.541176 0.141176
0.890196 0.545098 0.145098
0.964706 0.549020 0.149020
0.000000 0.572549 0.137255
0.003922 0.572549 0.121569
0.074510 0.580392 0.133333
0.141176 0.576471 0.129412
0.207843 0.584314 0.133333
0.282353 0.592157 0.133333
0.345098 0.588235 0.137255
0.415686 0.584314 0.141176
0.482353 0.596078 0.152941
0.556863 0.600000 0.149020
0.623529 0.600000 0.145098
0.701961 0.607843 0.141176
0.764706 0.607843 0.145098
0.839216 0.611765 0.149020
0.898039 0.615686 0.149020
0.964706 0.619608 0.149020
0.000000 0.639216 0.129412
0.023529 0.639216 0.129412
0.090196 0.647059 0.129412
0.152941 0.647059 0.121569
0.227451 0.654902 0.129412
0.290196 0.650980 0.133333
0.364706 0.662745 0.145098
0.431373 0.666667 0.141176
0.501961 0.662745 0.145098
0.564706 0.674510 0.145098
0.635294 0.670588 0.149020
0.705882 0.674510 0.141176
0.772549 0.678431 0.149020
0.839216 0.686275 0.149020
0.905882 0.682353 0.152941
0.972549 0.690196 0.160784
0.000000 0.713725 0.129412
0.031373 0.709804 0.121569
0.109804 0.717647 0.121569
0.168627 0.717647 0.133333
0.239216 0.721569 0.129412
0.309804 0.729412 0.133333
0.372549 0.729412 0.137255
0.439216 0.733333 0.137255
0.513725 0.733333 0.145098
0.572549 0.741176 0.141176
0.647059 0.745098 0.149020
0.713725 0.749020 0.149020
0.780392 0.745098 0.152941
0.847059 0.756863 0.160784
0.913725 0.752941 0.164706
0.972549 0.756863 0.164706
0.000000 0.784314 0.121569
0.043137 0.780392 0.133333
0.113725 0.784314 0.129412
0.184314 0.792157 0.141176
0.247059 0.792157 0.137255
0.313725 0.796078 0.145098
0.388235 0.800000 0.145098
0.447059 0.807843 0.141176
0.509804 0.803922 0.145098
0.588235 0.811765 0.149020
0.643137 0.815686 0.152941
0.721569 0.819608 0.160784
0.784314 0.819608 0.164706
0.854902 0.819608 0.164706
0.917647 0.827451 0.172549
0.972549 0.827451 0.168627
0.000000 0.850980 0.129412
0.047059 0.850980 0.133333
0.117647 0.858824 0.137255
0.188235 0.858824 0.145098
0.250980 0.866667 0.145098
0.321569 0.870588 0.149020
0.384314 0.870588 0.145098
0.462745 0.874510 0.156863
0.517647 0.878431 0.152941
0.592157 0.878431 0.156863
0.658824 0.882353 0.164706
0.725490 0.886275 0.164706
0.788235 0.886275 0.168627
0.862745 0.894118 0.168627
0.921569 0.894118 0.172549
0.972549 0.905882 0.176471
0.000000 0.921569 0.137255
0.062745 0.925490 0.145098
0.121569 0.929412 0.137255
0.196078 0.933333 0.149020
0.258824 0.933333 0.145098
0.325490 0.937255 0.152941
0.392157 0.941176 0.152941
0.458824 0.945098 0.164706
0.533333 0.945098 0.164706
0.592157 0.952941 0.172549
0.662745 0.949020 0.168627
0.733333 0.956863 0.176471
0.796078 0.956863 0.172549
0.862745 0.964706 0.172549
0.933333 0.964706 0.180392
0.972549 0.972549 0.176471
0.000000 0.992157 0.137255
0.066667 1.000000 0.149020
0.133333 0.996078 0.145098
0.196078 1.000000 0.152941
0.266667 1.000000 0.152941
0.333333 1.000000 0.164706
0.396078 1.000000 0.160784
0.466667 1.000000 0.172549
0.537255 1.000000 0.168627
0.600000 1.000000 0.176471
0.670588 1.000000 0.172549
0.737255 1.000000 0.180392
0.807843 1.000000 0.180392
0.870588 1.000000 0.184314
0.929412 1.000000 0.180392
0.972549 1.000000 0.192157
0.000000 0.000000 0.058824
0.000000 0.000000 0.058824
0.070588 0.000000 0.066667
0.133333 0.000000 0.062745
0.196078 0.000000 0.074510
0.254902 0.000000 0.086275
0.309804 0.000000 0.121569
0.356863 0.000000 0.137255
0.411765 0.000000 0.172549
0.490196 0.000000 0.172549
0.549020 0.000000 0.172549
0.627451 0.000000 0.164706
0.701961 0.000000 0.164706
0.784314 0.000000 0.152941
0.839216 0.000000 0.156863
0.917647 0.000000 0.160784
0.000000 0.011765 0.066667
0.000000 0.011765 0.062745
0.070588 0.019608 0.074510
0.141176 0.015686 0.066667
0.203922 0.019608 0.082353
0.254902 0.023529 0.105882
0.305882 0.027451 0.145098
0.356863 0.023529 0.156863
0.419608 0.035294 0.176471
0.494118 0.039216 0.172549
0.568627 0.043137 0.172549
0.639216 0.050980 0.160784
0.713725 0.047059 0.156863
0.784314 0.054902 0.160784
0.854902 0.050980 0.164706
0.913725 0.058824 0.160784
0.000000 0.078431 0.066667
0.015686 0.078431 0.074510
0.074510 0.086275 0.074510
0.141176 0.090196 0.078431
0.192157 0.090196 0.121569
0.239216 0.094118 0.129412
0.298039 0.098039 0.172549
0.360784 0.105882 0.176471
0.431373 0.101961 0.172549
0.505882 0.113725 0.168627
0.580392 0.109804 0.164706
0.654902 0.113725 0.156863
0.721569 0.117647 0.164706
0.788235 0.121569 0.160784
0.862745 0.121569 0.176471
0.921569 0.129412 0.176471
0.000000 0.149020 0.074510
0.011765 0.149020 0.078431
0.082353 0.152941 0.101961
0.137255 0.156863 0.101961
0.200000 0.164706 0.129412
0.250980 0.168627 0.152941
0.298039 0.168627 0.172549
0.368627 0.176471 0.180392
0.439216 0.172549 0.180392
0.513725 0.176471 0.172549
0.584314 0.184314 0.172549
0.662745 0.188235 0.160784
0.725490 0.184314 0.172549
0.796078 0.192157 0.176471
0.858824 0.192157 0.180392
0.937255 0.200000 0.180392
0.000000 0.223529 0.094118
0.011765 0.219608 0.101961
0.062745 0.227451 0.125490
0.137255 0.231373 0.145098
0.192157 0.235294 0.133333
0.250980 0.231373 0.156863
0.305882 0.239216 0.184314
0.372549 0.243137 0.192157
0.443137 0.247059 0.188235
0.521569 0.250980 0.176471
0.588235 0.250980 0.180392
0.670588 0.258824 0.176471
0.733333 0.254902 0.180392
0.807843 0.258824 0.176471
0.866667 0.266667 0.184314
0.941176 0.266667 0.184314
0.000000 0.290196 0.117647
0.007843 0.298039 0.145098
0.050980 0.298039 0.156863
0.121569 0.294118 0.160784
0.192157 0.301961 0.168627
0.254902 0.305882 0.180392
0.309804 0.309804 0.184314
0.388235 0.313725 0.196078
0.450980 0.313725 0.192157
0.529412 0.313725 0.192157
0.603922 0.321569 0.184314
0.670588 0.329412 0.176471
0.741176 0.329412 0.184314
0.807843 0.333333 0.184314
0.878431 0.329412 0.188235
0.941176 0.345098 0.188235
0.000000 0.360784 0.145098
0.000000 0.356863 0.160784
0.043137 0.364706 0.180392
0.113725 0.372549 0.192157
0.184314 0.372549 0.184314
0.247059 0.384314 0.196078
0.317647 0.380392 0.200000
0.384314 0.384314 0.207843
0.462745 0.384314 0.200000
0.533333 0.392157 0.196078
0.607843 0.388235 0.184314
0.682353 0.396078 0.192157
0.745098 0.396078 0.188235
0.815686 0.407843 0.188235
0.886275 0.403922 0.192157
0.945098 0.411765 0.192157
0.000000 0.431373 0.172549
0.000000 0.439216 0.192157
0.058824 0.435294 0.184314
0.117647 0.443137 0.192157
0.192157 0.443137 0.200000
0.262745 0.447059 0.207843
0.329412 0.450980 0.203922
0.396078 0.454902 0.207843
0.466667 0.450980 0.200000
0.552941 0.458824 0.200000
0.611765 0.462745 0.192157
0.686275 0.462745 0.192157
0.752941 0.470588 0.192157
0.819608 0.474510 0.200000
0.882353 0.470588 0.200000
0.960784 0.478431 0.203922
0.000000 0.501961 0.184314
0.000000 0.505882 0.192157
0.066667 0.509804 0.192157
0.141176 0.509804 0.200000
0.196078 0.513725 0.192157
0.278431 0.517647 0.200000
0.341176 0.517647 0.200000
0.407843 0.521569 0.203922
0.474510 0.529412 0.203922
0.552941 0.529412 0.200000
0.623529 0.537255 0.192157
0.694118 0.537255 0.200000
0.756863 0.537255 0.200000
0.835294 0.541176 0.211765
0.890196 0.545098 0.207843
0.964706 0.545098 0.215686
0.000000 0.568627 0.196078
0.011765 0.576471 0.200000
0.078431 0.576471 0.184314
0.160784 0.584314 0.196078
0.223529 0.584314 0.192157
0.290196 0.588235 0.196078
0.356863 0.592157 0.196078
0.431373 0.592157 0.200000
0.486275 0.596078 0.196078
0.560784 0.603922 0.207843
0.631373 0.600000 0.200000
0.694118 0.607843 0.207843
0.764706 0.607843 0.207843
0.831373 0.611765 0.215686
0.905882 0.615686 0.215686
0.964706 0.619608 0.219608
0.000000 0.639216 0.200000
0.019608 0.643137 0.192157
0.094118 0.650980 0.184314
0.164706 0.654902 0.188235
0.231373 0.650980 0.184314
0.298039 0.662745 0.192157
0.368627 0.658824 0.188235
0.439216 0.666667 0.200000
0.505882 0.662745 0.200000
0.568627 0.670588 0.207843
0.639216 0.670588 0.207843
0.705882 0.674510 0.215686
0.768627 0.674510 0.207843
0.839216 0.686275 0.219608
0.909804 0.682353 0.215686
0.972549 0.694118 0.227451
0.000000 0.713725 0.200000
0.039216 0.717647 0.188235
0.109804 0.713725 0.188235
0.172549 0.725490 0.192157
0.243137 0.721569 0.188235
0.309804 0.725490 0.196078
0.376471 0.729412 0.200000
0.443137 0.733333 0.207843
0.509804 0.741176 0.207843
0.580392 0.741176 0.215686
0.639216 0.745098 0.207843
0.713725 0.749020 0.219608
0.776471 0.749020 0.215686
0.843137 0.752941 0.223529
0.909804 0.756863 0.223529
0.972549 0.756863 0.227451
0.000000 0.780392 0.188235
0.050980 0.788235 0.192157
0.109804 0.788235 0.196078
0.184314 0.792157 0.196078
0.243137 0.796078 0.207843
0.317647 0.796078 0.207843
0.380392 0.800000 0.203922
0.450980 0.807843 0.215686
0.513725 0.807843 0.207843
0.584314 0.807843 0.215686
0.647059 0.815686 0.215686
0.717647 0.815686 0.223529
0.784314 0.819608 0.223529
0.858824 0.823529 0.227451
0.913725 0.823529 0.231373
0.972549 0.831373 0.243137
0.000000 0.850980 0.196078
0.050980 0.858824 0.196078
0.113725 0.854902 0.203922
0.192157 0.862745 0.207843
0.254902 0.858824 0.211765
0.325490 0.870588 0.215686
0.388235 0.870588 0.215686
0.458824 0.870588 0.215686
0.521569 0.878431 0.215686
0.588235 0.882353 0.223529
0.654902 0.882353 0.215686
0.721569 0.890196 0.227451
0.788235 0.886275 0.231373
0.854902 0.890196 0.239216
0.933333 0.898039 0.243137
0.972549 0.901961 0.243137
0.000000 0.917647 0.203922
0.062745 0.929412 0.207843
0.121569 0.929412 0.211765
0.188235 0.933333 0.211765
0.262745 0.933333 0.215686
0.321569 0.941176 0.215686
0.396078 0.941176 0.223529
0.462745 0.945098 0.223529
0.529412 0.941176 0.223529
0.596078 0.956863 0.227451
0.662745 0.952941 0.231373
0.729412 0.956863 0.239216
0.800000 0.964706 0.243137
0.862745 0.964706 0.243137
0.933333 0.960784 0.239216
0.972549 0.972549 0.250980
0.000000 0.992157 0.211765
0.062745 0.996078 0.211765
0.137255 0.996078 0.215686
0.196078 1.000000 0.215686
0.266667 1.000000 0.219608
0.337255 1.000000 0.223529
0.400000 1.000000 0.223529
0.466667 1.000000 0.223529
0.533333 1.000000 0.239216
0.603922 1.000000 0.239216
0.670588 1.000000 0.250980
0.737255 1.000000 0.243137
0.800000 1.000000 0.247059
0.870588 1.000000 0.250980
0.937255 1.000000 0.250980
0.972549 1.000000 0.250980
0.000000 0.000000 0.117647
0.000000 0.000000 0.129412
0.066667 0.000000 0.129412
0.141176 0.000000 0.137255
0.196078 0.000000 0.133333
0.258824 0.000000 0.168627
0.309804 0.000000 0.180392
0.364706 0.000000 0.215686
0.415686 0.000000 0.227451
0.486275 0.000000 0.235294
0.560784 0.000000 0.231373
0.635294 0.000000 0.235294
0.701961 0.000000 0.223529
0.780392 0.000000 0.227451
0.843137 0.000000 0.219608
0.909804 0.000000 0.227451
0.000000 0.011765 0.129412
0.007843 0.015686 0.137255
0.070588 0.015686 0.133333
0.149020 0.019608 0.145098
0.207843 0.019608 0.145098
0.250980 0.027451 0.176471
0.305882 0.031373 0.200000
0.356863 0.035294 0.231373
0.415686 0.035294 0.227451
0.494118 0.039216 0.243137
0.568627 0.039216 0.231373
0.643137 0.050980 0.235294
0.717647 0.047059 0.219608
0.784314 0.050980 0.227451
0.858824 0.050980 0.227451
0.917647 0.058824 0.235294
0.000000 0.078431 0.141176
0.015686 0.086275 0.145098
0.078431 0.090196 0.141176
0.137255 0.090196 0.152941
0.196078 0.094118 0.180392
0.247059 0.098039 0.211765
0.294118 0.098039 0.223529
0.364706 0.105882 0.247059
0.435294 0.101961 0.239216
0.501961 0.109804 0.239216
0.584314 0.109804 0.227451
0.658824 0.113725 0.227451
0.717647 0.121569 0.227451
0.792157 0.121569 0.235294
0.854902 0.125490 0.227451
0.933333 0.129412 0.239216
0.000000 0.149020 0.145098
0.019608 0.156863 0.145098
0.082353 0.152941 0.160784
0.129412 0.164706 0.188235
0.180392 0.164706 0.196078
0.239216 0.168627 0.247059
0.294118 0.172549 0.243137
0.372549 0.172549 0.247059
0.447059 0.176471 0.235294
0.525490 0.176471 0.235294
0.588235 0.180392 0.223529
0.666667 0.188235 0.235294
0.729412 0.188235 0.227451
0.796078 0.192157 0.235294
0.862745 0.196078 0.235294
0.937255 0.196078 0.250980
0.000000 0.219608 0.152941
0.015686 0.227451 0.168627
0.066667 0.227451 0.188235
0.125490 0.227451 0.219608
0.180392 0.235294 0.235294
0.243137 0.235294 0.250980
0.301961 0.235294 0.243137
0.380392 0.247059 0.250980
0.447059 0.247059 0.239216
0.537255 0.250980 0.243137
0.603922 0.250980 0.227451
0.662745 0.258824 0.235294
0.737255 0.258824 0.235294
0.803922 0.262745 0.250980
0.866667 0.262745 0.243137
0.937255 0.270588 0.254902
0.000000 0.290196 0.180392
0.003922 0.294118 0.200000
0.054902 0.298039 0.231373
0.109804 0.301961 0.250980
0.180392 0.298039 0.250980
0.243137 0.313725 0.254902
0.313725 0.309804 0.258824
0.388235 0.313725 0.250980
0.462745 0.317647 0.247059
0.537255 0.321569 0.243137
0.611765 0.325490 0.235294
0.674510 0.329412 0.250980
0.741176 0.325490 0.243137
0.811765 0.333333 0.254902
0.882353 0.333333 0.250980
0.941176 0.337255 0.258824
0.000000 0.356863 0.215686
0.000000 0.368627 0.235294
0.047059 0.364706 0.250980
0.117647 0.376471 0.254902
0.188235 0.372549 0.258824
0.254902 0.376471 0.258824
0.321569 0.380392 0.262745
0.396078 0.384314 0.254902
0.470588 0.380392 0.250980
0.545098 0.392157 0.254902
0.615686 0.388235 0.250980
0.682353 0.392157 0.250980
0.741176 0.403922 0.250980
0.815686 0.403922 0.258824
