public/luts/cinema-cool.cube
# Studiio — look « cinema-cool », genere par scripts/lut/generer-luts.mjs
# Source : les coefficients de LOOKS_RENDUS, calcules par ffmpeg lui-meme.
# Aucune LUT tierce, aucun telechargement : provenance et licence du depot.
LUT_3D_SIZE 6
DOMAIN_MIN 0.0 0.0 0.0
DOMAIN_MAX 1.0 1.0 1.0
0.000000 0.000000 0.000000
0.125490 0.000000 0.000000
0.309804 0.000000 0.043137
0.478431 0.000000 0.082353
0.701961 0.000000 0.062745
0.905882 0.000000 0.054902
0.000000 0.152941 0.000000
0.152941 0.156863 0.000000
0.321569 0.168627 0.047059
0.490196 0.176471 0.082353
0.729412 0.184314 0.058824
0.925490 0.192157 0.054902
0.000000 0.360784 0.050980
0.137255 0.368627 0.054902
0.333333 0.380392 0.058824
0.521569 0.388235 0.082353
0.745098 0.400000 0.066667
0.941176 0.407843 0.062745
0.000000 0.568627 0.082353
0.133333 0.576471 0.078431
0.333333 0.588235 0.082353
0.537255 0.592157 0.090196
0.764706 0.611765 0.074510
0.972549 0.619608 0.098039
0.000000 0.780392 0.066667
0.172549 0.792157 0.066667
0.384314 0.796078 0.078431
0.580392 0.803922 0.086275
0.784314 0.815686 0.094118
0.972549 0.827451 0.105882
0.000000 0.996078 0.078431
0.200000 1.000000 0.086275
0.400000 1.000000 0.101961
0.600000 1.000000 0.105882
0.807843 1.000000 0.121569
0.972549 1.000000 0.129412
0.000000 0.000000 0.117647
0.141176 0.000000 0.137255
0.309804 0.000000 0.180392
0.486275 0.000000 0.235294
0.701961 0.000000 0.223529
0.909804 0.000000 0.227451
0.000000 0.149020 0.145098
0.129412 0.164706 0.188235
0.294118 0.172549 0.243137
0.525490 0.176471 0.235294
0.729412 0.188235 0.227451
0.937255 0.196078 0.250980
0.000000 0.356863 0.215686
0.117647 0.376471 0.254902
0.321569 0.380392 0.262745
0.545098 0.392157 0.254902
0.741176 0.403922 0.250980
0.956863 0.407843 0.262745
0.000000 0.568627 0.258824
0.156863 0.584314 0.250980
0.360784 0.588235 0.254902
0.560784 0.600000 0.258824
0.772549 0.615686 0.278431
0.968627 0.623529 0.286275
0.000000 0.780392 0.254902
0.188235 0.792157 0.266667
0.384314 0.800000 0.266667
0.584314 0.811765 0.282353
0.788235 0.819608 0.294118
0.972549 0.831373 0.294118
0.000000 0.996078 0.266667
0.200000 1.000000 0.290196
0.400000 1.000000 0.294118
0.607843 1.000000 0.301961
0.807843 1.000000 0.317647
0.972549 1.000000 0.317647
0.000000 0.000000 0.364706
0.109804 0.000000 0.364706
0.313725 0.000000 0.388235
0.486275 0.000000 0.423529
0.705882 0.000000 0.423529
0.913725 0.000000 0.415686
0.000000 0.156863 0.384314
0.101961 0.164706 0.423529
0.309804 0.172549 0.443137
0.525490 0.180392 0.423529
0.737255 0.192157 0.431373
0.937255 0.203922 0.443137
0.000000 0.364706 0.407843
0.121569 0.372549 0.450980
0.345098 0.388235 0.435294
0.549020 0.400000 0.443137
0.756863 0.400000 0.450980
0.956863 0.415686 0.458824
0.000000 0.576471 0.450980
0.160784 0.580392 0.447059
0.364706 0.596078 0.447059
0.572549 0.603922 0.462745
0.772549 0.615686 0.474510
0.972549 0.631373 0.478431
0.000000 0.788235 0.447059
0.188235 0.800000 0.462745
0.384314 0.807843 0.470588
0.592157 0.815686 0.482353
0.788235 0.823529 0.482353
0.972549 0.835294 0.498039
0.003922 1.000000 0.478431
0.207843 1.000000 0.482353
0.411765 1.000000 0.490196
0.611765 1.000000 0.498039
0.807843 1.000000 0.505882
0.972549 1.000000 0.517647
0.000000 0.000000 0.596078
0.090196 0.000000 0.611765
0.286275 0.000000 0.611765
0.486275 0.000000 0.623529
0.713725 0.000000 0.611765
0.917647 0.000000 0.611765
0.000000 0.156863 0.611765
0.129412 0.164706 0.615686
0.325490 0.176471 0.611765
0.537255 0.184314 0.623529
0.741176 0.200000 0.623529
0.937255 0.203922 0.639216
0.000000 0.364706 0.635294
0.149020 0.384314 0.627451
0.356863 0.392157 0.623529
0.560784 0.396078 0.639216
0.760784 0.411765 0.647059
0.960784 0.415686 0.654902
0.000000 0.576471 0.647059
0.168627 0.588235 0.635294
0.372549 0.600000 0.650980
0.568627 0.607843 0.650980
0.768627 0.619608 0.662745
0.972549 0.627451 0.674510
0.000000 0.792157 0.650980
0.188235 0.803922 0.650980
0.392157 0.807843 0.670588
0.588235 0.819608 0.670588
0.796078 0.827451 0.686275
0.972549 0.835294 0.694118
0.011765 1.000000 0.670588
0.211765 1.000000 0.670588
0.411765 1.000000 0.686275
0.607843 1.000000 0.694118
0.815686 1.000000 0.705882
0.972549 1.000000 0.705882
0.000000 0.000000 0.780392
0.109804 0.000000 0.780392
0.309804 0.000000 0.784314
0.509804 0.000000 0.800000
0.713725 0.000000 0.807843
0.917647 0.000000 0.811765
0.000000 0.160784 0.792157
0.137255 0.168627 0.792157
0.341176 0.180392 0.807843
0.541176 0.192157 0.811765
0.737255 0.200000 0.819608
0.945098 0.207843 0.835294
0.000000 0.372549 0.811765
0.152941 0.376471 0.803922
0.360784 0.388235 0.827451
0.560784 0.403922 0.835294
0.764706 0.407843 0.843137
0.964706 0.423529 0.847059
0.000000 0.584314 0.827451
0.176471 0.592157 0.839216
0.372549 0.600000 0.839216
0.576471 0.611765 0.843137
0.780392 0.615686 0.858824
0.972549 0.635294 0.870588
0.000000 0.796078 0.839216
0.196078 0.803922 0.850980
0.392157 0.811765 0.858824
0.596078 0.823529 0.874510
0.792157 0.831373 0.874510
0.972549 0.843137 0.886275
0.015686 1.000000 0.858824
0.215686 1.000000 0.874510
0.411765 1.000000 0.874510
0.615686 1.000000 0.894118
0.815686 1.000000 0.898039
0.972549 1.000000 0.909804
0.000000 0.000000 0.960784
0.117647 0.000000 0.964706
0.325490 0.000000 0.980392
0.521569 0.000000 0.988235
0.725490 0.000000 1.000000
0.929412 0.000000 1.000000
0.000000 0.168627 0.980392
0.137255 0.176471 0.996078
0.345098 0.188235 1.000000
0.541176 0.196078 1.000000
0.745098 0.203922 1.000000
0.941176 0.211765 1.000000
0.000000 0.376471 0.996078
0.160784 0.380392 1.000000
0.364706 0.396078 1.000000
0.564706 0.403922 1.000000
0.764706 0.415686 1.000000
0.960784 0.423529 1.000000
0.000000 0.588235 1.000000
0.172549 0.596078 1.000000
0.380392 0.607843 1.000000
0.580392 0.607843 1.000000
0.780392 0.623529 1.000000
0.972549 0.635294 1.000000
0.000000 0.800000 1.000000
0.192157 0.807843 1.000000
0.400000 0.815686 1.000000
0.596078 0.823529 1.000000
0.800000 0.835294 1.000000
0.972549 0.843137 1.000000
0.019608 1.000000 1.000000
0.211765 1.000000 1.000000
0.419608 1.000000 1.000000
0.619608 1.000000 1.000000
0.819608 1.000000 1.000000
0.972549 1.000000 1.000000
