public/luts/cinema-warm.cube
# Studiio — look « cinema-warm », genere par scripts/lut/generer-luts.mjs
# Source : les coefficients de LOOKS_RENDUS, calcules par ffmpeg lui-meme.
# Aucune LUT tierce, aucun telechargement : provenance et licence du depot.
LUT_3D_SIZE 6
DOMAIN_MIN 0.0 0.0 0.0
DOMAIN_MAX 1.0 1.0 1.0
0.000000 0.000000 0.000000
0.125490 0.000000 0.000000
0.380392 0.000000 0.000000
0.623529 0.000000 0.000000
0.815686 0.000000 0.000000
1.000000 0.000000 0.000000
0.000000 0.152941 0.000000
0.145098 0.156863 0.000000
0.403922 0.164706 0.000000
0.639216 0.172549 0.000000
0.827451 0.176471 0.000000
1.000000 0.180392 0.000000
0.047059 0.372549 0.000000
0.203922 0.380392 0.000000
0.423529 0.388235 0.000000
0.650980 0.384314 0.000000
0.839216 0.396078 0.000000
1.000000 0.403922 0.000000
0.062745 0.592157 0.000000
0.223529 0.596078 0.000000
0.435294 0.603922 0.000000
0.654902 0.607843 0.000000
0.850980 0.619608 0.000000
1.000000 0.623529 0.000000
0.043137 0.811765 0.000000
0.215686 0.819608 0.000000
0.435294 0.823529 0.000000
0.647059 0.831373 0.000000
0.862745 0.831373 0.000000
1.000000 0.839216 0.000000
0.043137 1.000000 0.000000
0.239216 1.000000 0.000000
0.447059 1.000000 0.000000
0.658824 1.000000 0.000000
0.874510 1.000000 0.000000
1.000000 1.000000 0.000000
0.000000 0.000000 0.117647
0.129412 0.000000 0.129412
0.384314 0.000000 0.101961
0.627451 0.000000 0.094118
0.819608 0.000000 0.109804
1.000000 0.000000 0.121569
0.000000 0.152941 0.141176
0.176471 0.160784 0.125490
0.427451 0.172549 0.090196
0.619608 0.176471 0.117647
0.823529 0.176471 0.121569
1.000000 0.180392 0.129412
0.047059 0.372549 0.113725
0.231373 0.384314 0.101961
0.447059 0.384314 0.109804
0.635294 0.392157 0.125490
0.843137 0.400000 0.133333
1.000000 0.403922 0.145098
0.062745 0.592157 0.109804
0.211765 0.600000 0.121569
0.423529 0.603922 0.137255
0.639216 0.611765 0.141176
0.862745 0.619608 0.160784
1.000000 0.623529 0.152941
0.043137 0.819608 0.137255
0.223529 0.819608 0.149020
0.431373 0.823529 0.149020
0.643137 0.831373 0.149020
0.862745 0.835294 0.160784
1.000000 0.843137 0.164706
0.043137 1.000000 0.149020
0.239216 1.000000 0.156863
0.443137 1.000000 0.160784
0.662745 1.000000 0.172549
0.874510 1.000000 0.172549
1.000000 1.000000 0.176471
0.035294 0.000000 0.305882
0.168627 0.000000 0.309804
0.392157 0.000000 0.321569
0.631373 0.000000 0.294118
0.815686 0.000000 0.321569
1.000000 0.000000 0.325490
0.039216 0.156863 0.321569
0.215686 0.168627 0.294118
0.431373 0.168627 0.301961
0.619608 0.176471 0.321569
0.835294 0.176471 0.341176
1.000000 0.188235 0.337255
0.047059 0.372549 0.317647
0.235294 0.380392 0.313725
0.419608 0.388235 0.337255
0.627451 0.400000 0.337255
0.847059 0.403922 0.349020
1.000000 0.411765 0.356863
0.062745 0.596078 0.321569
0.215686 0.600000 0.341176
0.427451 0.607843 0.345098
0.643137 0.607843 0.352941
0.858824 0.619608 0.356863
1.000000 0.627451 0.360784
0.043137 0.819608 0.345098
0.223529 0.819608 0.352941
0.435294 0.831373 0.352941
0.654902 0.831373 0.364706
0.866667 0.839216 0.368627
1.000000 0.843137 0.384314
0.043137 1.000000 0.360784
0.235294 1.000000 0.364706
0.454902 1.000000 0.376471
0.666667 1.000000 0.384314
0.874510 1.000000 0.376471
1.000000 1.000000 0.388235
0.070588 0.000000 0.486275
0.207843 0.000000 0.501961
0.415686 0.000000 0.501961
0.627451 0.000000 0.498039
0.823529 0.000000 0.533333
1.000000 0.000000 0.537255
0.066667 0.160784 0.501961
0.200000 0.164706 0.517647
0.407843 0.172549 0.529412
0.627451 0.176471 0.541176
0.835294 0.184314 0.541176
1.000000 0.188235 0.556863
0.066667 0.372549 0.513725
0.215686 0.384314 0.541176
0.415686 0.396078 0.541176
0.635294 0.400000 0.556863
0.843137 0.403922 0.556863
1.000000 0.407843 0.568627
0.062745 0.596078 0.537255
0.211765 0.600000 0.545098
0.431373 0.603922 0.560784
0.643137 0.611765 0.564706
0.850980 0.623529 0.560784
1.000000 0.631373 0.580392
0.043137 0.819608 0.560784
0.223529 0.827451 0.564706
0.443137 0.831373 0.568627
0.654902 0.839216 0.576471
0.874510 0.839216 0.588235
1.000000 0.843137 0.580392
0.043137 1.000000 0.568627
0.243137 1.000000 0.576471
0.454902 1.000000 0.588235
0.662745 1.000000 0.580392
0.882353 1.000000 0.592157
1.000000 1.000000 0.600000
0.047059 0.000000 0.721569
0.188235 0.000000 0.721569
0.396078 0.000000 0.725490
0.615686 0.000000 0.737255
0.827451 0.000000 0.741176
1.000000 0.000000 0.752941
0.043137 0.160784 0.737255
0.196078 0.168627 0.737255
0.411765 0.172549 0.749020
0.627451 0.180392 0.752941
0.835294 0.184314 0.745098
1.000000 0.188235 0.760784
0.043137 0.380392 0.745098
0.196078 0.384314 0.745098
0.419608 0.392157 0.752941
0.631373 0.400000 0.760784
0.850980 0.403922 0.772549
1.000000 0.411765 0.768627
0.043137 0.600000 0.749020
0.223529 0.600000 0.764706
0.435294 0.607843 0.768627
0.639216 0.623529 0.764706
0.858824 0.623529 0.780392
1.000000 0.635294 0.788235
0.043137 0.823529 0.768627
0.235294 0.827451 0.780392
0.447059 0.835294 0.780392
0.658824 0.831373 0.788235
0.870588 0.839216 0.792157
1.000000 0.850980 0.788235
0.043137 1.000000 0.780392
0.239216 1.000000 0.788235
0.454902 1.000000 0.792157
0.670588 1.000000 0.796078
0.886275 1.000000 0.803922
1.000000 1.000000 0.815686
0.043137 0.000000 0.929412
0.184314 0.000000 0.933333
0.403922 0.000000 0.941176
0.615686 0.000000 0.945098
0.823529 0.000000 0.956863
1.000000 0.000000 0.956863
0.043137 0.168627 0.941176
0.196078 0.172549 0.952941
0.415686 0.176471 0.956863
0.623529 0.180392 0.956863
0.843137 0.184314 0.964706
1.000000 0.192157 0.964706
0.043137 0.380392 0.949020
0.207843 0.384314 0.960784
0.423529 0.400000 0.964706
0.643137 0.400000 0.964706
0.854902 0.407843 0.964706
1.000000 0.415686 0.964706
0.043137 0.600000 0.964706
0.223529 0.607843 0.964706
0.431373 0.615686 0.964706
0.643137 0.615686 0.964706
0.854902 0.623529 0.964706
1.000000 0.631373 0.964706
0.043137 0.823529 0.964706
0.231373 0.827451 0.964706
0.450980 0.831373 0.964706
0.662745 0.839216 0.964706
0.870588 0.850980 0.964706
1.000000 0.850980 0.964706
0.043137 1.000000 0.964706
0.243137 1.000000 0.964706
0.462745 1.000000 0.964706
0.674510 1.000000 0.964706
0.894118 1.000000 0.964706
1.000000 1.000000 0.964706
