public/luts/cinema-warm.cube
# Studiio — look « cinema-warm », genere par scripts/lut/generer-luts.mjs
# Source : les coefficients de LOOKS_RENDUS, calcules par ffmpeg lui-meme.
# Aucune LUT tierce, aucun telechargement : provenance et licence du depot.
LUT_3D_SIZE 16
DOMAIN_MIN 0.0 0.0 0.0
DOMAIN_MAX 1.0 1.0 1.0
0.000000 0.000000 0.000000
0.000000 0.000000 0.000000
0.058824 0.000000 0.000000
0.125490 0.000000 0.000000
0.200000 0.000000 0.000000
0.294118 0.000000 0.000000
0.380392 0.000000 0.000000
0.478431 0.000000 0.000000
0.560784 0.000000 0.000000
0.623529 0.000000 0.000000
0.694118 0.000000 0.000000
0.749020 0.000000 0.000000
0.815686 0.000000 0.000000
0.886275 0.000000 0.000000
0.960784 0.000000 0.000000
1.000000 0.000000 0.000000
0.000000 0.007843 0.000000
0.000000 0.007843 0.000000
0.062745 0.007843 0.000000
0.133333 0.015686 0.000000
0.207843 0.007843 0.000000
0.294118 0.015686 0.000000
0.392157 0.019608 0.000000
0.474510 0.019608 0.000000
0.560784 0.019608 0.000000
0.627451 0.023529 0.000000
0.686275 0.027451 0.000000
0.764706 0.031373 0.000000
0.815686 0.027451 0.000000
0.890196 0.031373 0.000000
0.960784 0.039216 0.000000
1.000000 0.035294 0.000000
0.000000 0.078431 0.000000
0.000000 0.086275 0.000000
0.066667 0.082353 0.000000
0.137255 0.082353 0.000000
0.207843 0.094118 0.000000
0.309804 0.086275 0.000000
0.392157 0.090196 0.000000
0.482353 0.094118 0.000000
0.560784 0.098039 0.000000
0.635294 0.094118 0.000000
0.694118 0.098039 0.000000
0.760784 0.101961 0.000000
0.831373 0.105882 0.000000
0.898039 0.101961 0.000000
0.964706 0.105882 0.000000
1.000000 0.109804 0.000000
0.000000 0.152941 0.000000
0.000000 0.152941 0.000000
0.062745 0.152941 0.000000
0.145098 0.156863 0.000000
0.211765 0.160784 0.000000
0.309804 0.160784 0.000000
0.403922 0.164706 0.000000
0.494118 0.164706 0.000000
0.568627 0.168627 0.000000
0.639216 0.172549 0.000000
0.698039 0.168627 0.000000
0.760784 0.176471 0.000000
0.827451 0.176471 0.000000
0.894118 0.176471 0.000000
0.972549 0.180392 0.000000
1.000000 0.180392 0.000000
0.003922 0.219608 0.000000
0.007843 0.227451 0.000000
0.082353 0.231373 0.000000
0.145098 0.231373 0.000000
0.227451 0.235294 0.000000
0.309804 0.239216 0.000000
0.400000 0.235294 0.000000
0.498039 0.239216 0.000000
0.572549 0.239216 0.000000
0.639216 0.247059 0.000000
0.709804 0.243137 0.000000
0.764706 0.243137 0.000000
0.835294 0.250980 0.000000
0.898039 0.250980 0.000000
0.976471 0.250980 0.000000
1.000000 0.258824 0.000000
0.027451 0.301961 0.000000
0.031373 0.298039 0.000000
0.109804 0.305882 0.000000
0.176471 0.309804 0.000000
0.250980 0.301961 0.000000
0.325490 0.309804 0.000000
0.407843 0.305882 0.000000
0.494118 0.309804 0.000000
0.580392 0.317647 0.000000
0.643137 0.313725 0.000000
0.705882 0.321569 0.000000
0.772549 0.317647 0.000000
0.831373 0.321569 0.000000
0.909804 0.329412 0.000000
0.972549 0.329412 0.000000
1.000000 0.325490 0.000000
0.047059 0.372549 0.000000
0.058824 0.376471 0.000000
0.129412 0.376471 0.000000
0.203922 0.380392 0.000000
0.266667 0.380392 0.000000
0.345098 0.376471 0.000000
0.423529 0.388235 0.000000
0.505882 0.384314 0.000000
0.576471 0.388235 0.000000
0.650980 0.384314 0.000000
0.709804 0.392157 0.000000
0.776471 0.392157 0.000000
0.839216 0.396078 0.000000
0.913725 0.396078 0.000000
0.984314 0.403922 0.000000
1.000000 0.403922 0.000000
0.066667 0.447059 0.000000
0.082353 0.447059 0.000000
0.149020 0.450980 0.000000
0.227451 0.447059 0.000000
0.298039 0.454902 0.000000
0.372549 0.454902 0.000000
0.443137 0.454902 0.000000
0.509804 0.458824 0.000000
0.584314 0.462745 0.000000
0.654902 0.462745 0.000000
0.717647 0.466667 0.000000
0.776471 0.470588 0.000000
0.839216 0.466667 0.000000
0.913725 0.470588 0.000000
0.988235 0.474510 0.000000
1.000000 0.470588 0.000000
0.070588 0.517647 0.000000
0.090196 0.521569 0.000000
0.160784 0.525490 0.000000
0.227451 0.525490 0.000000
0.305882 0.525490 0.000000
0.368627 0.525490 0.000000
0.447059 0.533333 0.000000
0.521569 0.533333 0.000000
0.588235 0.529412 0.000000
0.654902 0.537255 0.000000
0.717647 0.533333 0.000000
0.780392 0.541176 0.000000
0.850980 0.545098 0.000000
0.913725 0.541176 0.000000
0.988235 0.549020 0.000000
1.000000 0.545098 0.000000
0.062745 0.592157 0.000000
0.090196 0.596078 0.000000
0.160784 0.596078 0.000000
0.223529 0.596078 0.000000
0.305882 0.600000 0.000000
0.372549 0.603922 0.000000
0.435294 0.603922 0.000000
0.513725 0.607843 0.000000
0.580392 0.607843 0.000000
0.654902 0.607843 0.000000
0.717647 0.615686 0.000000
0.784314 0.607843 0.000000
0.850980 0.619608 0.000000
0.921569 0.615686 0.000000
0.992157 0.619608 0.000000
1.000000 0.623529 0.000000
0.054902 0.666667 0.000000
0.078431 0.666667 0.000000
0.152941 0.666667 0.000000
0.227451 0.674510 0.000000
0.290196 0.674510 0.000000
0.376471 0.674510 0.000000
0.435294 0.678431 0.000000
0.509804 0.678431 0.000000
0.580392 0.686275 0.000000
0.654902 0.678431 0.000000
0.721569 0.686275 0.000000
0.788235 0.686275 0.000000
0.854902 0.690196 0.000000
0.929412 0.690196 0.000000
0.996078 0.694118 0.000000
1.000000 0.694118 0.000000
0.047059 0.737255 0.000000
0.082353 0.745098 0.000000
0.145098 0.741176 0.000000
0.223529 0.741176 0.000000
0.290196 0.745098 0.000000
0.364706 0.749020 0.000000
0.435294 0.749020 0.000000
0.501961 0.752941 0.000000
0.576471 0.752941 0.000000
0.650980 0.756863 0.000000
0.721569 0.756863 0.000000
0.788235 0.760784 0.000000
0.858824 0.764706 0.000000
0.929412 0.764706 0.000000
1.000000 0.760784 0.000000
1.000000 0.768627 0.000000
0.043137 0.811765 0.000000
0.078431 0.815686 0.000000
0.149020 0.815686 0.000000
0.215686 0.819608 0.000000
0.294118 0.819608 0.000000
0.360784 0.823529 0.000000
0.435294 0.823529 0.000000
0.501961 0.819608 0.000000
0.580392 0.827451 0.000000
0.647059 0.831373 0.000000
0.725490 0.831373 0.000000
0.792157 0.835294 0.000000
0.862745 0.831373 0.000000
0.933333 0.839216 0.000000
1.000000 0.843137 0.000000
1.000000 0.839216 0.000000
0.043137 0.882353 0.000000
0.086275 0.886275 0.000000
0.156863 0.886275 0.000000
0.223529 0.894118 0.000000
0.301961 0.890196 0.000000
0.364706 0.890196 0.000000
0.435294 0.901961 0.000000
0.509804 0.901961 0.000000
0.576471 0.898039 0.000000
0.654902 0.905882 0.000000
0.717647 0.901961 0.000000
0.796078 0.901961 0.000000
0.866667 0.913725 0.000000
0.937255 0.909804 0.000000
1.000000 0.913725 0.000000
1.000000 0.909804 0.000000
0.043137 0.960784 0.000000
0.082353 0.956863 0.000000
0.160784 0.964706 0.000000
0.227451 0.960784 0.000000
0.294118 0.964706 0.000000
0.376471 0.968627 0.000000
0.439216 0.968627 0.000000
0.517647 0.976471 0.000000
0.580392 0.972549 0.000000
0.658824 0.972549 0.000000
0.729412 0.980392 0.000000
0.800000 0.976471 0.000000
0.870588 0.980392 0.000000
0.937255 0.984314 0.000000
1.000000 0.988235 0.000000
1.000000 0.988235 0.000000
0.043137 1.000000 0.000000
0.090196 1.000000 0.000000
0.156863 1.000000 0.000000
0.239216 1.000000 0.000000
0.301961 1.000000 0.000000
0.368627 1.000000 0.000000
0.447059 1.000000 0.000000
0.513725 1.000000 0.000000
0.588235 1.000000 0.000000
0.658824 1.000000 0.000000
0.733333 1.000000 0.000000
0.800000 1.000000 0.000000
0.874510 1.000000 0.000000
0.945098 1.000000 0.000000
1.000000 1.000000 0.000000
1.000000 1.000000 0.000000
0.000000 0.000000 0.000000
0.000000 0.000000 0.000000
0.058824 0.000000 0.000000
0.129412 0.000000 0.000000
0.203922 0.000000 0.000000
0.286275 0.000000 0.000000
0.388235 0.000000 0.000000
0.474510 0.000000 0.000000
0.564706 0.000000 0.000000
0.623529 0.000000 0.000000
0.686275 0.000000 0.000000
0.756863 0.000000 0.000000
0.811765 0.000000 0.000000
0.886275 0.000000 0.000000
0.960784 0.000000 0.000000
1.000000 0.000000 0.000000
0.000000 0.003922 0.000000
0.000000 0.007843 0.000000
0.058824 0.011765 0.000000
0.133333 0.011765 0.000000
0.203922 0.019608 0.000000
0.298039 0.015686 0.000000
0.384314 0.019608 0.000000
0.478431 0.019608 0.000000
0.560784 0.023529 0.000000
0.635294 0.027451 0.000000
0.690196 0.027451 0.000000
0.760784 0.023529 0.000000
0.823529 0.035294 0.000000
0.894118 0.031373 0.000000
0.960784 0.035294 0.000000
1.000000 0.035294 0.000000
0.000000 0.078431 0.000000
0.000000 0.082353 0.000000
0.074510 0.086275 0.000000
0.141176 0.082353 0.000000
0.207843 0.090196 0.000000
0.309804 0.086275 0.000000
0.392157 0.090196 0.000000
0.490196 0.090196 0.000000
0.564706 0.098039 0.000000
0.631373 0.098039 0.000000
0.694118 0.098039 0.000000
0.756863 0.105882 0.000000
0.827451 0.101961 0.000000
0.894118 0.105882 0.000000
0.968627 0.109804 0.000000
1.000000 0.109804 0.000000
0.000000 0.152941 0.000000
0.000000 0.156863 0.000000
0.070588 0.156863 0.003922
0.137255 0.156863 0.000000
0.219608 0.160784 0.003922
0.305882 0.164706 0.000000
0.407843 0.160784 0.000000
0.494118 0.168627 0.000000
0.568627 0.168627 0.000000
0.635294 0.176471 0.000000
0.705882 0.172549 0.000000
0.760784 0.172549 0.000000
0.831373 0.180392 0.000000
0.898039 0.176471 0.000000
0.972549 0.176471 0.000000
1.000000 0.184314 0.000000
0.003922 0.223529 0.000000
0.003922 0.227451 0.000000
0.086275 0.231373 0.000000
0.156863 0.235294 0.000000
0.227451 0.227451 0.003922
0.317647 0.239216 0.000000
0.407843 0.235294 0.000000
0.501961 0.243137 0.000000
0.580392 0.243137 0.000000
0.639216 0.243137 0.000000
0.705882 0.250980 0.000000
0.764706 0.243137 0.000000
0.827451 0.250980 0.000000
0.905882 0.254902 0.000000
0.972549 0.250980 0.000000
1.000000 0.250980 0.000000
0.027451 0.301961 0.000000
0.039216 0.301961 0.000000
0.105882 0.301961 0.000000
0.184314 0.309804 0.000000
0.247059 0.305882 0.000000
0.325490 0.305882 0.000000
0.415686 0.313725 0.000000
0.501961 0.313725 0.000000
0.576471 0.313725 0.000000
0.643137 0.313725 0.000000
0.701961 0.317647 0.000000
0.776471 0.321569 0.000000
0.835294 0.321569 0.000000
0.909804 0.321569 0.000000
0.980392 0.333333 0.000000
1.000000 0.325490 0.000000
0.047059 0.372549 0.000000
0.062745 0.372549 0.000000
0.133333 0.372549 0.000000
0.207843 0.376471 0.000000
0.282353 0.384314 0.000000
0.352941 0.380392 0.000000
0.423529 0.384314 0.000000
0.513725 0.384314 0.000000
0.580392 0.388235 0.000000
0.643137 0.392157 0.000000
0.709804 0.392157 0.000000
0.768627 0.396078 0.000000
0.839216 0.388235 0.000000
0.909804 0.400000 0.000000
0.984314 0.403922 0.000000
1.000000 0.403922 0.000000
0.066667 0.443137 0.000000
0.082353 0.450980 0.000000
0.156863 0.450980 0.000000
0.227451 0.454902 0.000000
0.301961 0.454902 0.000000
0.364706 0.454902 0.000000
0.447059 0.454902 0.000000
0.513725 0.462745 0.000000
0.588235 0.462745 0.000000
0.647059 0.466667 0.000000
0.713725 0.458824 0.000000
0.776471 0.470588 0.000000
0.847059 0.470588 0.003922
0.913725 0.466667 0.000000
0.992157 0.474510 0.007843
1.000000 0.478431 0.007843
0.070588 0.517647 0.000000
0.090196 0.521569 0.000000
0.164706 0.525490 0.000000
0.227451 0.525490 0.000000
0.309804 0.525490 0.000000
0.372549 0.529412 0.000000
0.447059 0.525490 0.000000
0.517647 0.533333 0.000000
0.580392 0.533333 0.000000
0.654902 0.541176 0.000000
0.713725 0.541176 0.000000
0.776471 0.537255 0.000000
0.847059 0.545098 0.007843
0.921569 0.549020 0.007843
0.988235 0.545098 0.011765
1.000000 0.549020 0.015686
0.062745 0.596078 0.000000
0.086275 0.592157 0.000000
0.152941 0.600000 0.000000
0.227451 0.600000 0.000000
0.290196 0.600000 0.000000
0.372549 0.603922 0.000000
0.435294 0.603922 0.000000
0.509804 0.607843 0.000000
0.584314 0.611765 0.000000
0.654902 0.607843 0.000000
0.713725 0.611765 0.000000
0.788235 0.615686 0.007843
0.850980 0.615686 0.011765
0.929412 0.619608 0.015686
0.992157 0.619608 0.015686
1.000000 0.623529 0.015686
0.054902 0.666667 0.000000
0.082353 0.670588 0.000000
0.152941 0.666667 0.000000
0.223529 0.670588 0.000000
0.290196 0.674510 0.000000
0.368627 0.674510 0.000000
0.439216 0.682353 0.000000
0.501961 0.682353 0.000000
0.576471 0.682353 0.000000
0.647059 0.690196 0.003922
0.717647 0.686275 0.007843
0.780392 0.690196 0.007843
0.858824 0.686275 0.015686
0.925490 0.690196 0.015686
0.992157 0.686275 0.019608
1.000000 0.694118 0.015686
0.047059 0.737255 0.000000
0.070588 0.741176 0.000000
0.145098 0.741176 0.000000
0.215686 0.745098 0.000000
0.290196 0.745098 0.000000
0.356863 0.752941 0.000000
0.435294 0.749020 0.003922
0.498039 0.749020 0.000000
0.576471 0.752941 0.011765
0.643137 0.760784 0.007843
0.721569 0.756863 0.015686
0.788235 0.760784 0.015686
0.854902 0.756863 0.019608
0.933333 0.764706 0.015686
1.000000 0.764706 0.019608
1.000000 0.768627 0.015686
0.043137 0.811765 0.000000
0.078431 0.815686 0.000000
0.152941 0.815686 0.000000
0.219608 0.819608 0.003922
0.298039 0.819608 0.003922
0.360784 0.819608 0.007843
0.439216 0.823529 0.011765
0.509804 0.827451 0.007843
0.572549 0.827451 0.011765
0.650980 0.831373 0.015686
0.717647 0.827451 0.019608
0.796078 0.835294 0.015686
0.862745 0.839216 0.019608
0.929412 0.835294 0.015686
1.000000 0.843137 0.027451
1.000000 0.843137 0.027451
0.043137 0.890196 0.000000
0.082353 0.882353 0.000000
0.152941 0.894118 0.003922
0.223529 0.890196 0.007843
0.294118 0.898039 0.011765
0.372549 0.894118 0.015686
0.435294 0.894118 0.011765
0.513725 0.901961 0.023529
0.580392 0.898039 0.019608
0.654902 0.901961 0.007843
0.725490 0.909804 0.019608
0.800000 0.905882 0.015686
0.866667 0.905882 0.023529
0.945098 0.913725 0.027451
1.000000 0.913725 0.027451
1.000000 0.921569 0.031373
0.043137 0.960784 0.003922
0.086275 0.956863 0.007843
0.156863 0.960784 0.003922
0.235294 0.964706 0.015686
0.298039 0.964706 0.011765
0.376471 0.964706 0.019608
0.443137 0.968627 0.019608
0.509804 0.972549 0.015686
0.588235 0.980392 0.019608
0.654902 0.976471 0.023529
0.729412 0.976471 0.023529
0.800000 0.984314 0.035294
0.874510 0.980392 0.027451
0.941176 0.984314 0.027451
1.000000 0.984314 0.035294
1.000000 0.988235 0.035294
0.043137 1.000000 0.003922
0.090196 1.000000 0.015686
0.160784 1.000000 0.011765
0.231373 1.000000 0.019608
0.305882 1.000000 0.019608
0.372549 1.000000 0.015686
0.450980 1.000000 0.015686
0.517647 1.000000 0.023529
0.592157 1.000000 0.023529
0.662745 1.000000 0.035294
0.737255 1.000000 0.027451
0.803922 1.000000 0.035294
0.874510 1.000000 0.035294
0.949020 1.000000 0.043137
1.000000 1.000000 0.035294
1.000000 1.000000 0.031373
0.000000 0.000000 0.050980
0.000000 0.000000 0.054902
0.062745 0.000000 0.058824
0.129412 0.000000 0.054902
0.203922 0.000000 0.066667
0.294118 0.000000 0.047059
0.384314 0.000000 0.043137
0.478431 0.000000 0.015686
0.556863 0.000000 0.011765
0.631373 0.000000 0.015686
0.686275 0.000000 0.027451
0.756863 0.000000 0.031373
0.819608 0.000000 0.050980
0.886275 0.000000 0.043137
0.960784 0.000000 0.050980
1.000000 0.000000 0.050980
0.000000 0.007843 0.058824
0.000000 0.007843 0.054902
0.066667 0.015686 0.066667
0.137255 0.011765 0.062745
0.207843 0.015686 0.066667
0.305882 0.015686 0.043137
0.392157 0.019608 0.031373
0.486275 0.019608 0.015686
0.564706 0.023529 0.019608
0.631373 0.023529 0.023529
0.694118 0.031373 0.039216
0.749020 0.031373 0.039216
0.823529 0.031373 0.050980
0.890196 0.035294 0.050980
0.960784 0.035294 0.058824
1.000000 0.039216 0.047059
0.000000 0.078431 0.062745
0.000000 0.082353 0.070588
0.070588 0.082353 0.070588
0.137255 0.090196 0.062745
0.231373 0.090196 0.050980
0.317647 0.094118 0.035294
0.419608 0.090196 0.023529
0.494118 0.098039 0.019608
0.556863 0.094118 0.019608
0.627451 0.098039 0.031373
0.690196 0.098039 0.047059
0.749020 0.101961 0.047059
0.831373 0.101961 0.058824
0.898039 0.109804 0.047059
0.968627 0.109804 0.054902
1.000000 0.113725 0.054902
0.000000 0.152941 0.070588
0.000000 0.152941 0.070588
0.078431 0.160784 0.062745
0.152941 0.160784 0.066667
0.243137 0.160784 0.054902
0.329412 0.168627 0.039216
0.423529 0.160784 0.023529
0.501961 0.168627 0.023529
0.568627 0.168627 0.035294
0.623529 0.168627 0.035294
0.690196 0.176471 0.054902
0.760784 0.180392 0.047059
0.823529 0.176471 0.050980
0.905882 0.180392 0.054902
0.968627 0.180392 0.054902
1.000000 0.188235 0.058824
0.003922 0.227451 0.062745
0.015686 0.231373 0.066667
0.098039 0.231373 0.050980
0.180392 0.235294 0.058824
0.243137 0.231373 0.050980
0.337255 0.235294 0.047059
0.427451 0.243137 0.031373
0.505882 0.235294 0.035294
0.568627 0.247059 0.043137
0.635294 0.247059 0.035294
0.690196 0.247059 0.047059
0.768627 0.250980 0.054902
0.831373 0.250980 0.054902
0.901961 0.250980 0.054902
0.980392 0.258824 0.066667
1.000000 0.254902 0.062745
0.027451 0.301961 0.050980
0.047059 0.301961 0.058824
0.125490 0.301961 0.035294
0.203922 0.301961 0.043137
0.278431 0.313725 0.043137
0.349020 0.305882 0.047059
0.431373 0.309804 0.031373
0.513725 0.317647 0.043137
0.572549 0.313725 0.035294
0.639216 0.313725 0.050980
0.698039 0.321569 0.050980
0.764706 0.321569 0.054902
0.843137 0.325490 0.066667
0.905882 0.329412 0.062745
0.976471 0.329412 0.070588
1.000000 0.329412 0.066667
0.047059 0.372549 0.039216
0.066667 0.372549 0.043137
0.156863 0.376471 0.027451
0.223529 0.380392 0.035294
0.298039 0.380392 0.031373
0.368627 0.388235 0.043137
0.443137 0.384314 0.031373
0.509804 0.388235 0.039216
0.572549 0.392157 0.039216
0.639216 0.392157 0.054902
0.698039 0.388235 0.054902
0.768627 0.396078 0.070588
0.847059 0.396078 0.070588
0.913725 0.400000 0.066667
0.984314 0.400000 0.074510
1.000000 0.407843 0.066667
0.066667 0.447059 0.027451
0.086275 0.450980 0.035294
0.160784 0.450980 0.031373
0.227451 0.447059 0.035294
0.305882 0.454902 0.031373
0.372549 0.458824 0.039216
0.450980 0.458824 0.035294
0.513725 0.462745 0.043137
0.576471 0.458824 0.043137
0.643137 0.466667 0.062745
0.701961 0.466667 0.066667
0.772549 0.462745 0.070588
0.843137 0.474510 0.074510
0.921569 0.470588 0.082353
0.984314 0.474510 0.070588
1.000000 0.478431 0.070588
0.070588 0.517647 0.031373
0.090196 0.517647 0.035294
0.152941 0.529412 0.035294
0.227451 0.529412 0.043137
0.294118 0.525490 0.035294
0.368627 0.529412 0.050980
0.431373 0.533333 0.047059
0.509804 0.529412 0.054902
0.580392 0.537255 0.058824
0.643137 0.533333 0.062745
0.705882 0.545098 0.074510
0.784314 0.541176 0.082353
0.847059 0.545098 0.070588
0.921569 0.549020 0.078431
0.992157 0.545098 0.074510
1.000000 0.545098 0.082353
0.062745 0.592157 0.031373
0.090196 0.596078 0.047059
0.149020 0.596078 0.043137
0.223529 0.600000 0.054902
0.290196 0.600000 0.050980
0.364706 0.600000 0.058824
0.435294 0.607843 0.062745
0.501961 0.603922 0.062745
0.576471 0.607843 0.062745
0.643137 0.615686 0.078431
0.705882 0.611765 0.070588
0.780392 0.615686 0.074510
0.854902 0.615686 0.074510
0.921569 0.619608 0.082353
0.996078 0.627451 0.086275
1.000000 0.623529 0.086275
0.054902 0.666667 0.047059
0.078431 0.670588 0.050980
0.145098 0.670588 0.054902
0.211765 0.670588 0.066667
0.286275 0.674510 0.062745
0.352941 0.678431 0.070588
0.431373 0.678431 0.070588
0.501961 0.686275 0.082353
0.568627 0.682353 0.070588
0.643137 0.682353 0.074510
0.717647 0.686275 0.074510
0.784314 0.690196 0.082353
0.858824 0.682353 0.074510
0.929412 0.690196 0.086275
1.000000 0.694118 0.086275
1.000000 0.698039 0.094118
0.047059 0.737255 0.062745
0.074510 0.741176 0.066667
0.149020 0.741176 0.070588
0.219608 0.745098 0.070588
0.294118 0.745098 0.070588
0.356863 0.745098 0.074510
0.439216 0.749020 0.070588
0.505882 0.752941 0.074510
0.572549 0.760784 0.074510
0.643137 0.760784 0.082353
0.713725 0.756863 0.074510
0.792157 0.760784 0.086275
0.858824 0.768627 0.086275
0.933333 0.760784 0.090196
1.000000 0.768627 0.094118
1.000000 0.768627 0.101961
0.043137 0.811765 0.070588
0.082353 0.815686 0.070588
0.149020 0.819608 0.078431
0.215686 0.815686 0.074510
0.294118 0.823529 0.078431
0.368627 0.823529 0.074510
0.431373 0.823529 0.070588
0.513725 0.827451 0.082353
0.576471 0.827451 0.074510
0.647059 0.827451 0.082353
0.721569 0.839216 0.086275
0.796078 0.831373 0.090196
0.866667 0.839216 0.094118
0.937255 0.839216 0.101961
1.000000 0.839216 0.086275
1.000000 0.847059 0.098039
0.043137 0.890196 0.078431
0.086275 0.882353 0.074510
0.152941 0.886275 0.070588
0.231373 0.894118 0.074510
0.290196 0.894118 0.078431
0.376471 0.898039 0.082353
0.439216 0.894118 0.086275
0.509804 0.898039 0.082353
0.588235 0.905882 0.086275
0.650980 0.901961 0.090196
0.721569 0.905882 0.090196
0.800000 0.909804 0.101961
0.870588 0.909804 0.086275
0.937255 0.913725 0.094118
1.000000 0.913725 0.094118
1.000000 0.913725 0.098039
0.043137 0.956863 0.070588
0.086275 0.968627 0.074510
0.160784 0.960784 0.078431
0.227451 0.964706 0.078431
0.301961 0.964706 0.086275
0.368627 0.972549 0.082353
0.450980 0.972549 0.094118
0.513725 0.972549 0.090196
0.584314 0.972549 0.098039
0.662745 0.980392 0.101961
0.729412 0.980392 0.086275
0.796078 0.984314 0.094118
0.878431 0.980392 0.094118
0.945098 0.984314 0.098039
1.000000 0.984314 0.094118
1.000000 0.992157 0.105882
0.043137 1.000000 0.078431
0.090196 1.000000 0.078431
0.160784 1.000000 0.086275
0.235294 1.000000 0.082353
0.309804 1.000000 0.090196
0.376471 1.000000 0.090196
0.454902 1.000000 0.098039
0.517647 1.000000 0.090196
0.588235 1.000000 0.094118
0.658824 1.000000 0.094118
0.733333 1.000000 0.101961
0.807843 1.000000 0.098039
0.866667 1.000000 0.101961
0.952941 1.000000 0.105882
1.000000 1.000000 0.105882
1.000000 1.000000 0.105882
0.000000 0.000000 0.117647
0.000000 0.000000 0.121569
0.062745 0.000000 0.125490
0.129412 0.000000 0.129412
0.203922 0.000000 0.129412
0.301961 0.000000 0.125490
0.384314 0.000000 0.101961
0.490196 0.000000 0.094118
0.560784 0.000000 0.086275
0.627451 0.000000 0.094118
0.690196 0.000000 0.094118
0.760784 0.000000 0.101961
0.819608 0.000000 0.109804
0.886275 0.000000 0.117647
0.964706 0.000000 0.113725
1.000000 0.000000 0.121569
0.000000 0.011765 0.125490
0.000000 0.007843 0.129412
0.066667 0.011765 0.129412
0.145098 0.015686 0.141176
0.207843 0.015686 0.129412
0.301961 0.015686 0.121569
0.400000 0.019608 0.105882
0.486275 0.023529 0.098039
0.564706 0.019608 0.078431
0.627451 0.027451 0.094118
0.690196 0.027451 0.098039
0.749020 0.031373 0.113725
0.827451 0.031373 0.113725
0.894118 0.035294 0.121569
0.964706 0.035294 0.121569
1.000000 0.035294 0.129412
0.000000 0.078431 0.137255
0.000000 0.090196 0.141176
0.074510 0.082353 0.133333
0.145098 0.086275 0.137255
0.243137 0.090196 0.117647
0.329412 0.094118 0.109804
0.423529 0.090196 0.078431
0.498039 0.098039 0.090196
0.560784 0.098039 0.094118
0.623529 0.094118 0.101961
0.690196 0.101961 0.109804
0.752941 0.105882 0.121569
0.819608 0.109804 0.121569
0.901961 0.105882 0.129412
0.960784 0.105882 0.121569
1.000000 0.113725 0.133333
0.000000 0.152941 0.141176
0.003922 0.156863 0.141176
0.074510 0.152941 0.141176
0.176471 0.160784 0.125490
0.250980 0.160784 0.101961
0.352941 0.168627 0.094118
0.427451 0.172549 0.090196
0.498039 0.164706 0.098039
0.560784 0.172549 0.101961
0.619608 0.176471 0.117647
0.686275 0.172549 0.117647
0.764706 0.176471 0.129412
0.823529 0.176471 0.121569
0.905882 0.176471 0.129412
0.976471 0.184314 0.125490
1.000000 0.180392 0.129412
0.003922 0.227451 0.141176
0.023529 0.231373 0.141176
0.101961 0.227451 0.129412
0.192157 0.231373 0.105882
0.274510 0.239216 0.109804
0.356863 0.235294 0.098039
0.427451 0.239216 0.090196
0.505882 0.243137 0.105882
0.564706 0.243137 0.105882
0.627451 0.247059 0.125490
0.686275 0.247059 0.121569
0.760784 0.247059 0.129412
0.839216 0.254902 0.125490
0.898039 0.254902 0.129412
0.980392 0.254902 0.125490
1.000000 0.258824 0.133333
0.023529 0.298039 0.129412
0.047059 0.298039 0.117647
0.137255 0.305882 0.109804
0.219608 0.309804 0.094118
0.290196 0.309804 0.098039
0.368627 0.313725 0.101961
0.439216 0.309804 0.105882
0.498039 0.317647 0.109804
0.568627 0.313725 0.121569
0.627451 0.317647 0.125490
0.698039 0.325490 0.125490
0.760784 0.325490 0.129412
0.839216 0.325490 0.125490
0.905882 0.329412 0.133333
0.980392 0.329412 0.133333
1.000000 0.329412 0.141176
0.047059 0.372549 0.113725
0.062745 0.376471 0.109804
0.160784 0.376471 0.098039
0.231373 0.384314 0.101961
0.298039 0.380392 0.105882
0.364706 0.384314 0.105882
0.447059 0.384314 0.109804
0.505882 0.388235 0.113725
0.564706 0.384314 0.125490
0.635294 0.392157 0.125490
0.701961 0.392157 0.137255
0.764706 0.392157 0.129412
0.843137 0.400000 0.133333
0.917647 0.400000 0.141176
