public/luts/clean.cube
# Studiio — look « clean », genere par scripts/lut/generer-luts.mjs
# Source : les coefficients de LOOKS_RENDUS, calcules par ffmpeg lui-meme.
# Aucune LUT tierce, aucun telechargement : provenance et licence du depot.
LUT_3D_SIZE 6
DOMAIN_MIN 0.0 0.0 0.0
DOMAIN_MAX 1.0 1.0 1.0
0.000000 0.000000 0.000000
0.164706 0.000000 0.000000
0.368627 0.000000 0.000000
0.568627 0.000000 0.000000
0.772549 0.003922 0.000000
0.960784 0.007843 0.000000
0.000000 0.192157 0.000000
0.188235 0.196078 0.000000
0.384314 0.203922 0.000000
0.572549 0.207843 0.000000
0.780392 0.207843 0.000000
0.976471 0.219608 0.000000
0.000000 0.396078 0.000000
0.192157 0.400000 0.000000
0.388235 0.407843 0.000000
0.596078 0.411765 0.007843
0.792157 0.419608 0.007843
0.980392 0.423529 0.011765
0.000000 0.596078 0.003922
0.203922 0.603922 0.003922
0.400000 0.611765 0.003922
0.596078 0.611765 0.015686
0.800000 0.623529 0.023529
1.000000 0.627451 0.031373
0.015686 0.807843 0.011765
0.207843 0.807843 0.015686
0.415686 0.811765 0.023529
0.611765 0.819608 0.027451
0.811765 0.827451 0.027451
1.000000 0.827451 0.043137
0.019608 1.000000 0.023529
0.227451 1.000000 0.027451
0.423529 1.000000 0.035294
0.619608 1.000000 0.043137
0.823529 1.000000 0.047059
1.000000 1.000000 0.047059
0.000000 0.000000 0.164706
0.176471 0.000000 0.172549
0.364706 0.000000 0.168627
0.572549 0.000000 0.184314
0.768627 0.007843 0.184314
0.964706 0.015686 0.192157
0.000000 0.192157 0.176471
0.184314 0.196078 0.184314
0.380392 0.203922 0.184314
0.584314 0.211765 0.192157
0.780392 0.211765 0.188235
0.980392 0.215686 0.203922
0.000000 0.396078 0.188235
0.196078 0.407843 0.192157
0.396078 0.403922 0.196078
0.592157 0.411765 0.203922
0.788235 0.423529 0.207843
0.996078 0.423529 0.215686
0.000000 0.600000 0.192157
0.200000 0.603922 0.200000
0.403922 0.611765 0.207843
0.596078 0.619608 0.211765
0.811765 0.623529 0.223529
1.000000 0.631373 0.219608
0.015686 0.807843 0.207843
0.215686 0.811765 0.219608
0.411765 0.815686 0.215686
0.607843 0.823529 0.215686
0.807843 0.827451 0.231373
1.000000 0.831373 0.231373
0.031373 1.000000 0.215686
0.227451 1.000000 0.223529
0.423529 1.000000 0.231373
0.631373 1.000000 0.239216
0.823529 1.000000 0.239216
1.000000 1.000000 0.235294
0.000000 0.000000 0.360784
0.172549 0.000000 0.368627
0.380392 0.000000 0.376471
0.572549 0.003922 0.372549
0.768627 0.011765 0.380392
0.976471 0.011765 0.380392
0.000000 0.200000 0.376471
0.184314 0.200000 0.372549
0.384314 0.203922 0.380392
0.580392 0.211765 0.380392
0.788235 0.211765 0.400000
0.980392 0.219608 0.396078
0.000000 0.396078 0.376471
0.200000 0.407843 0.388235
0.400000 0.411765 0.400000
0.592157 0.415686 0.396078
0.792157 0.419608 0.403922
0.996078 0.427451 0.403922
0.007843 0.603922 0.392157
0.203922 0.603922 0.396078
0.400000 0.611765 0.400000
0.607843 0.615686 0.407843
0.807843 0.627451 0.419608
1.000000 0.635294 0.419608
0.019608 0.807843 0.400000
0.211765 0.815686 0.407843
0.415686 0.819608 0.415686
0.615686 0.823529 0.423529
0.807843 0.831373 0.419608
1.000000 0.831373 0.427451
0.035294 1.000000 0.423529
0.227451 1.000000 0.423529
0.427451 1.000000 0.427451
0.627451 1.000000 0.427451
0.823529 1.000000 0.431373
1.000000 1.000000 0.447059
0.000000 0.000000 0.556863
0.176471 0.000000 0.564706
0.376471 0.000000 0.564706
0.572549 0.011765 0.564706
0.772549 0.007843 0.576471
0.972549 0.015686 0.580392
0.000000 0.200000 0.564706
0.192157 0.203922 0.572549
0.384314 0.207843 0.576471
0.592157 0.207843 0.588235
0.784314 0.215686 0.588235
0.980392 0.223529 0.596078
0.000000 0.396078 0.580392
0.196078 0.407843 0.588235
0.396078 0.415686 0.588235
0.600000 0.419608 0.596078
0.796078 0.427451 0.596078
1.000000 0.423529 0.607843
0.011765 0.603922 0.592157
0.207843 0.611765 0.592157
0.407843 0.615686 0.600000
0.603922 0.615686 0.603922
0.800000 0.627451 0.603922
1.000000 0.635294 0.619608
0.019608 0.815686 0.600000
0.215686 0.815686 0.603922
0.419608 0.819608 0.611765
0.615686 0.827451 0.611765
0.823529 0.831373 0.623529
1.000000 0.831373 0.627451
0.031373 1.000000 0.611765
0.231373 1.000000 0.611765
0.427451 1.000000 0.623529
0.623529 1.000000 0.627451
0.827451 1.000000 0.635294
1.000000 1.000000 0.635294
0.000000 0.000000 0.756863
0.176471 0.000000 0.752941
0.376471 0.003922 0.752941
0.576471 0.007843 0.772549
0.772549 0.015686 0.772549
0.976471 0.019608 0.780392
0.000000 0.196078 0.760784
0.188235 0.203922 0.772549
0.392157 0.207843 0.780392
0.592157 0.215686 0.780392
0.784314 0.219608 0.776471
0.984314 0.223529 0.792157
0.000000 0.403922 0.776471
0.196078 0.403922 0.772549
0.403922 0.411765 0.784314
0.596078 0.419608 0.792157
0.803922 0.423529 0.800000
1.000000 0.431373 0.803922
0.007843 0.607843 0.780392
0.211765 0.607843 0.796078
0.407843 0.619608 0.796078
0.607843 0.623529 0.796078
0.803922 0.623529 0.800000
1.000000 0.639216 0.807843
0.019608 0.815686 0.796078
0.227451 0.815686 0.803922
0.415686 0.823529 0.800000
0.619608 0.827451 0.811765
0.819608 0.831373 0.819608
1.000000 0.839216 0.819608
0.035294 1.000000 0.800000
0.231373 1.000000 0.811765
0.431373 1.000000 0.819608
0.635294 1.000000 0.827451
0.823529 1.000000 0.823529
1.000000 1.000000 0.831373
0.000000 0.000000 0.945098
0.184314 0.000000 0.956863
0.384314 0.003922 0.964706
0.576471 0.011765 0.960784
0.776471 0.015686 0.968627
0.980392 0.019608 0.968627
0.000000 0.203922 0.964706
0.188235 0.207843 0.968627
0.388235 0.211765 0.968627
0.592157 0.219608 0.968627
0.792157 0.223529 0.984314
0.984314 0.227451 0.980392
0.000000 0.403922 0.964706
0.203922 0.407843 0.972549
0.403922 0.419608 0.984314
0.600000 0.419608 0.988235
0.803922 0.423529 0.992157
1.000000 0.435294 0.992157
0.019608 0.607843 0.988235
0.207843 0.611765 0.984314
0.411765 0.619608 0.984314
0.611765 0.623529 0.996078
0.807843 0.631373 1.000000
1.000000 0.635294 1.000000
0.023529 0.815686 0.992157
0.223529 0.819608 0.996078
0.427451 0.823529 1.000000
0.615686 0.827451 1.000000
0.819608 0.835294 1.000000
1.000000 0.839216 1.000000
0.039216 1.000000 1.000000
0.227451 1.000000 1.000000
0.435294 1.000000 1.000000
0.631373 1.000000 1.000000
0.831373 1.000000 1.000000
1.000000 1.000000 1.000000
