public/luts/clean.cube
# Studiio — look « clean », genere par scripts/lut/generer-luts.mjs
# Source : les coefficients de LOOKS_RENDUS, calcules par ffmpeg lui-meme.
# Aucune LUT tierce, aucun telechargement : provenance et licence du depot.
LUT_3D_SIZE 16
DOMAIN_MIN 0.0 0.0 0.0
DOMAIN_MAX 1.0 1.0 1.0
0.000000 0.000000 0.000000
0.031373 0.000000 0.000000
0.105882 0.000000 0.000000
0.164706 0.000000 0.000000
0.235294 0.000000 0.000000
0.305882 0.000000 0.000000
0.368627 0.000000 0.000000
0.435294 0.000000 0.000000
0.505882 0.000000 0.000000
0.568627 0.000000 0.000000
0.635294 0.003922 0.000000
0.698039 0.007843 0.000000
0.772549 0.003922 0.000000
0.839216 0.011765 0.000000
0.905882 0.003922 0.000000
0.960784 0.007843 0.000000
0.000000 0.054902 0.000000
0.039216 0.054902 0.000000
0.101961 0.054902 0.000000
0.172549 0.062745 0.000000
0.243137 0.058824 0.000000
0.305882 0.058824 0.000000
0.376471 0.066667 0.000000
0.439216 0.070588 0.000000
0.501961 0.066667 0.000000
0.572549 0.070588 0.000000
0.639216 0.070588 0.000000
0.705882 0.078431 0.000000
0.768627 0.074510 0.000000
0.835294 0.074510 0.000000
0.909804 0.082353 0.003922
0.968627 0.082353 0.000000
0.000000 0.121569 0.000000
0.050980 0.125490 0.000000
0.109804 0.125490 0.000000
0.172549 0.125490 0.000000
0.243137 0.133333 0.000000
0.313725 0.129412 0.000000
0.376471 0.133333 0.000000
0.443137 0.137255 0.000000
0.509804 0.137255 0.000000
0.576471 0.137255 0.000000
0.643137 0.141176 0.000000
0.709804 0.137255 0.000000
0.776471 0.149020 0.003922
0.843137 0.145098 0.000000
0.905882 0.145098 0.000000
0.972549 0.149020 0.000000
0.000000 0.192157 0.000000
0.047059 0.188235 0.000000
0.109804 0.188235 0.000000
0.188235 0.196078 0.000000
0.243137 0.200000 0.000000
0.317647 0.200000 0.000000
0.384314 0.203922 0.000000
0.450980 0.200000 0.000000
0.513725 0.207843 0.000000
0.572549 0.207843 0.000000
0.647059 0.207843 0.000000
0.713725 0.211765 0.000000
0.780392 0.207843 0.000000
0.839216 0.211765 0.000000
0.913725 0.215686 0.007843
0.976471 0.219608 0.000000
0.000000 0.254902 0.000000
0.050980 0.266667 0.000000
0.117647 0.262745 0.000000
0.180392 0.262745 0.000000
0.258824 0.266667 0.000000
0.313725 0.266667 0.000000
0.380392 0.266667 0.000000
0.447059 0.270588 0.000000
0.521569 0.270588 0.000000
0.580392 0.278431 0.003922
0.650980 0.274510 0.000000
0.713725 0.274510 0.000000
0.788235 0.282353 0.007843
0.847059 0.286275 0.000000
0.913725 0.282353 0.003922
0.980392 0.286275 0.003922
0.000000 0.325490 0.000000
0.047059 0.329412 0.000000
0.125490 0.333333 0.000000
0.188235 0.333333 0.000000
0.258824 0.329412 0.000000
0.317647 0.337255 0.000000
0.388235 0.337255 0.000000
0.450980 0.337255 0.000000
0.517647 0.341176 0.000000
0.588235 0.337255 0.003922
0.650980 0.352941 0.007843
0.721569 0.345098 0.007843
0.784314 0.349020 0.003922
0.854902 0.349020 0.003922
0.917647 0.356863 0.007843
0.984314 0.352941 0.011765
0.000000 0.396078 0.000000
0.062745 0.396078 0.000000
0.117647 0.400000 0.000000
0.192157 0.400000 0.000000
0.258824 0.403922 0.000000
0.325490 0.400000 0.000000
0.388235 0.407843 0.000000
0.454902 0.403922 0.003922
0.521569 0.411765 0.000000
0.596078 0.411765 0.007843
0.658824 0.411765 0.003922
0.717647 0.411765 0.003922
0.792157 0.419608 0.007843
0.858824 0.415686 0.019608
0.925490 0.419608 0.019608
0.980392 0.423529 0.011765
0.000000 0.462745 0.000000
0.062745 0.458824 0.000000
0.133333 0.470588 0.000000
0.196078 0.466667 0.000000
0.258824 0.466667 0.000000
0.329412 0.470588 0.003922
0.396078 0.474510 0.000000
0.458824 0.482353 0.007843
0.525490 0.478431 0.003922
0.588235 0.478431 0.003922
0.666667 0.482353 0.007843
0.729412 0.482353 0.019608
0.788235 0.482353 0.015686
0.854902 0.486275 0.019608
0.929412 0.486275 0.019608
0.992157 0.486275 0.023529
0.003922 0.537255 0.000000
0.062745 0.533333 0.000000
0.133333 0.533333 0.000000
0.192157 0.537255 0.003922
0.266667 0.541176 0.000000
0.329412 0.541176 0.003922
0.400000 0.541176 0.003922
0.462745 0.541176 0.003922
0.529412 0.545098 0.003922
0.596078 0.549020 0.019608
0.662745 0.545098 0.015686
0.729412 0.549020 0.019608
0.796078 0.552941 0.019608
0.858824 0.552941 0.023529
0.925490 0.556863 0.023529
0.996078 0.552941 0.023529
0.000000 0.596078 0.003922
0.066667 0.603922 0.003922
0.141176 0.603922 0.000000
0.203922 0.603922 0.003922
0.270588 0.607843 0.003922
0.333333 0.607843 0.003922
0.400000 0.611765 0.003922
0.470588 0.611765 0.019608
0.533333 0.611765 0.015686
0.596078 0.611765 0.015686
0.666667 0.619608 0.019608
0.733333 0.615686 0.023529
0.800000 0.623529 0.023529
0.862745 0.619608 0.023529
0.929412 0.627451 0.023529
1.000000 0.627451 0.031373
0.007843 0.670588 0.007843
0.070588 0.670588 0.003922
0.133333 0.670588 0.007843
0.207843 0.670588 0.003922
0.274510 0.678431 0.003922
0.341176 0.678431 0.019608
0.400000 0.678431 0.015686
0.470588 0.674510 0.015686
0.541176 0.686275 0.019608
0.607843 0.682353 0.023529
0.666667 0.686275 0.015686
0.737255 0.686275 0.023529
0.803922 0.690196 0.023529
0.874510 0.686275 0.027451
0.933333 0.694118 0.023529
0.996078 0.694118 0.027451
0.007843 0.733333 0.007843
0.074510 0.737255 0.003922
0.141176 0.741176 0.011765
0.211765 0.737255 0.015686
0.274510 0.741176 0.023529
0.345098 0.737255 0.015686
0.403922 0.749020 0.015686
0.470588 0.749020 0.023529
0.541176 0.749020 0.015686
0.607843 0.752941 0.023529
0.674510 0.756863 0.023529
0.737255 0.756863 0.027451
0.807843 0.756863 0.023529
0.870588 0.756863 0.027451
0.945098 0.760784 0.027451
1.000000 0.764706 0.035294
0.015686 0.807843 0.011765
0.078431 0.803922 0.015686
0.145098 0.807843 0.023529
0.207843 0.807843 0.015686
0.278431 0.807843 0.023529
0.345098 0.815686 0.023529
0.415686 0.811765 0.023529
0.470588 0.815686 0.019608
0.549020 0.819608 0.023529
0.611765 0.819608 0.027451
0.682353 0.823529 0.023529
0.737255 0.823529 0.027451
0.811765 0.827451 0.027451
0.878431 0.831373 0.035294
0.941176 0.827451 0.035294
1.000000 0.827451 0.043137
0.015686 0.866667 0.015686
0.082353 0.874510 0.015686
0.152941 0.874510 0.023529
0.215686 0.882353 0.023529
0.282353 0.878431 0.023529
0.345098 0.878431 0.019608
0.415686 0.886275 0.031373
0.486275 0.882353 0.027451
0.541176 0.886275 0.027451
0.615686 0.886275 0.027451
0.682353 0.890196 0.035294
0.749020 0.890196 0.027451
0.807843 0.894118 0.035294
0.882353 0.894118 0.043137
0.949020 0.901961 0.043137
1.000000 0.898039 0.043137
0.015686 0.945098 0.023529
0.086275 0.941176 0.019608
0.152941 0.945098 0.023529
0.219608 0.941176 0.019608
0.282353 0.949020 0.027451
0.352941 0.949020 0.027451
0.415686 0.949020 0.027451
0.490196 0.952941 0.027451
0.549020 0.956863 0.035294
0.615686 0.956863 0.027451
0.682353 0.960784 0.035294
0.756863 0.960784 0.043137
0.819608 0.956863 0.047059
0.878431 0.968627 0.043137
0.949020 0.964706 0.039216
1.000000 0.968627 0.047059
0.019608 1.000000 0.023529
0.090196 1.000000 0.019608
0.156863 1.000000 0.027451
0.227451 1.000000 0.027451
0.290196 1.000000 0.027451
0.345098 1.000000 0.023529
0.423529 1.000000 0.035294
0.486275 1.000000 0.027451
0.552941 1.000000 0.031373
0.619608 1.000000 0.043137
0.686275 1.000000 0.047059
0.752941 1.000000 0.043137
0.823529 1.000000 0.047059
0.890196 1.000000 0.047059
0.956863 1.000000 0.054902
1.000000 1.000000 0.047059
0.000000 0.000000 0.031373
0.035294 0.000000 0.039216
0.101961 0.000000 0.035294
0.168627 0.000000 0.043137
0.243137 0.000000 0.043137
0.305882 0.000000 0.043137
0.372549 0.000000 0.043137
0.431373 0.000000 0.047059
0.509804 0.003922 0.050980
0.572549 0.000000 0.050980
0.627451 0.003922 0.047059
0.701961 0.007843 0.054902
0.768627 0.011765 0.050980
0.835294 0.007843 0.054902
0.901961 0.011765 0.054902
0.964706 0.007843 0.062745
0.000000 0.050980 0.043137
0.043137 0.054902 0.043137
0.105882 0.062745 0.043137
0.172549 0.058824 0.043137
0.239216 0.062745 0.043137
0.305882 0.058824 0.047059
0.372549 0.066667 0.043137
0.439216 0.070588 0.050980
0.501961 0.070588 0.047059
0.576471 0.070588 0.054902
0.643137 0.074510 0.050980
0.705882 0.074510 0.054902
0.772549 0.078431 0.054902
0.839216 0.074510 0.062745
0.905882 0.078431 0.062745
0.980392 0.078431 0.070588
0.000000 0.125490 0.050980
0.047059 0.121569 0.043137
0.113725 0.125490 0.050980
0.176471 0.125490 0.047059
0.243137 0.133333 0.043137
0.317647 0.133333 0.050980
0.376471 0.133333 0.047059
0.439216 0.133333 0.047059
0.509804 0.141176 0.050980
0.572549 0.141176 0.054902
0.643137 0.137255 0.050980
0.709804 0.141176 0.062745
0.776471 0.145098 0.062745
0.843137 0.149020 0.070588
0.909804 0.145098 0.066667
0.972549 0.145098 0.066667
0.000000 0.188235 0.047059
0.043137 0.192157 0.047059
0.117647 0.196078 0.050980
0.180392 0.196078 0.047059
0.247059 0.200000 0.054902
0.309804 0.200000 0.047059
0.384314 0.203922 0.058824
0.447059 0.203922 0.054902
0.509804 0.203922 0.050980
0.576471 0.207843 0.062745
0.650980 0.207843 0.062745
0.713725 0.207843 0.066667
0.784314 0.211765 0.066667
0.839216 0.211765 0.066667
0.913725 0.215686 0.066667
0.980392 0.219608 0.074510
0.000000 0.262745 0.050980
0.047059 0.262745 0.047059
0.121569 0.262745 0.054902
0.184314 0.262745 0.047059
0.254902 0.262745 0.054902
0.317647 0.270588 0.054902
0.384314 0.266667 0.058824
0.450980 0.270588 0.062745
0.525490 0.270588 0.070588
0.580392 0.274510 0.066667
0.647059 0.278431 0.066667
0.713725 0.274510 0.066667
0.780392 0.282353 0.066667
0.854902 0.282353 0.074510
0.909804 0.286275 0.066667
0.980392 0.282353 0.070588
0.000000 0.325490 0.054902
0.050980 0.329412 0.047059
0.117647 0.333333 0.054902
0.192157 0.337255 0.054902
0.254902 0.333333 0.058824
0.321569 0.329412 0.058824
0.388235 0.341176 0.070588
0.454902 0.337255 0.066667
0.517647 0.337255 0.066667
0.588235 0.341176 0.066667
0.650980 0.345098 0.074510
0.721569 0.349020 0.074510
0.784314 0.349020 0.066667
0.854902 0.345098 0.070588
0.917647 0.356863 0.074510
0.988235 0.352941 0.074510
0.000000 0.396078 0.054902
0.062745 0.396078 0.050980
0.121569 0.400000 0.058824
0.192157 0.396078 0.058824
0.262745 0.403922 0.070588
0.329412 0.403922 0.066667
0.384314 0.403922 0.066667
0.458824 0.407843 0.066667
0.525490 0.411765 0.074510
0.588235 0.411765 0.070588
0.658824 0.411765 0.074510
0.717647 0.415686 0.070588
0.788235 0.415686 0.078431
0.854902 0.419608 0.074510
0.925490 0.419608 0.070588
0.988235 0.427451 0.082353
0.000000 0.466667 0.058824
0.058824 0.462745 0.058824
0.133333 0.462745 0.066667
0.192157 0.474510 0.066667
0.258824 0.466667 0.066667
0.321569 0.470588 0.062745
0.400000 0.474510 0.074510
0.454902 0.478431 0.070588
0.529412 0.478431 0.074510
0.592157 0.478431 0.070588
0.662745 0.478431 0.078431
0.729412 0.486275 0.074510
0.792157 0.482353 0.078431
0.858824 0.490196 0.078431
0.933333 0.486275 0.094118
0.996078 0.486275 0.086275
0.000000 0.533333 0.066667
0.066667 0.537255 0.066667
0.137255 0.533333 0.066667
0.196078 0.533333 0.062745
0.270588 0.541176 0.074510
0.329412 0.541176 0.070588
0.400000 0.537255 0.070588
0.466667 0.541176 0.070588
0.525490 0.549020 0.078431
0.600000 0.552941 0.074510
0.662745 0.549020 0.078431
0.733333 0.552941 0.078431
0.800000 0.552941 0.094118
0.862745 0.552941 0.086275
0.925490 0.552941 0.090196
1.000000 0.560784 0.094118
0.000000 0.603922 0.066667
0.066667 0.600000 0.062745
0.137255 0.607843 0.074510
0.203922 0.603922 0.070588
0.262745 0.607843 0.070588
0.333333 0.607843 0.070588
0.400000 0.611765 0.078431
0.470588 0.611765 0.070588
0.537255 0.615686 0.078431
0.603922 0.619608 0.078431
0.662745 0.615686 0.090196
0.737255 0.619608 0.086275
0.800000 0.615686 0.090196
0.870588 0.627451 0.094118
0.933333 0.627451 0.094118
0.996078 0.627451 0.090196
0.007843 0.666667 0.070588
0.074510 0.670588 0.078431
0.137255 0.670588 0.070588
0.203922 0.670588 0.066667
0.274510 0.678431 0.078431
0.337255 0.678431 0.070588
0.403922 0.682353 0.078431
0.470588 0.686275 0.078431
0.541176 0.682353 0.090196
0.607843 0.686275 0.086275
0.666667 0.686275 0.090196
0.733333 0.690196 0.090196
0.807843 0.690196 0.094118
0.870588 0.690196 0.090196
0.933333 0.690196 0.094118
1.000000 0.698039 0.098039
0.011765 0.733333 0.070588
0.074510 0.733333 0.074510
0.145098 0.745098 0.078431
0.207843 0.741176 0.078431
0.274510 0.741176 0.074510
0.345098 0.749020 0.078431
0.407843 0.749020 0.090196
0.470588 0.749020 0.082353
0.541176 0.749020 0.090196
0.607843 0.752941 0.090196
0.682353 0.752941 0.094118
0.737255 0.756863 0.090196
0.807843 0.752941 0.094118
0.878431 0.764706 0.098039
0.945098 0.760784 0.098039
1.000000 0.760784 0.094118
0.019608 0.807843 0.078431
0.082353 0.807843 0.078431
0.145098 0.807843 0.074510
0.215686 0.815686 0.086275
0.282353 0.811765 0.090196
0.345098 0.811765 0.090196
0.419608 0.811765 0.090196
0.478431 0.819608 0.090196
0.541176 0.819608 0.090196
0.611765 0.819608 0.090196
0.674510 0.819608 0.094118
0.745098 0.831373 0.098039
0.807843 0.827451 0.098039
0.878431 0.827451 0.094118
0.945098 0.831373 0.101961
1.000000 0.831373 0.098039
0.011765 0.874510 0.074510
0.078431 0.870588 0.078431
0.152941 0.878431 0.090196
0.211765 0.878431 0.090196
0.278431 0.882353 0.090196
0.352941 0.882353 0.098039
0.415686 0.882353 0.090196
0.486275 0.882353 0.098039
0.545098 0.886275 0.094118
0.615686 0.890196 0.090196
0.682353 0.894118 0.098039
0.752941 0.890196 0.094118
0.807843 0.894118 0.094118
0.886275 0.898039 0.098039
0.949020 0.898039 0.101961
1.000000 0.901961 0.109804
0.019608 0.945098 0.090196
0.090196 0.941176 0.090196
0.149020 0.941176 0.086275
0.227451 0.945098 0.098039
0.282353 0.949020 0.090196
0.352941 0.945098 0.094118
0.419608 0.952941 0.094118
0.486275 0.952941 0.098039
0.556863 0.956863 0.098039
0.615686 0.960784 0.101961
0.682353 0.956863 0.094118
0.752941 0.964706 0.105882
0.823529 0.960784 0.101961
0.878431 0.964706 0.105882
0.949020 0.964706 0.109804
1.000000 0.968627 0.109804
0.023529 1.000000 0.086275
0.090196 1.000000 0.098039
0.156863 1.000000 0.090196
0.219608 1.000000 0.094118
0.294118 1.000000 0.094118
0.352941 1.000000 0.098039
0.423529 1.000000 0.094118
0.490196 1.000000 0.101961
0.556863 1.000000 0.094118
0.623529 1.000000 0.105882
0.690196 1.000000 0.101961
0.752941 1.000000 0.105882
0.827451 1.000000 0.109804
0.890196 1.000000 0.117647
0.949020 1.000000 0.113725
1.000000 1.000000 0.113725
0.000000 0.000000 0.098039
0.043137 0.000000 0.098039
0.105882 0.000000 0.098039
0.168627 0.000000 0.094118
0.239216 0.000000 0.113725
0.305882 0.000000 0.109804
0.368627 0.000000 0.113725
0.435294 0.000000 0.109804
0.501961 0.000000 0.117647
0.576471 0.003922 0.117647
0.631373 0.003922 0.117647
0.705882 0.007843 0.117647
0.772549 0.011765 0.125490
0.839216 0.007843 0.117647
0.901961 0.007843 0.121569
0.972549 0.015686 0.125490
0.000000 0.054902 0.098039
0.043137 0.054902 0.094118
0.105882 0.062745 0.113725
0.176471 0.058824 0.109804
0.239216 0.058824 0.109804
0.309804 0.062745 0.109804
0.376471 0.066667 0.117647
0.439216 0.066667 0.109804
0.505882 0.070588 0.117647
0.580392 0.070588 0.117647
0.647059 0.074510 0.125490
0.701961 0.078431 0.117647
0.768627 0.074510 0.121569
0.839216 0.082353 0.125490
0.909804 0.078431 0.129412
0.972549 0.082353 0.121569
0.000000 0.121569 0.109804
0.050980 0.121569 0.117647
0.113725 0.121569 0.109804
0.172549 0.133333 0.109804
0.247059 0.133333 0.117647
0.305882 0.133333 0.109804
0.380392 0.133333 0.117647
0.447059 0.137255 0.117647
0.509804 0.137255 0.121569
0.576471 0.141176 0.117647
0.643137 0.137255 0.121569
0.709804 0.145098 0.121569
0.776471 0.145098 0.129412
0.839216 0.149020 0.121569
0.913725 0.145098 0.137255
0.980392 0.152941 0.137255
0.000000 0.192157 0.109804
0.043137 0.188235 0.113725
0.121569 0.196078 0.117647
0.184314 0.196078 0.117647
0.250980 0.200000 0.117647
0.317647 0.203922 0.117647
0.384314 0.200000 0.121569
0.450980 0.207843 0.117647
0.513725 0.203922 0.121569
0.580392 0.211765 0.121569
0.647059 0.215686 0.129412
0.713725 0.211765 0.121569
0.776471 0.207843 0.133333
0.847059 0.219608 0.137255
0.909804 0.215686 0.137255
0.984314 0.219608 0.137255
0.000000 0.262745 0.117647
0.050980 0.262745 0.117647
0.113725 0.262745 0.113725
0.192157 0.266667 0.125490
0.250980 0.266667 0.121569
0.313725 0.266667 0.121569
0.380392 0.270588 0.121569
0.454902 0.270588 0.129412
0.521569 0.278431 0.129412
0.584314 0.278431 0.121569
0.647059 0.274510 0.133333
0.721569 0.282353 0.137255
0.784314 0.282353 0.137255
0.854902 0.278431 0.133333
0.913725 0.286275 0.141176
0.988235 0.286275 0.141176
0.000000 0.325490 0.113725
0.058824 0.333333 0.125490
0.121569 0.333333 0.121569
0.188235 0.329412 0.121569
0.254902 0.337255 0.121569
0.329412 0.337255 0.129412
0.384314 0.341176 0.121569
0.458824 0.341176 0.129412
0.521569 0.341176 0.133333
0.592157 0.341176 0.141176
0.654902 0.349020 0.137255
0.713725 0.349020 0.133333
0.788235 0.349020 0.141176
0.854902 0.352941 0.141176
0.921569 0.349020 0.141176
0.984314 0.356863 0.141176
0.000000 0.400000 0.121569
0.062745 0.396078 0.121569
0.121569 0.400000 0.117647
0.192157 0.407843 0.129412
0.258824 0.403922 0.121569
0.325490 0.407843 0.129412
0.396078 0.403922 0.133333
0.454902 0.411765 0.141176
0.529412 0.411765 0.137255
0.592157 0.411765 0.141176
0.658824 0.407843 0.137255
0.725490 0.419608 0.149020
0.792157 0.415686 0.141176
0.858824 0.423529 0.141176
0.925490 0.419608 0.145098
0.988235 0.427451 0.141176
0.000000 0.462745 0.117647
0.066667 0.470588 0.129412
0.133333 0.466667 0.121569
0.192157 0.470588 0.125490
0.262745 0.470588 0.133333
0.329412 0.474510 0.141176
0.403922 0.474510 0.137255
0.458824 0.478431 0.141176
0.525490 0.474510 0.137255
0.600000 0.482353 0.149020
0.658824 0.482353 0.141176
0.729412 0.478431 0.145098
0.788235 0.486275 0.145098
0.862745 0.490196 0.149020
0.925490 0.490196 0.145098
0.996078 0.490196 0.145098
0.003922 0.533333 0.121569
0.066667 0.533333 0.125490
0.133333 0.537255 0.133333
0.203922 0.537255 0.141176
0.258824 0.541176 0.133333
0.333333 0.541176 0.141176
0.396078 0.541176 0.137255
0.470588 0.541176 0.141176
0.529412 0.549020 0.141176
0.596078 0.545098 0.145098
0.662745 0.552941 0.145098
0.737255 0.552941 0.149020
0.800000 0.552941 0.145098
0.866667 0.556863 0.152941
0.929412 0.556863 0.145098
1.000000 0.556863 0.160784
0.000000 0.600000 0.129412
0.074510 0.603922 0.141176
0.137255 0.603922 0.133333
0.207843 0.603922 0.141176
0.270588 0.607843 0.137255
0.337255 0.607843 0.141176
0.403922 0.615686 0.141176
0.470588 0.611765 0.145098
0.533333 0.611765 0.137255
0.600000 0.623529 0.149020
0.666667 0.619608 0.145098
0.729412 0.619608 0.149020
0.803922 0.619608 0.145098
0.870588 0.623529 0.160784
0.937255 0.627451 0.160784
0.996078 0.627451 0.164706
0.011765 0.666667 0.141176
0.066667 0.670588 0.137255
0.137255 0.674510 0.137255
0.203922 0.678431 0.141176
0.274510 0.674510 0.137255
0.333333 0.682353 0.145098
0.403922 0.678431 0.137255
0.474510 0.686275 0.149020
0.541176 0.682353 0.145098
0.603922 0.682353 0.149020
0.670588 0.686275 0.145098
0.737255 0.690196 0.160784
0.807843 0.686275 0.156863
0.874510 0.690196 0.164706
0.933333 0.690196 0.156863
1.000000 0.698039 0.168627
0.015686 0.733333 0.145098
0.082353 0.741176 0.141176
0.141176 0.741176 0.145098
0.207843 0.745098 0.145098
0.278431 0.741176 0.137255
0.345098 0.745098 0.145098
0.411765 0.749020 0.145098
0.474510 0.749020 0.149020
0.541176 0.752941 0.145098
0.611765 0.752941 0.160784
0.674510 0.752941 0.156863
0.741176 0.756863 0.164706
0.803922 0.756863 0.156863
0.874510 0.756863 0.164706
0.941176 0.764706 0.164706
1.000000 0.764706 0.164706
0.015686 0.803922 0.145098
0.082353 0.807843 0.145098
0.145098 0.807843 0.145098
0.211765 0.811765 0.145098
0.278431 0.815686 0.152941
0.349020 0.811765 0.149020
0.411765 0.815686 0.141176
0.482353 0.819608 0.160784
0.545098 0.819608 0.156863
0.611765 0.815686 0.156863
0.678431 0.823529 0.156863
0.752941 0.823529 0.164706
0.811765 0.831373 0.164706
0.878431 0.827451 0.164706
0.941176 0.827451 0.160784
1.000000 0.835294 0.172549
0.015686 0.874510 0.145098
0.086275 0.874510 0.145098
0.149020 0.874510 0.149020
0.215686 0.878431 0.149020
0.278431 0.878431 0.149020
0.356863 0.882353 0.160784
0.419608 0.882353 0.164706
0.486275 0.882353 0.156863
0.545098 0.890196 0.156863
0.611765 0.894118 0.164706
0.682353 0.890196 0.160784
0.749020 0.894118 0.164706
0.811765 0.894118 0.160784
0.878431 0.898039 0.168627
0.949020 0.898039 0.164706
1.000000 0.898039 0.168627
0.019608 0.941176 0.149020
0.086275 0.949020 0.149020
0.152941 0.941176 0.149020
0.219608 0.945098 0.156863
0.286275 0.949020 0.164706
0.349020 0.949020 0.156863
0.419608 0.952941 0.164706
0.486275 0.956863 0.164706
0.556863 0.952941 0.168627
0.615686 0.960784 0.164706
0.686275 0.956863 0.160784
0.752941 0.960784 0.168627
0.823529 0.964706 0.164706
0.882353 0.964706 0.168627
0.949020 0.964706 0.164706
1.000000 0.972549 0.176471
0.027451 1.000000 0.149020
0.090196 1.000000 0.156863
0.160784 1.000000 0.164706
0.223529 1.000000 0.156863
0.290196 1.000000 0.160784
0.356863 1.000000 0.164706
0.423529 1.000000 0.168627
0.486275 1.000000 0.160784
0.552941 1.000000 0.168627
0.627451 1.000000 0.168627
0.686275 1.000000 0.172549
0.756863 1.000000 0.168627
0.815686 1.000000 0.172549
0.894118 1.000000 0.176471
0.949020 1.000000 0.176471
1.000000 1.000000 0.180392
0.000000 0.000000 0.164706
0.043137 0.000000 0.164706
0.101961 0.000000 0.164706
0.176471 0.000000 0.172549
0.235294 0.000000 0.164706
0.309804 0.000000 0.172549
0.364706 0.000000 0.168627
0.443137 0.003922 0.188235
0.505882 0.003922 0.180392
0.572549 0.000000 0.184314
0.639216 0.003922 0.184314
0.705882 0.007843 0.188235
0.768627 0.007843 0.184314
0.835294 0.011765 0.192157
0.905882 0.007843 0.184314
0.964706 0.015686 0.192157
0.000000 0.058824 0.164706
0.050980 0.058824 0.172549
0.113725 0.058824 0.164706
0.180392 0.062745 0.172549
0.239216 0.062745 0.168627
0.305882 0.066667 0.180392
0.380392 0.066667 0.180392
0.435294 0.070588 0.184314
0.505882 0.066667 0.176471
0.576471 0.074510 0.188235
0.643137 0.070588 0.184314
0.705882 0.078431 0.192157
0.772549 0.074510 0.184314
0.839216 0.078431 0.192157
0.913725 0.082353 0.192157
0.972549 0.082353 0.196078
0.000000 0.125490 0.172549
0.047059 0.129412 0.172549
0.113725 0.125490 0.168627
0.176471 0.133333 0.180392
0.247059 0.133333 0.180392
0.309804 0.133333 0.184314
0.380392 0.129412 0.176471
0.450980 0.137255 0.188235
0.513725 0.137255 0.184314
0.572549 0.137255 0.188235
0.647059 0.141176 0.184314
0.713725 0.145098 0.192157
0.772549 0.152941 0.192157
0.843137 0.149020 0.196078
0.905882 0.149020 0.188235
0.980392 0.152941 0.200000
0.000000 0.192157 0.176471
0.050980 0.196078 0.180392
0.117647 0.192157 0.184314
0.184314 0.196078 0.184314
0.243137 0.200000 0.176471
0.317647 0.203922 0.188235
0.380392 0.203922 0.184314
0.450980 0.200000 0.188235
0.517647 0.207843 0.184314
0.584314 0.211765 0.192157
0.643137 0.211765 0.188235
0.717647 0.211765 0.196078
0.780392 0.211765 0.188235
0.847059 0.215686 0.196078
0.913725 0.219608 0.196078
0.980392 0.215686 0.203922
0.000000 0.258824 0.184314
0.054902 0.262745 0.184314
0.117647 0.262745 0.188235
0.188235 0.262745 0.184314
0.254902 0.266667 0.192157
0.317647 0.266667 0.188235
0.380392 0.270588 0.180392
0.458824 0.274510 0.192157
0.517647 0.274510 0.188235
0.584314 0.278431 0.196078
0.647059 0.278431 0.188235
0.713725 0.282353 0.196078
0.788235 0.282353 0.196078
0.850980 0.282353 0.203922
0.913725 0.282353 0.200000
0.984314 0.290196 0.211765
0.000000 0.325490 0.188235
0.058824 0.329412 0.184314
0.125490 0.333333 0.192157
0.188235 0.337255 0.188235
0.254902 0.329412 0.188235
0.325490 0.341176 0.192157
0.388235 0.341176 0.196078
0.450980 0.341176 0.188235
0.521569 0.341176 0.196078
0.588235 0.345098 0.196078
0.654902 0.352941 0.196078
0.717647 0.349020 0.203922
0.788235 0.345098 0.200000
0.858824 0.352941 0.211765
0.925490 0.352941 0.207843
0.980392 0.352941 0.207843
0.000000 0.396078 0.188235
0.062745 0.400000 0.188235
0.121569 0.400000 0.188235
0.196078 0.407843 0.192157
0.262745 0.403922 0.196078
0.325490 0.403922 0.188235
0.396078 0.403922 0.196078
0.458824 0.411765 0.196078
0.525490 0.407843 0.200000
0.592157 0.411765 0.203922
0.662745 0.407843 0.207843
0.721569 0.415686 0.207843
0.788235 0.423529 0.207843
0.858824 0.415686 0.207843
