public/luts/creator.cube
# Studiio — look « creator », genere par scripts/lut/generer-luts.mjs
# Source : les coefficients de LOOKS_RENDUS, calcules par ffmpeg lui-meme.
# Aucune LUT tierce, aucun telechargement : provenance et licence du depot.
LUT_3D_SIZE 6
DOMAIN_MIN 0.0 0.0 0.0
DOMAIN_MAX 1.0 1.0 1.0
0.000000 0.000000 0.035294
0.152941 0.000000 0.035294
0.423529 0.000000 0.003922
0.682353 0.000000 0.000000
0.949020 0.000000 0.000000
1.000000 0.000000 0.000000
0.000000 0.200000 0.035294
0.152941 0.192157 0.035294
0.415686 0.192157 0.003922
0.682353 0.192157 0.000000
0.941176 0.188235 0.000000
1.000000 0.180392 0.000000
0.000000 0.435294 0.003922
0.180392 0.431373 0.003922
0.407843 0.431373 0.003922
0.670588 0.419608 0.000000
0.929412 0.419608 0.000000
1.000000 0.419608 0.000000
0.023529 0.666667 0.000000
0.188235 0.658824 0.000000
0.427451 0.658824 0.000000
0.662745 0.650980 0.000000
0.929412 0.654902 0.000000
1.000000 0.650980 0.000000
0.047059 0.898039 0.000000
0.207843 0.898039 0.000000
0.450980 0.890196 0.000000
0.682353 0.890196 0.000000
0.921569 0.882353 0.000000
1.000000 0.878431 0.000000
0.047059 1.000000 0.000000
0.211765 1.000000 0.000000
0.439216 1.000000 0.000000
0.674510 1.000000 0.000000
0.913725 1.000000 0.000000
1.000000 1.000000 0.000000
0.000000 0.000000 0.219608
0.156863 0.000000 0.223529
0.419608 0.000000 0.184314
0.690196 0.000000 0.172549
0.945098 0.000000 0.152941
1.000000 0.000000 0.160784
0.000000 0.196078 0.231373
0.172549 0.196078 0.196078
0.423529 0.196078 0.168627
0.705882 0.188235 0.160784
0.933333 0.184314 0.145098
1.000000 0.176471 0.149020
0.000000 0.427451 0.188235
0.196078 0.435294 0.172549
0.431373 0.419608 0.176471
0.694118 0.423529 0.149020
0.933333 0.419608 0.137255
1.000000 0.415686 0.145098
0.023529 0.662745 0.164706
0.207843 0.662745 0.145098
0.454902 0.654902 0.149020
0.686275 0.654902 0.137255
0.933333 0.650980 0.149020
1.000000 0.647059 0.133333
0.047059 0.901961 0.149020
0.215686 0.894118 0.145098
0.443137 0.890196 0.141176
0.678431 0.886275 0.129412
0.917647 0.882353 0.133333
1.000000 0.878431 0.125490
0.047059 1.000000 0.141176
0.203922 1.000000 0.137255
0.435294 1.000000 0.133333
0.678431 1.000000 0.133333
0.909804 1.000000 0.129412
1.000000 1.000000 0.117647
0.000000 0.000000 0.435294
0.184314 0.000000 0.427451
0.427451 0.000000 0.431373
0.686275 0.000000 0.403922
0.937255 0.000000 0.396078
1.000000 0.000000 0.388235
0.000000 0.200000 0.431373
0.192157 0.200000 0.411765
0.431373 0.188235 0.411765
0.698039 0.188235 0.388235
0.941176 0.180392 0.392157
1.000000 0.180392 0.380392
0.000000 0.427451 0.415686
0.196078 0.423529 0.419608
0.462745 0.423529 0.392157
0.690196 0.427451 0.380392
0.937255 0.415686 0.388235
1.000000 0.419608 0.376471
0.023529 0.666667 0.396078
0.219608 0.658824 0.392157
0.450980 0.658824 0.384314
0.690196 0.647059 0.384314
0.925490 0.650980 0.376471
1.000000 0.647059 0.364706
0.047059 0.898039 0.384314
0.207843 0.890196 0.384314
0.439216 0.890196 0.372549
0.682353 0.882353 0.376471
0.913725 0.882353 0.368627
1.000000 0.874510 0.372549
0.047059 1.000000 0.380392
0.200000 1.000000 0.376471
0.443137 1.000000 0.376471
0.674510 1.000000 0.372549
0.905882 1.000000 0.356863
1.000000 1.000000 0.360784
0.023529 0.000000 0.654902
0.215686 0.000000 0.658824
0.447059 0.000000 0.647059
0.678431 0.000000 0.647059
0.945098 0.000000 0.631373
1.000000 0.000000 0.627451
0.023529 0.196078 0.647059
0.231373 0.188235 0.643137
0.462745 0.192157 0.631373
0.705882 0.180392 0.635294
0.937255 0.184314 0.627451
1.000000 0.180392 0.631373
0.023529 0.423529 0.650980
0.227451 0.427451 0.635294
0.458824 0.427451 0.627451
0.701961 0.419608 0.631373
0.925490 0.415686 0.615686
1.000000 0.407843 0.619608
0.023529 0.658824 0.643137
0.207843 0.654902 0.623529
0.454902 0.647059 0.627451
0.686275 0.647059 0.615686
0.917647 0.650980 0.603922
1.000000 0.647059 0.615686
0.047059 0.894118 0.627451
0.203922 0.894118 0.615686
0.447059 0.886275 0.619608
0.678431 0.886275 0.611765
0.921569 0.878431 0.615686
1.000000 0.874510 0.600000
0.047059 1.000000 0.619608
0.207843 1.000000 0.611765
0.439216 1.000000 0.615686
0.666667 1.000000 0.600000
0.909804 1.000000 0.607843
1.000000 1.000000 0.596078
0.047059 0.000000 0.894118
0.235294 0.000000 0.878431
0.466667 0.000000 0.878431
0.709804 0.000000 0.874510
0.941176 0.000000 0.870588
1.000000 0.000000 0.870588
0.047059 0.196078 0.886275
0.227451 0.192157 0.874510
0.466667 0.188235 0.878431
0.701961 0.184314 0.870588
0.929412 0.180392 0.862745
1.000000 0.172549 0.858824
0.047059 0.423529 0.874510
0.211765 0.419608 0.858824
0.462745 0.415686 0.870588
0.694118 0.419608 0.858824
0.937255 0.411765 0.862745
1.000000 0.411765 0.854902
0.047059 0.658824 0.866667
0.211765 0.654902 0.870588
0.450980 0.650980 0.858824
0.682353 0.650980 0.850980
0.925490 0.643137 0.854902
1.000000 0.650980 0.847059
0.047059 0.898039 0.858824
0.211765 0.886275 0.866667
0.443137 0.890196 0.854902
0.682353 0.874510 0.854902
0.913725 0.878431 0.843137
1.000000 0.878431 0.835294
0.047059 1.000000 0.854902
0.200000 1.000000 0.854902
0.431373 1.000000 0.843137
0.674510 1.000000 0.850980
0.905882 1.000000 0.839216
1.000000 1.000000 0.843137
0.047059 0.000000 0.980392
0.231373 0.000000 0.980392
0.470588 0.000000 0.980392
0.705882 0.000000 0.980392
0.937255 0.000000 0.980392
1.000000 0.000000 0.980392
0.047059 0.196078 0.980392
0.223529 0.192157 0.980392
0.470588 0.188235 0.980392
0.694118 0.184314 0.980392
0.937255 0.176471 0.980392
1.000000 0.176471 0.980392
0.047059 0.423529 0.980392
0.215686 0.419608 0.980392
0.458824 0.419608 0.980392
0.694118 0.415686 0.980392
0.933333 0.411765 0.980392
1.000000 0.411765 0.980392
0.047059 0.654902 0.980392
0.215686 0.654902 0.980392
0.447059 0.654902 0.980392
0.686275 0.643137 0.980392
0.917647 0.643137 0.980392
1.000000 0.639216 0.980392
0.047059 0.894118 0.980392
0.203922 0.886275 0.980392
0.439216 0.882353 0.980392
0.678431 0.878431 0.980392
0.909804 0.878431 0.980392
1.000000 0.870588 0.980392
0.047059 1.000000 0.980392
0.196078 1.000000 0.980392
0.439216 1.000000 0.980392
0.670588 1.000000 0.980392
0.913725 1.000000 0.980392
1.000000 1.000000 0.980392
