public/luts/creator.cube
# Studiio — look « creator », genere par scripts/lut/generer-luts.mjs
# Source : les coefficients de LOOKS_RENDUS, calcules par ffmpeg lui-meme.
# Aucune LUT tierce, aucun telechargement : provenance et licence du depot.
LUT_3D_SIZE 16
DOMAIN_MIN 0.0 0.0 0.0
DOMAIN_MAX 1.0 1.0 1.0
0.000000 0.000000 0.035294
0.000000 0.000000 0.035294
0.078431 0.000000 0.035294
0.152941 0.000000 0.035294
0.243137 0.000000 0.027451
0.329412 0.000000 0.015686
0.423529 0.000000 0.003922
0.505882 0.000000 0.000000
0.603922 0.000000 0.000000
0.682353 0.000000 0.000000
0.788235 0.000000 0.000000
0.862745 0.000000 0.000000
0.949020 0.000000 0.000000
1.000000 0.000000 0.000000
1.000000 0.000000 0.000000
1.000000 0.000000 0.000000
0.000000 0.047059 0.035294
0.000000 0.047059 0.035294
0.078431 0.039216 0.035294
0.156863 0.047059 0.035294
0.243137 0.035294 0.027451
0.329412 0.039216 0.015686
0.431373 0.039216 0.003922
0.501961 0.035294 0.000000
0.588235 0.035294 0.000000
0.682353 0.035294 0.000000
0.780392 0.031373 0.000000
0.870588 0.035294 0.000000
0.945098 0.027451 0.000000
1.000000 0.027451 0.000000
1.000000 0.031373 0.000000
1.000000 0.027451 0.000000
0.000000 0.125490 0.035294
0.000000 0.121569 0.035294
0.066667 0.121569 0.035294
0.152941 0.117647 0.035294
0.239216 0.125490 0.027451
0.329412 0.113725 0.015686
0.415686 0.117647 0.003922
0.505882 0.113725 0.000000
0.584314 0.113725 0.000000
0.686275 0.109804 0.000000
0.776471 0.113725 0.000000
0.866667 0.109804 0.000000
0.945098 0.113725 0.000000
1.000000 0.105882 0.000000
1.000000 0.105882 0.000000
1.000000 0.105882 0.000000
0.000000 0.200000 0.035294
0.000000 0.196078 0.035294
0.062745 0.196078 0.035294
0.152941 0.192157 0.035294
0.235294 0.196078 0.027451
0.333333 0.192157 0.015686
0.415686 0.192157 0.003922
0.505882 0.188235 0.000000
0.588235 0.192157 0.000000
0.682353 0.192157 0.000000
0.772549 0.184314 0.000000
0.862745 0.188235 0.000000
0.941176 0.188235 0.000000
1.000000 0.180392 0.000000
1.000000 0.184314 0.000000
1.000000 0.180392 0.000000
0.000000 0.274510 0.027451
0.000000 0.278431 0.023529
0.078431 0.274510 0.027451
0.145098 0.270588 0.027451
0.235294 0.274510 0.027451
0.321569 0.274510 0.015686
0.415686 0.266667 0.003922
0.494118 0.270588 0.000000
0.584314 0.262745 0.000000
0.678431 0.270588 0.000000
0.776471 0.266667 0.000000
0.854902 0.266667 0.000000
0.945098 0.262745 0.000000
1.000000 0.262745 0.000000
1.000000 0.254902 0.000000
1.000000 0.266667 0.000000
0.000000 0.356863 0.015686
0.003922 0.352941 0.015686
0.090196 0.352941 0.015686
0.164706 0.352941 0.015686
0.247059 0.345098 0.015686
0.321569 0.352941 0.015686
0.415686 0.345098 0.003922
0.494118 0.345098 0.000000
0.584314 0.349020 0.000000
0.670588 0.341176 0.000000
0.772549 0.345098 0.000000
0.854902 0.341176 0.000000
0.937255 0.341176 0.000000
1.000000 0.345098 0.000000
1.000000 0.337255 0.000000
1.000000 0.337255 0.000000
0.000000 0.435294 0.003922
0.019608 0.435294 0.003922
0.090196 0.431373 0.003922
0.180392 0.431373 0.003922
0.247059 0.431373 0.003922
0.333333 0.423529 0.003922
0.407843 0.431373 0.003922
0.494118 0.419608 0.000000
0.572549 0.423529 0.000000
0.670588 0.419608 0.000000
0.760784 0.423529 0.000000
0.858824 0.415686 0.000000
0.929412 0.419608 0.000000
1.000000 0.415686 0.000000
1.000000 0.423529 0.000000
1.000000 0.419608 0.000000
0.000000 0.513725 0.000000
0.019608 0.505882 0.000000
0.094118 0.509804 0.000000
0.180392 0.501961 0.000000
0.250980 0.505882 0.000000
0.337255 0.501961 0.000000
0.411765 0.505882 0.000000
0.490196 0.501961 0.000000
0.572549 0.501961 0.000000
0.666667 0.498039 0.000000
0.764706 0.498039 0.000000
0.854902 0.498039 0.000000
0.929412 0.494118 0.000000
1.000000 0.494118 0.000000
1.000000 0.494118 0.000000
1.000000 0.486275 0.000000
0.007843 0.588235 0.000000
0.019608 0.588235 0.000000
0.105882 0.588235 0.000000
0.176471 0.588235 0.000000
0.262745 0.584314 0.000000
0.329412 0.580392 0.000000
0.419608 0.580392 0.000000
0.494118 0.580392 0.000000
0.572549 0.576471 0.000000
0.662745 0.580392 0.000000
0.760784 0.572549 0.000000
0.850980 0.576471 0.000000
0.933333 0.572549 0.000000
1.000000 0.568627 0.000000
1.000000 0.576471 0.000000
1.000000 0.568627 0.000000
0.023529 0.666667 0.000000
0.035294 0.666667 0.000000
0.121569 0.662745 0.000000
0.188235 0.658824 0.000000
0.278431 0.662745 0.000000
0.352941 0.662745 0.000000
0.427451 0.658824 0.000000
0.509804 0.658824 0.000000
0.584314 0.654902 0.000000
0.662745 0.650980 0.000000
0.760784 0.658824 0.000000
0.847059 0.650980 0.000000
0.929412 0.654902 0.000000
1.000000 0.647059 0.000000
1.000000 0.647059 0.000000
1.000000 0.650980 0.000000
0.039216 0.749020 0.000000
0.050980 0.741176 0.000000
0.121569 0.741176 0.000000
0.211765 0.741176 0.000000
0.278431 0.741176 0.000000
0.368627 0.737255 0.000000
0.439216 0.737255 0.000000
0.525490 0.733333 0.000000
0.600000 0.741176 0.000000
0.678431 0.729412 0.000000
0.756863 0.733333 0.000000
0.847059 0.725490 0.000000
0.921569 0.729412 0.000000
1.000000 0.725490 0.000000
1.000000 0.729412 0.000000
1.000000 0.725490 0.000000
0.047059 0.819608 0.000000
0.062745 0.819608 0.000000
0.133333 0.819608 0.000000
0.215686 0.815686 0.000000
0.290196 0.815686 0.000000
0.376471 0.811765 0.000000
0.447059 0.815686 0.000000
0.529412 0.811765 0.000000
0.607843 0.811765 0.000000
0.686275 0.811765 0.000000
0.764706 0.811765 0.000000
0.843137 0.807843 0.000000
0.921569 0.807843 0.000000
1.000000 0.803922 0.000000
1.000000 0.800000 0.000000
1.000000 0.803922 0.000000
0.047059 0.898039 0.000000
0.047059 0.901961 0.000000
0.133333 0.894118 0.000000
0.207843 0.898039 0.000000
0.290196 0.894118 0.000000
0.364706 0.894118 0.000000
0.450980 0.890196 0.000000
0.517647 0.890196 0.000000
0.607843 0.890196 0.000000
0.682353 0.890196 0.000000
0.768627 0.886275 0.000000
0.839216 0.886275 0.000000
0.921569 0.882353 0.000000
1.000000 0.886275 0.000000
1.000000 0.886275 0.000000
1.000000 0.878431 0.000000
0.047059 0.972549 0.000000
0.050980 0.976471 0.000000
0.137255 0.972549 0.000000
0.207843 0.976471 0.000000
0.294118 0.972549 0.000000
0.360784 0.968627 0.000000
0.447059 0.972549 0.000000
0.525490 0.968627 0.000000
0.600000 0.964706 0.000000
0.682353 0.968627 0.000000
0.756863 0.960784 0.000000
0.835294 0.960784 0.000000
0.921569 0.964706 0.000000
0.996078 0.956863 0.000000
1.000000 0.964706 0.000000
1.000000 0.956863 0.000000
0.047059 1.000000 0.000000
0.047059 1.000000 0.000000
0.125490 1.000000 0.000000
0.203922 1.000000 0.000000
0.278431 1.000000 0.000000
0.368627 1.000000 0.000000
0.435294 1.000000 0.000000
0.525490 1.000000 0.000000
0.596078 1.000000 0.000000
0.682353 1.000000 0.000000
0.756863 1.000000 0.000000
0.839216 1.000000 0.000000
0.913725 1.000000 0.000000
0.992157 1.000000 0.000000
1.000000 1.000000 0.000000
1.000000 1.000000 0.000000
0.047059 1.000000 0.000000
0.050980 1.000000 0.000000
0.121569 1.000000 0.000000
0.211765 1.000000 0.000000
0.278431 1.000000 0.000000
0.360784 1.000000 0.000000
0.439216 1.000000 0.000000
0.517647 1.000000 0.000000
0.596078 1.000000 0.000000
0.674510 1.000000 0.000000
0.756863 1.000000 0.000000
0.835294 1.000000 0.000000
0.913725 1.000000 0.000000
0.992157 1.000000 0.000000
1.000000 1.000000 0.000000
1.000000 1.000000 0.000000
0.000000 0.000000 0.062745
0.000000 0.000000 0.070588
0.078431 0.000000 0.058824
0.156863 0.000000 0.066667
0.243137 0.000000 0.047059
0.329412 0.000000 0.043137
0.431373 0.000000 0.027451
0.501961 0.000000 0.023529
0.603922 0.000000 0.015686
0.686275 0.000000 0.011765
0.780392 0.000000 0.000000
0.870588 0.000000 0.007843
0.945098 0.000000 0.000000
1.000000 0.000000 0.000000
1.000000 0.000000 0.000000
1.000000 0.000000 0.000000
0.000000 0.039216 0.074510
0.000000 0.047059 0.066667
0.066667 0.043137 0.054902
0.152941 0.039216 0.062745
0.243137 0.047059 0.047059
0.333333 0.035294 0.035294
0.415686 0.039216 0.019608
0.505882 0.035294 0.023529
0.588235 0.035294 0.011765
0.698039 0.035294 0.015686
0.776471 0.035294 0.000000
0.870588 0.027451 0.000000
0.945098 0.035294 0.000000
1.000000 0.027451 0.000000
1.000000 0.031373 0.000000
1.000000 0.023529 0.000000
0.000000 0.121569 0.070588
0.000000 0.117647 0.062745
0.074510 0.121569 0.074510
0.156863 0.117647 0.058824
0.239216 0.117647 0.039216
0.337255 0.113725 0.035294
0.419608 0.117647 0.019608
0.505882 0.109804 0.019608
0.592157 0.113725 0.007843
0.686275 0.109804 0.007843
0.772549 0.105882 0.000000
0.862745 0.109804 0.000000
0.945098 0.109804 0.000000
1.000000 0.105882 0.000000
1.000000 0.105882 0.000000
1.000000 0.098039 0.000000
0.000000 0.200000 0.070588
0.000000 0.203922 0.054902
0.074510 0.196078 0.062745
0.141176 0.196078 0.054902
0.243137 0.192157 0.054902
0.321569 0.196078 0.035294
0.423529 0.192157 0.027451
0.498039 0.196078 0.019608
0.584314 0.188235 0.003922
0.682353 0.192157 0.007843
0.780392 0.188235 0.000000
0.854902 0.184314 0.000000
0.945098 0.188235 0.000000
1.000000 0.184314 0.000000
1.000000 0.180392 0.000000
1.000000 0.184314 0.000000
0.000000 0.274510 0.058824
0.000000 0.274510 0.043137
0.090196 0.274510 0.050980
0.156863 0.278431 0.043137
0.239216 0.266667 0.047059
0.329412 0.274510 0.031373
0.415686 0.262745 0.027451
0.498039 0.270588 0.019608
0.596078 0.266667 0.019608
0.674510 0.262745 0.000000
0.776471 0.270588 0.000000
0.858824 0.262745 0.000000
0.937255 0.262745 0.000000
1.000000 0.262745 0.000000
1.000000 0.258824 0.000000
1.000000 0.258824 0.000000
0.000000 0.352941 0.047059
0.011765 0.356863 0.031373
0.082353 0.352941 0.035294
0.172549 0.352941 0.031373
0.239216 0.349020 0.035294
0.321569 0.345098 0.027451
0.411765 0.352941 0.027451
0.494118 0.345098 0.011765
0.576471 0.345098 0.015686
0.678431 0.341176 0.000000
0.764706 0.341176 0.000000
0.862745 0.345098 0.000000
0.933333 0.341176 0.000000
1.000000 0.337255 0.000000
1.000000 0.345098 0.000000
1.000000 0.333333 0.000000
0.000000 0.431373 0.027451
0.019608 0.427451 0.019608
0.094118 0.431373 0.023529
0.176471 0.427451 0.015686
0.258824 0.431373 0.023529
0.333333 0.423529 0.015686
0.407843 0.423529 0.023529
0.498039 0.419608 0.007843
0.576471 0.423529 0.011765
0.674510 0.423529 0.000000
0.768627 0.419608 0.000000
0.854902 0.419608 0.000000
0.929412 0.411765 0.000000
1.000000 0.415686 0.000000
1.000000 0.415686 0.000000
1.000000 0.415686 0.000000
0.000000 0.509804 0.023529
0.011765 0.513725 0.011765
0.098039 0.505882 0.019608
0.168627 0.509804 0.011765
0.254902 0.505882 0.019608
0.325490 0.501961 0.003922
0.415686 0.501961 0.015686
0.486275 0.505882 0.007843
0.580392 0.498039 0.011765
0.662745 0.501961 0.000000
0.764706 0.490196 0.000000
0.850980 0.501961 0.000000
0.937255 0.494118 0.000000
1.000000 0.494118 0.000000
1.000000 0.490196 0.000000
1.000000 0.494118 0.000000
0.007843 0.588235 0.015686
0.023529 0.588235 0.007843
0.109804 0.584314 0.015686
0.176471 0.584314 0.000000
0.270588 0.580392 0.011765
0.341176 0.584314 0.003922
0.419608 0.572549 0.007843
0.498039 0.580392 0.003922
0.572549 0.576471 0.003922
0.666667 0.580392 0.000000
0.764706 0.576471 0.000000
0.847059 0.572549 0.000000
0.933333 0.572549 0.000000
1.000000 0.576471 0.000000
1.000000 0.568627 0.000000
1.000000 0.572549 0.000000
0.023529 0.670588 0.007843
0.035294 0.662745 0.000000
0.117647 0.666667 0.003922
0.196078 0.662745 0.000000
0.266667 0.658824 0.000000
0.356863 0.662745 0.000000
0.423529 0.658824 0.000000
0.509804 0.654902 0.000000
0.588235 0.658824 0.000000
0.662745 0.650980 0.000000
0.752941 0.650980 0.000000
0.854902 0.654902 0.000000
0.921569 0.650980 0.000000
1.000000 0.650980 0.000000
1.000000 0.647059 0.000000
1.000000 0.647059 0.000000
0.039216 0.741176 0.000000
0.058824 0.741176 0.000000
0.129412 0.741176 0.000000
0.211765 0.737255 0.000000
0.282353 0.737255 0.000000
0.368627 0.733333 0.000000
0.450980 0.741176 0.000000
0.521569 0.737255 0.000000
0.600000 0.733333 0.000000
0.682353 0.737255 0.000000
0.756863 0.729412 0.000000
0.847059 0.729412 0.000000
0.925490 0.729412 0.000000
1.000000 0.729412 0.000000
1.000000 0.721569 0.000000
1.000000 0.725490 0.000000
0.047059 0.819608 0.000000
0.050980 0.823529 0.000000
0.133333 0.815686 0.000000
0.207843 0.819608 0.000000
0.294118 0.815686 0.000000
0.364706 0.819608 0.000000
0.450980 0.811765 0.000000
0.517647 0.811765 0.000000
0.607843 0.807843 0.000000
0.682353 0.811765 0.000000
0.768627 0.807843 0.000000
0.839216 0.811765 0.000000
0.921569 0.800000 0.000000
1.000000 0.807843 0.000000
1.000000 0.803922 0.000000
1.000000 0.800000 0.000000
0.047059 0.898039 0.000000
0.050980 0.898039 0.000000
0.137255 0.894118 0.000000
0.207843 0.898039 0.000000
0.294118 0.890196 0.000000
0.364706 0.890196 0.000000
0.454902 0.890196 0.000000
0.525490 0.894118 0.000000
0.600000 0.886275 0.000000
0.682353 0.890196 0.000000
0.760784 0.882353 0.000000
0.843137 0.886275 0.000000
0.921569 0.886275 0.000000
0.996078 0.882353 0.000000
1.000000 0.882353 0.000000
1.000000 0.882353 0.000000
0.047059 0.980392 0.000000
0.047059 0.972549 0.000000
0.125490 0.976471 0.000000
0.207843 0.968627 0.000000
0.282353 0.976471 0.000000
0.368627 0.972549 0.000000
0.439216 0.968627 0.000000
0.529412 0.968627 0.000000
0.596078 0.964706 0.000000
0.682353 0.964706 0.000000
0.760784 0.968627 0.000000
0.839216 0.960784 0.000000
0.913725 0.960784 0.000000
1.000000 0.960784 0.000000
1.000000 0.956863 0.000000
1.000000 0.964706 0.000000
0.047059 1.000000 0.000000
0.050980 1.000000 0.000000
0.121569 1.000000 0.000000
0.211765 1.000000 0.000000
0.282353 1.000000 0.000000
0.368627 1.000000 0.000000
0.439216 1.000000 0.000000
0.517647 1.000000 0.000000
0.603922 1.000000 0.000000
0.678431 1.000000 0.000000
0.756863 1.000000 0.000000
0.839216 1.000000 0.000000
0.913725 1.000000 0.000000
0.992157 1.000000 0.000000
1.000000 1.000000 0.000000
1.000000 1.000000 0.000000
0.047059 1.000000 0.000000
0.047059 1.000000 0.000000
0.125490 1.000000 0.000000
0.196078 1.000000 0.000000
0.282353 1.000000 0.000000
0.356863 1.000000 0.000000
0.443137 1.000000 0.000000
0.513725 1.000000 0.000000
0.600000 1.000000 0.000000
0.678431 1.000000 0.000000
0.756863 1.000000 0.000000
0.831373 1.000000 0.000000
0.917647 1.000000 0.000000
0.988235 1.000000 0.000000
1.000000 1.000000 0.000000
1.000000 1.000000 0.000000
0.000000 0.000000 0.145098
0.000000 0.000000 0.141176
0.082353 0.000000 0.145098
0.152941 0.000000 0.137255
0.239216 0.000000 0.141176
0.333333 0.000000 0.113725
0.419608 0.000000 0.113725
0.505882 0.000000 0.098039
0.588235 0.000000 0.101961
0.694118 0.000000 0.090196
0.776471 0.000000 0.086275
0.870588 0.000000 0.074510
0.949020 0.000000 0.086275
1.000000 0.000000 0.070588
1.000000 0.000000 0.078431
1.000000 0.000000 0.070588
0.000000 0.043137 0.145098
0.000000 0.043137 0.137255
0.074510 0.047059 0.149020
0.160784 0.039216 0.129412
0.239216 0.039216 0.129412
0.337255 0.035294 0.109804
0.423529 0.035294 0.105882
0.509804 0.035294 0.094118
0.596078 0.035294 0.094118
0.698039 0.031373 0.082353
0.792157 0.035294 0.086275
0.866667 0.031373 0.070588
0.945098 0.027451 0.078431
1.000000 0.031373 0.070588
1.000000 0.027451 0.078431
1.000000 0.027451 0.070588
0.000000 0.121569 0.145098
0.000000 0.113725 0.149020
0.078431 0.117647 0.137255
0.156863 0.121569 0.121569
0.254902 0.117647 0.117647
0.333333 0.121569 0.098039
0.423529 0.113725 0.101961
0.509804 0.117647 0.090196
0.603922 0.105882 0.086275
0.694118 0.113725 0.074510
0.788235 0.109804 0.078431
0.854902 0.105882 0.066667
0.945098 0.105882 0.078431
1.000000 0.109804 0.070588
1.000000 0.101961 0.074510
1.000000 0.105882 0.066667
0.000000 0.200000 0.141176
0.000000 0.196078 0.145098
0.086275 0.196078 0.129412
0.164706 0.196078 0.129412
0.254902 0.192157 0.113725
0.337255 0.196078 0.098039
0.423529 0.188235 0.098039
0.505882 0.196078 0.086275
0.611765 0.188235 0.086275
0.694118 0.188235 0.070588
0.784314 0.188235 0.078431
0.862745 0.188235 0.070588
0.937255 0.180392 0.070588
1.000000 0.188235 0.066667
1.000000 0.180392 0.070588
1.000000 0.184314 0.066667
0.000000 0.274510 0.133333
0.003922 0.274510 0.133333
0.082353 0.274510 0.109804
0.172549 0.274510 0.121569
0.239216 0.274510 0.109804
0.333333 0.266667 0.105882
0.415686 0.274510 0.098039
0.509804 0.262745 0.098039
0.596078 0.270588 0.086275
0.698039 0.270588 0.074510
0.776471 0.266667 0.070588
0.866667 0.266667 0.066667
0.933333 0.262745 0.070588
1.000000 0.258824 0.058824
1.000000 0.262745 0.070588
1.000000 0.258824 0.058824
0.000000 0.352941 0.113725
0.015686 0.352941 0.121569
0.098039 0.352941 0.098039
0.180392 0.345098 0.101961
0.258824 0.352941 0.098039
0.341176 0.345098 0.101961
0.411765 0.349020 0.094118
0.513725 0.345098 0.101961
0.596078 0.345098 0.078431
0.698039 0.337255 0.078431
0.776471 0.341176 0.070588
0.854902 0.341176 0.058824
0.941176 0.345098 0.070588
1.000000 0.341176 0.058824
1.000000 0.337255 0.066667
1.000000 0.337255 0.058824
0.000000 0.431373 0.101961
0.023529 0.427451 0.101961
0.098039 0.431373 0.094118
0.172549 0.431373 0.101961
0.254902 0.427451 0.094118
0.333333 0.431373 0.105882
0.415686 0.423529 0.090196
0.494118 0.423529 0.094118
0.596078 0.423529 0.078431
0.686275 0.423529 0.082353
0.772549 0.415686 0.062745
0.850980 0.419608 0.074510
0.937255 0.415686 0.066667
1.000000 0.419608 0.058824
1.000000 0.415686 0.062745
1.000000 0.419608 0.054902
0.000000 0.509804 0.094118
0.015686 0.509804 0.101961
0.113725 0.505882 0.090196
0.180392 0.501961 0.090196
0.270588 0.505882 0.086275
0.341176 0.505882 0.094118
0.427451 0.501961 0.086275
0.501961 0.501961 0.094118
0.588235 0.494118 0.074510
0.686275 0.498039 0.078431
0.772549 0.498039 0.066667
0.847059 0.494118 0.066667
0.933333 0.498039 0.062745
1.000000 0.494118 0.070588
1.000000 0.490196 0.058824
1.000000 0.494118 0.054902
0.007843 0.588235 0.090196
0.023529 0.580392 0.090196
0.117647 0.592157 0.078431
0.203922 0.584314 0.086275
0.266667 0.584314 0.074510
0.360784 0.580392 0.086275
0.423529 0.580392 0.070588
0.509804 0.576471 0.078431
0.588235 0.584314 0.074510
0.686275 0.572549 0.070588
0.768627 0.580392 0.062745
0.854902 0.572549 0.070588
0.925490 0.572549 0.058824
1.000000 0.572549 0.070588
1.000000 0.572549 0.054902
1.000000 0.564706 0.062745
0.023529 0.666667 0.074510
0.047059 0.662745 0.086275
0.125490 0.662745 0.070588
0.219608 0.662745 0.078431
0.282353 0.658824 0.066667
0.368627 0.654902 0.074510
0.447059 0.662745 0.070588
0.529412 0.650980 0.070588
0.600000 0.654902 0.062745
0.686275 0.658824 0.074510
0.768627 0.650980 0.058824
0.847059 0.650980 0.066667
0.925490 0.650980 0.054902
1.000000 0.647059 0.062745
1.000000 0.650980 0.058824
1.000000 0.643137 0.062745
0.039216 0.741176 0.078431
0.043137 0.741176 0.074510
0.137255 0.741176 0.062745
0.207843 0.741176 0.070588
0.294118 0.737255 0.062745
0.368627 0.737255 0.066667
0.450980 0.733333 0.058824
0.529412 0.741176 0.070588
0.611765 0.733333 0.058824
0.682353 0.733333 0.066667
0.768627 0.729412 0.054902
0.843137 0.729412 0.062745
0.921569 0.721569 0.050980
1.000000 0.729412 0.062745
1.000000 0.725490 0.050980
1.000000 0.725490 0.058824
0.047059 0.819608 0.070588
0.050980 0.819608 0.070588
0.137255 0.815686 0.070588
0.211765 0.819608 0.066667
0.294118 0.815686 0.058824
0.364706 0.811765 0.062745
0.454902 0.811765 0.058824
0.525490 0.811765 0.066667
0.607843 0.811765 0.054902
0.686275 0.811765 0.062745
0.760784 0.807843 0.050980
0.843137 0.807843 0.062745
0.921569 0.807843 0.050980
0.996078 0.800000 0.054902
1.000000 0.803922 0.050980
1.000000 0.803922 0.058824
0.047059 0.894118 0.070588
0.054902 0.898039 0.066667
0.125490 0.898039 0.066667
0.207843 0.890196 0.062745
0.286275 0.898039 0.066667
0.368627 0.894118 0.066667
0.439216 0.890196 0.050980
0.529412 0.890196 0.062745
0.596078 0.890196 0.050980
0.682353 0.882353 0.054902
0.760784 0.890196 0.050980
0.839216 0.878431 0.054902
0.917647 0.890196 0.050980
1.000000 0.882353 0.058824
1.000000 0.882353 0.043137
1.000000 0.882353 0.054902
0.047059 0.980392 0.066667
0.050980 0.968627 0.062745
0.125490 0.972549 0.062745
0.215686 0.972549 0.066667
0.282353 0.968627 0.058824
0.372549 0.968627 0.062745
0.439216 0.968627 0.058824
0.525490 0.960784 0.054902
0.603922 0.968627 0.050980
0.678431 0.964706 0.054902
0.756863 0.964706 0.047059
0.839216 0.964706 0.058824
0.917647 0.960784 0.043137
0.996078 0.956863 0.050980
1.000000 0.956863 0.043137
1.000000 0.956863 0.050980
0.047059 1.000000 0.062745
0.047059 1.000000 0.066667
0.125490 1.000000 0.058824
0.200000 1.000000 0.058824
0.282353 1.000000 0.058824
0.356863 1.000000 0.054902
0.447059 1.000000 0.058824
0.513725 1.000000 0.054902
0.600000 1.000000 0.054902
0.678431 1.000000 0.058824
0.760784 1.000000 0.043137
0.831373 1.000000 0.050980
0.917647 1.000000 0.043137
0.992157 1.000000 0.050980
1.000000 1.000000 0.035294
1.000000 1.000000 0.047059
0.047059 1.000000 0.058824
0.047059 1.000000 0.058824
0.129412 1.000000 0.058824
0.200000 1.000000 0.054902
0.286275 1.000000 0.054902
0.360784 1.000000 0.054902
0.443137 1.000000 0.054902
0.513725 1.000000 0.047059
0.596078 1.000000 0.050980
0.674510 1.000000 0.050980
0.752941 1.000000 0.050980
0.835294 1.000000 0.050980
0.909804 1.000000 0.043137
0.992157 1.000000 0.047059
1.000000 1.000000 0.039216
1.000000 1.000000 0.043137
0.000000 0.000000 0.219608
0.000000 0.000000 0.227451
0.074510 0.000000 0.223529
0.156863 0.000000 0.223529
0.239216 0.000000 0.207843
0.341176 0.000000 0.207843
0.419608 0.000000 0.184314
0.513725 0.000000 0.192157
0.588235 0.000000 0.172549
0.690196 0.000000 0.172549
0.784314 0.000000 0.164706
0.874510 0.000000 0.160784
0.945098 0.000000 0.152941
1.000000 0.000000 0.160784
1.000000 0.000000 0.152941
1.000000 0.000000 0.160784
0.000000 0.047059 0.223529
0.003922 0.039216 0.219608
0.078431 0.043137 0.211765
0.168627 0.039216 0.223529
0.247059 0.039216 0.200000
0.329412 0.039216 0.196078
0.427451 0.035294 0.176471
0.498039 0.035294 0.184314
0.592157 0.031373 0.164706
0.682353 0.035294 0.168627
0.788235 0.031373 0.152941
0.862745 0.031373 0.160784
0.949020 0.027451 0.152941
1.000000 0.031373 0.160784
1.000000 0.027451 0.149020
1.000000 0.027451 0.156863
0.000000 0.117647 0.231373
0.000000 0.125490 0.223529
0.086275 0.117647 0.203922
0.160784 0.117647 0.207843
0.262745 0.117647 0.184314
0.341176 0.117647 0.184314
0.423529 0.109804 0.168627
0.517647 0.113725 0.172549
0.615686 0.109804 0.160784
0.698039 0.105882 0.156863
0.792157 0.109804 0.152941
0.862745 0.109804 0.160784
0.945098 0.109804 0.149020
1.000000 0.105882 0.156863
1.000000 0.101961 0.145098
1.000000 0.105882 0.156863
0.000000 0.196078 0.231373
0.000000 0.200000 0.215686
0.086275 0.188235 0.211765
0.172549 0.196078 0.196078
0.250980 0.196078 0.172549
0.345098 0.192157 0.180392
0.423529 0.196078 0.168627
0.525490 0.188235 0.164706
0.615686 0.196078 0.156863
0.705882 0.188235 0.160784
0.776471 0.188235 0.145098
0.866667 0.188235 0.156863
0.933333 0.184314 0.145098
1.000000 0.180392 0.149020
1.000000 0.188235 0.145098
1.000000 0.176471 0.149020
0.000000 0.274510 0.215686
0.003922 0.274510 0.207843
0.086275 0.270588 0.200000
0.184314 0.270588 0.176471
0.258824 0.274510 0.188235
0.341176 0.266667 0.176471
0.423529 0.270588 0.164706
0.533333 0.270588 0.168627
0.611765 0.266667 0.149020
0.709804 0.266667 0.156863
0.776471 0.266667 0.145098
0.858824 0.262745 0.149020
0.941176 0.266667 0.145098
1.000000 0.258824 0.149020
1.000000 0.258824 0.141176
1.000000 0.258824 0.149020
0.000000 0.352941 0.203922
0.015686 0.349020 0.188235
0.101961 0.352941 0.188235
0.172549 0.352941 0.176471
0.258824 0.345098 0.184314
0.333333 0.352941 0.180392
0.427451 0.345098 0.176471
0.513725 0.349020 0.160784
0.615686 0.341176 0.160784
0.694118 0.345098 0.149020
0.784314 0.345098 0.145098
0.850980 0.341176 0.149020
0.937255 0.341176 0.141176
1.000000 0.341176 0.149020
1.000000 0.337255 0.137255
1.000000 0.337255 0.145098
0.000000 0.427451 0.188235
0.015686 0.431373 0.176471
0.101961 0.427451 0.184314
0.196078 0.435294 0.172549
0.270588 0.423529 0.176471
0.345098 0.427451 0.168627
0.431373 0.419608 0.176471
0.513725 0.423529 0.156863
0.611765 0.415686 0.156863
0.694118 0.423529 0.149020
0.780392 0.415686 0.156863
0.850980 0.415686 0.141176
0.933333 0.419608 0.137255
1.000000 0.415686 0.145098
