public/luts/desature.cube
# Studiio — look « desature », genere par scripts/lut/generer-luts.mjs
# Source : les coefficients de LOOKS_RENDUS, calcules par ffmpeg lui-meme.
# Aucune LUT tierce, aucun telechargement : provenance et licence du depot.
LUT_3D_SIZE 16
DOMAIN_MIN 0.0 0.0 0.0
DOMAIN_MAX 1.0 1.0 1.0
0.000000 0.000000 0.000000
0.003922 0.000000 0.000000
0.054902 0.000000 0.000000
0.098039 0.000000 0.000000
0.141176 0.007843 0.000000
0.192157 0.023529 0.007843
0.243137 0.027451 0.019608
0.282353 0.043137 0.027451
0.337255 0.054902 0.043137
0.380392 0.062745 0.043137
0.427451 0.074510 0.058824
0.470588 0.082353 0.062745
0.521569 0.094118 0.078431
0.568627 0.105882 0.090196
0.615686 0.109804 0.101961
0.654902 0.121569 0.105882
0.000000 0.027451 0.000000
0.019608 0.039216 0.000000
0.070588 0.043137 0.000000
0.121569 0.058824 0.007843
0.164706 0.066667 0.019608
0.207843 0.074510 0.023529
0.262745 0.090196 0.043137
0.305882 0.101961 0.043137
0.349020 0.105882 0.054902
0.396078 0.121569 0.062745
0.443137 0.133333 0.078431
0.498039 0.141176 0.090196
0.541176 0.149020 0.101961
0.584314 0.156863 0.105882
0.639216 0.172549 0.125490
0.682353 0.180392 0.125490
0.000000 0.082353 0.000000
0.047059 0.098039 0.007843
0.090196 0.105882 0.019608
0.133333 0.113725 0.031373
0.188235 0.129412 0.043137
0.235294 0.133333 0.050980
0.274510 0.145098 0.054902
0.329412 0.156863 0.062745
0.376471 0.168627 0.078431
0.419608 0.172549 0.086275
0.466667 0.184314 0.101961
0.509804 0.196078 0.105882
0.560784 0.211765 0.125490
0.611765 0.215686 0.125490
0.650980 0.227451 0.137255
0.698039 0.239216 0.145098
0.015686 0.145098 0.019608
0.066667 0.149020 0.031373
0.109804 0.156863 0.031373
0.160784 0.172549 0.050980
0.203922 0.180392 0.054902
0.250980 0.192157 0.070588
0.301961 0.203922 0.078431
0.349020 0.207843 0.086275
0.392157 0.223529 0.101961
0.435294 0.231373 0.105882
0.490196 0.239216 0.117647
0.537255 0.254902 0.125490
0.580392 0.262745 0.137255
0.623529 0.270588 0.141176
0.674510 0.286275 0.156863
0.717647 0.294118 0.168627
0.035294 0.192157 0.031373
0.086275 0.211765 0.050980
0.129412 0.219608 0.054902
0.172549 0.227451 0.066667
0.231373 0.239216 0.078431
0.270588 0.250980 0.086275
0.317647 0.254902 0.098039
0.364706 0.266667 0.113725
0.415686 0.278431 0.117647
0.462745 0.290196 0.133333
0.505882 0.298039 0.137255
0.549020 0.309804 0.141176
0.607843 0.321569 0.156863
0.643137 0.329412 0.168627
0.694118 0.333333 0.180392
0.741176 0.349020 0.188235
0.062745 0.254902 0.054902
0.105882 0.262745 0.066667
0.156863 0.278431 0.078431
0.200000 0.286275 0.086275
0.243137 0.294118 0.098039
0.290196 0.305882 0.113725
0.345098 0.313725 0.117647
0.380392 0.325490 0.129412
0.431373 0.337255 0.137255
0.478431 0.341176 0.149020
0.533333 0.360784 0.156863
0.576471 0.364706 0.168627
0.619608 0.372549 0.180392
0.666667 0.388235 0.188235
0.713725 0.400000 0.200000
0.756863 0.407843 0.203922
0.078431 0.313725 0.070588
0.125490 0.325490 0.086275
0.168627 0.329412 0.098039
0.223529 0.341176 0.113725
0.262745 0.356863 0.117647
0.313725 0.360784 0.129412
0.360784 0.372549 0.137255
0.403922 0.380392 0.149020
0.450980 0.392157 0.152941
0.501961 0.403922 0.168627
0.545098 0.411765 0.180392
0.592157 0.415686 0.188235
0.639216 0.435294 0.200000
0.690196 0.439216 0.211765
0.737255 0.454902 0.219608
0.780392 0.462745 0.219608
0.098039 0.364706 0.098039
0.141176 0.372549 0.109804
0.196078 0.392157 0.117647
0.239216 0.396078 0.129412
0.282353 0.407843 0.133333
0.337255 0.415686 0.149020
0.376471 0.431373 0.152941
0.423529 0.443137 0.168627
0.474510 0.447059 0.180392
0.517647 0.454902 0.188235
0.568627 0.470588 0.200000
0.615686 0.478431 0.211765
0.658824 0.486275 0.215686
0.705882 0.498039 0.227451
0.752941 0.513725 0.235294
0.796078 0.517647 0.247059
0.121569 0.427451 0.117647
0.164706 0.435294 0.129412
0.211765 0.443137 0.133333
0.254902 0.454902 0.149020
0.309804 0.466667 0.152941
0.352941 0.474510 0.164706
0.400000 0.486275 0.180392
0.443137 0.490196 0.188235
0.490196 0.505882 0.196078
0.537255 0.517647 0.211765
0.588235 0.521569 0.215686
0.631373 0.537255 0.227451
0.682353 0.545098 0.235294
0.725490 0.552941 0.247059
0.776471 0.564706 0.262745
0.819608 0.572549 0.270588
0.137255 0.478431 0.141176
0.184314 0.490196 0.149020
0.235294 0.505882 0.152941
0.278431 0.509804 0.164706
0.329412 0.521569 0.180392
0.368627 0.529412 0.188235
0.415686 0.545098 0.196078
0.470588 0.552941 0.211765
0.513725 0.560784 0.215686
0.556863 0.568627 0.223529
0.607843 0.584314 0.235294
0.650980 0.592157 0.247059
0.701961 0.603922 0.262745
0.745098 0.611765 0.270588
0.792157 0.623529 0.278431
0.847059 0.631373 0.294118
0.156863 0.541176 0.160784
0.207843 0.545098 0.164706
0.243137 0.556863 0.176471
0.298039 0.564706 0.188235
0.345098 0.580392 0.196078
0.396078 0.588235 0.211765
0.439216 0.600000 0.215686
0.482353 0.603922 0.223529
0.533333 0.623529 0.235294
0.584314 0.627451 0.247059
0.619608 0.639216 0.254902
0.674510 0.647059 0.270588
0.721569 0.658824 0.278431
0.764706 0.666667 0.290196
0.811765 0.678431 0.298039
0.854902 0.686275 0.305882
0.176471 0.592157 0.176471
0.223529 0.603922 0.188235
0.270588 0.615686 0.196078
0.321569 0.619608 0.207843
0.364706 0.635294 0.223529
0.411765 0.639216 0.223529
0.458824 0.654902 0.231373
0.509804 0.666667 0.247059
0.552941 0.674510 0.254902
0.600000 0.686275 0.270588
0.647059 0.698039 0.278431
0.690196 0.705882 0.290196
0.737255 0.717647 0.298039
0.780392 0.725490 0.305882
0.835294 0.733333 0.313725
0.882353 0.745098 0.329412
0.203922 0.650980 0.196078
0.239216 0.662745 0.207843
0.294118 0.670588 0.223529
0.337255 0.678431 0.223529
0.384314 0.690196 0.239216
0.431373 0.705882 0.247059
0.474510 0.709804 0.254902
0.521569 0.717647 0.266667
0.576471 0.733333 0.278431
0.615686 0.741176 0.290196
0.670588 0.752941 0.298039
0.713725 0.760784 0.305882
0.760784 0.772549 0.313725
0.807843 0.784314 0.329412
0.850980 0.792157 0.337255
0.898039 0.803922 0.352941
0.215686 0.705882 0.215686
0.262745 0.717647 0.223529
0.317647 0.725490 0.239216
0.356863 0.741176 0.247059
0.407843 0.745098 0.254902
0.450980 0.752941 0.266667
0.501961 0.772549 0.278431
0.545098 0.776471 0.290196
0.588235 0.784314 0.298039
0.639216 0.800000 0.305882
0.686275 0.807843 0.321569
0.729412 0.819608 0.325490
0.776471 0.831373 0.337255
0.831373 0.839216 0.352941
0.878431 0.850980 0.360784
0.921569 0.858824 0.372549
0.235294 0.768627 0.239216
0.286275 0.772549 0.243137
0.333333 0.784314 0.254902
0.376471 0.792157 0.266667
0.423529 0.803922 0.274510
0.470588 0.815686 0.290196
0.513725 0.823529 0.298039
0.568627 0.831373 0.305882
0.611765 0.847059 0.321569
0.658824 0.854902 0.325490
0.709804 0.866667 0.337255
0.756863 0.878431 0.352941
0.800000 0.886275 0.356863
0.847059 0.898039 0.372549
0.890196 0.905882 0.372549
0.937255 0.917647 0.388235
0.258824 0.823529 0.254902
0.305882 0.827451 0.266667
0.349020 0.843137 0.274510
0.403922 0.850980 0.290196
0.447059 0.858824 0.298039
0.490196 0.866667 0.301961
0.541176 0.882353 0.321569
0.584314 0.890196 0.325490
0.627451 0.898039 0.333333
0.682353 0.913725 0.352941
0.725490 0.921569 0.356863
0.772549 0.933333 0.372549
0.819608 0.937255 0.380392
0.870588 0.952941 0.388235
0.917647 0.964706 0.403922
0.960784 0.972549 0.403922
0.000000 0.000000 0.000000
0.007843 0.000000 0.011765
0.058824 0.000000 0.011765
0.098039 0.007843 0.027451
0.152941 0.015686 0.035294
0.196078 0.023529 0.047059
0.243137 0.035294 0.054902
0.286275 0.043137 0.062745
0.341176 0.058824 0.082353
0.384314 0.066667 0.094118
0.427451 0.074510 0.094118
0.474510 0.086275 0.109804
0.521569 0.098039 0.117647
0.572549 0.101961 0.129412
0.619608 0.117647 0.133333
0.662745 0.125490 0.145098
0.000000 0.027451 0.023529
0.031373 0.043137 0.027451
0.078431 0.054902 0.035294
0.121569 0.062745 0.047059
0.168627 0.074510 0.054902
0.211765 0.082353 0.062745
0.258824 0.094118 0.078431
0.313725 0.101961 0.094118
0.352941 0.113725 0.094118
0.403922 0.121569 0.109804
0.454902 0.133333 0.117647
0.498039 0.141176 0.129412
0.545098 0.156863 0.133333
0.588235 0.160784 0.145098
0.635294 0.172549 0.160784
0.690196 0.180392 0.176471
0.003922 0.090196 0.043137
0.050980 0.098039 0.047059
0.094118 0.109804 0.062745
0.145098 0.117647 0.062745
0.192157 0.129412 0.078431
0.239216 0.141176 0.094118
0.282353 0.149020 0.094118
0.325490 0.156863 0.105882
0.380392 0.172549 0.117647
0.423529 0.180392 0.129412
0.466667 0.188235 0.129412
0.513725 0.200000 0.145098
0.568627 0.207843 0.160784
0.615686 0.219608 0.176471
0.658824 0.227451 0.176471
0.701961 0.235294 0.188235
0.019608 0.141176 0.054902
0.070588 0.156863 0.062745
0.117647 0.164706 0.078431
0.160784 0.172549 0.090196
0.207843 0.184314 0.101961
0.250980 0.192157 0.105882
0.309804 0.207843 0.125490
0.345098 0.219608 0.129412
0.396078 0.223529 0.129412
0.443137 0.235294 0.145098
0.490196 0.247059 0.160784
0.537255 0.254902 0.168627
0.584314 0.266667 0.176471
0.627451 0.274510 0.188235
0.682353 0.286275 0.196078
0.721569 0.298039 0.211765
0.047059 0.200000 0.078431
0.086275 0.211765 0.090196
0.137255 0.219608 0.101961
0.180392 0.227451 0.105882
0.231373 0.239216 0.121569
0.278431 0.254902 0.129412
0.321569 0.258824 0.137255
0.368627 0.274510 0.145098
0.423529 0.282353 0.160784
0.458824 0.294118 0.168627
0.509804 0.305882 0.176471
0.556863 0.309804 0.188235
0.603922 0.321569 0.196078
0.654902 0.333333 0.211765
0.698039 0.341176 0.211765
0.741176 0.349020 0.223529
0.062745 0.258824 0.101961
0.105882 0.266667 0.105882
0.156863 0.278431 0.121569
0.203922 0.290196 0.129412
0.247059 0.298039 0.137255
0.294118 0.305882 0.141176
0.341176 0.325490 0.160784
0.392157 0.329412 0.168627
0.435294 0.333333 0.180392
0.482353 0.349020 0.188235
0.529412 0.360784 0.203922
0.576471 0.372549 0.211765
0.623529 0.380392 0.211765
0.670588 0.384314 0.223529
0.717647 0.403922 0.243137
0.768627 0.407843 0.250980
0.078431 0.317647 0.121569
0.129412 0.321569 0.121569
0.176471 0.333333 0.137255
0.219608 0.341176 0.141176
0.274510 0.360784 0.160784
0.317647 0.364706 0.168627
0.360784 0.372549 0.180392
0.411765 0.384314 0.188235
0.454902 0.396078 0.203922
0.498039 0.407843 0.203922
0.552941 0.415686 0.219608
0.596078 0.423529 0.223529
0.643137 0.435294 0.239216
0.690196 0.447059 0.250980
0.733333 0.454902 0.254902
0.788235 0.470588 0.274510
0.101961 0.372549 0.137255
0.145098 0.380392 0.141176
0.192157 0.392157 0.156863
0.239216 0.403922 0.168627
0.290196 0.407843 0.180392
0.329412 0.419608 0.184314
0.388235 0.431373 0.203922
0.431373 0.443137 0.203922
0.478431 0.454902 0.219608
0.521569 0.462745 0.223529
0.568627 0.474510 0.239216
0.615686 0.486275 0.250980
0.666667 0.490196 0.262745
0.705882 0.505882 0.270588
0.760784 0.513725 0.286275
0.803922 0.521569 0.286275
0.125490 0.427451 0.156863
0.172549 0.439216 0.168627
0.215686 0.447059 0.180392
0.258824 0.454902 0.184314
0.309804 0.470588 0.203922
0.352941 0.478431 0.203922
0.403922 0.482353 0.215686
0.447059 0.498039 0.223529
0.494118 0.509804 0.239216
0.549020 0.521569 0.250980
0.592157 0.525490 0.262745
0.639216 0.541176 0.270588
0.686275 0.552941 0.286275
0.729412 0.560784 0.286275
0.772549 0.568627 0.298039
0.827451 0.584314 0.309804
0.141176 0.486275 0.180392
0.184314 0.494118 0.184314
0.235294 0.509804 0.203922
0.286275 0.513725 0.203922
0.321569 0.525490 0.215686
0.376471 0.533333 0.223529
0.423529 0.545098 0.239216
0.466667 0.552941 0.247059
0.517647 0.564706 0.262745
0.564706 0.576471 0.270588
0.607843 0.584314 0.278431
0.662745 0.596078 0.286275
0.698039 0.603922 0.298039
0.756863 0.619608 0.309804
0.800000 0.627451 0.317647
0.843137 0.635294 0.329412
0.164706 0.541176 0.200000
0.211765 0.552941 0.211765
0.254902 0.560784 0.215686
0.298039 0.568627 0.219608
0.349020 0.584314 0.239216
0.400000 0.588235 0.247059
0.439216 0.603922 0.262745
0.490196 0.615686 0.270588
0.537255 0.619608 0.278431
0.584314 0.635294 0.286275
0.631373 0.639216 0.298039
0.678431 0.654902 0.305882
0.725490 0.666667 0.317647
0.768627 0.670588 0.329412
0.811765 0.678431 0.341176
0.862745 0.698039 0.352941
0.180392 0.600000 0.215686
0.223529 0.603922 0.227451
0.282353 0.619608 0.239216
0.317647 0.631373 0.247059
0.368627 0.635294 0.258824
0.419608 0.650980 0.270588
0.462745 0.658824 0.278431
0.505882 0.666667 0.282353
0.552941 0.678431 0.298039
0.603922 0.690196 0.305882
0.654902 0.701961 0.317647
0.694118 0.709804 0.329412
0.741176 0.713725 0.341176
0.796078 0.733333 0.352941
0.839216 0.741176 0.360784
0.882353 0.749020 0.364706
0.203922 0.658824 0.239216
0.250980 0.666667 0.247059
0.294118 0.670588 0.258824
0.345098 0.690196 0.270588
0.396078 0.694118 0.278431
0.431373 0.705882 0.290196
0.486275 0.713725 0.298039
0.533333 0.725490 0.305882
0.576471 0.733333 0.313725
0.623529 0.745098 0.329412
0.666667 0.752941 0.341176
0.721569 0.768627 0.352941
0.764706 0.776471 0.360784
0.807843 0.784314 0.364706
0.854902 0.796078 0.380392
0.909804 0.807843 0.388235
0.215686 0.709804 0.258824
0.266667 0.717647 0.258824
0.313725 0.733333 0.278431
0.360784 0.737255 0.290196
0.411765 0.752941 0.298039
0.458824 0.764706 0.313725
0.501961 0.772549 0.313725
0.549020 0.784314 0.329412
0.592157 0.792157 0.341176
0.647059 0.800000 0.349020
0.690196 0.815686 0.360784
0.737255 0.819608 0.364706
0.780392 0.827451 0.376471
0.835294 0.847059 0.388235
0.878431 0.854902 0.396078
0.925490 0.862745 0.411765
0.243137 0.768627 0.278431
0.286275 0.776471 0.290196
0.329412 0.784314 0.294118
0.388235 0.800000 0.313725
0.427451 0.811765 0.313725
0.474510 0.815686 0.325490
0.525490 0.827451 0.341176
0.572549 0.839216 0.349020
0.619608 0.850980 0.360784
0.662745 0.858824 0.372549
0.705882 0.866667 0.376471
0.756863 0.882353 0.396078
0.803922 0.890196 0.396078
0.847059 0.898039 0.407843
0.898039 0.905882 0.423529
0.949020 0.921569 0.427451
0.262745 0.819608 0.294118
0.309804 0.839216 0.313725
0.356863 0.847059 0.313725
0.400000 0.850980 0.325490
0.447059 0.862745 0.341176
0.498039 0.878431 0.349020
0.541176 0.886275 0.356863
0.588235 0.898039 0.372549
0.639216 0.901961 0.376471
0.682353 0.921569 0.396078
0.733333 0.925490 0.396078
0.776471 0.933333 0.407843
0.823529 0.945098 0.423529
0.870588 0.956863 0.427451
0.913725 0.964706 0.439216
0.964706 0.976471 0.447059
0.000000 0.000000 0.035294
0.015686 0.000000 0.043137
0.058824 0.000000 0.054902
0.101961 0.003922 0.066667
0.156863 0.019608 0.086275
0.200000 0.027451 0.086275
0.247059 0.039216 0.101961
0.290196 0.050980 0.105882
0.337255 0.062745 0.117647
0.392157 0.070588 0.125490
0.431373 0.082353 0.137255
0.482353 0.090196 0.152941
0.533333 0.101961 0.164706
0.576471 0.109804 0.168627
0.619608 0.117647 0.180392
0.670588 0.133333 0.192157
0.000000 0.035294 0.054902
0.027451 0.043137 0.066667
0.082353 0.058824 0.086275
0.129412 0.062745 0.086275
0.168627 0.074510 0.098039
0.223529 0.086275 0.105882
0.270588 0.098039 0.117647
0.313725 0.105882 0.121569
0.360784 0.117647 0.137255
0.407843 0.129412 0.152941
0.454902 0.141176 0.164706
0.498039 0.149020 0.168627
0.541176 0.156863 0.180392
0.596078 0.172549 0.192157
0.647059 0.176471 0.200000
0.690196 0.184314 0.203922
0.007843 0.090196 0.078431
0.054902 0.101961 0.094118
0.098039 0.109804 0.098039
0.145098 0.121569 0.105882
0.196078 0.133333 0.117647
0.239216 0.141176 0.121569
0.286275 0.152941 0.137255
0.333333 0.164706 0.152941
0.384314 0.168627 0.160784
0.423529 0.188235 0.168627
0.474510 0.192157 0.180392
0.521569 0.203922 0.184314
0.568627 0.215686 0.200000
0.611765 0.223529 0.203922
0.662745 0.235294 0.219608
0.709804 0.247059 0.231373
0.023529 0.149020 0.098039
0.066667 0.156863 0.105882
0.125490 0.168627 0.117647
0.160784 0.180392 0.129412
0.215686 0.188235 0.137255
0.262745 0.200000 0.152941
0.309804 0.207843 0.160784
0.356863 0.223529 0.168627
0.400000 0.227451 0.180392
0.447059 0.243137 0.184314
0.494118 0.254902 0.200000
0.537255 0.262745 0.203922
0.580392 0.270588 0.215686
0.639216 0.282353 0.231373
0.682353 0.290196 0.243137
0.729412 0.301961 0.250980
0.050980 0.207843 0.117647
0.094118 0.215686 0.129412
0.137255 0.223529 0.133333
0.188235 0.239216 0.152941
0.231373 0.247059 0.160784
0.274510 0.254902 0.172549
0.325490 0.266667 0.180392
0.376471 0.274510 0.192157
0.419608 0.290196 0.200000
0.470588 0.298039 0.203922
0.513725 0.305882 0.215686
0.564706 0.321569 0.231373
0.607843 0.325490 0.243137
0.650980 0.337255 0.247059
0.698039 0.349020 0.262745
0.752941 0.356863 0.266667
0.062745 0.262745 0.133333
0.121569 0.274510 0.152941
0.156863 0.286275 0.160784
0.207843 0.290196 0.172549
0.254902 0.301961 0.180392
0.301961 0.313725 0.192157
0.345098 0.321569 0.196078
0.396078 0.333333 0.211765
0.439216 0.341176 0.215686
0.490196 0.349020 0.227451
0.533333 0.364706 0.243137
0.576471 0.372549 0.247059
0.631373 0.384314 0.262745
0.678431 0.396078 0.266667
0.721569 0.403922 0.278431
0.768627 0.415686 0.286275
0.090196 0.321569 0.160784
0.133333 0.325490 0.172549
0.176471 0.337255 0.172549
0.227451 0.352941 0.192157
0.270588 0.360784 0.196078
0.317647 0.372549 0.211765
0.368627 0.376471 0.215686
0.411765 0.392157 0.227451
0.462745 0.400000 0.243137
0.505882 0.407843 0.254902
0.552941 0.415686 0.254902
0.603922 0.431373 0.274510
0.647059 0.439216 0.278431
0.694118 0.454902 0.286275
0.745098 0.458824 0.294118
0.784314 0.474510 0.309804
0.105882 0.372549 0.172549
0.152941 0.388235 0.192157
0.203922 0.396078 0.196078
0.247059 0.403922 0.207843
0.294118 0.415686 0.215686
0.341176 0.427451 0.227451
0.388235 0.439216 0.243137
0.431373 0.447059 0.254902
0.482353 0.450980 0.254902
0.529412 0.470588 0.274510
0.572549 0.478431 0.278431
0.619608 0.482353 0.290196
0.670588 0.498039 0.294118
0.717647 0.509804 0.309804
0.760784 0.513725 0.321569
0.807843 0.529412 0.329412
0.125490 0.435294 0.196078
0.172549 0.439216 0.207843
0.219608 0.454902 0.215686
0.266667 0.466667 0.227451
0.309804 0.474510 0.239216
0.364706 0.482353 0.254902
0.400000 0.494118 0.254902
0.454902 0.501961 0.270588
0.501961 0.513725 0.278431
0.545098 0.521569 0.290196
0.592157 0.533333 0.294118
0.643137 0.545098 0.309804
0.686275 0.552941 0.321569
0.741176 0.560784 0.337255
0.776471 0.572549 0.337255
0.831373 0.580392 0.352941
0.137255 0.486275 0.207843
0.196078 0.501961 0.227451
0.239216 0.505882 0.239216
0.290196 0.517647 0.254902
0.333333 0.529412 0.254902
0.380392 0.541176 0.270588
0.427451 0.552941 0.278431
0.478431 0.556863 0.290196
0.513725 0.568627 0.290196
0.568627 0.584314 0.309804
0.615686 0.588235 0.321569
0.658824 0.596078 0.329412
0.705882 0.607843 0.337255
0.756863 0.619608 0.352941
0.803922 0.631373 0.360784
0.847059 0.639216 0.372549
0.164706 0.545098 0.239216
0.207843 0.552941 0.250980
0.254902 0.564706 0.254902
0.305882 0.576471 0.270588
0.352941 0.584314 0.274510
0.396078 0.596078 0.290196
0.447059 0.603922 0.290196
0.498039 0.619608 0.309804
0.541176 0.627451 0.321569
0.584314 0.635294 0.329412
0.631373 0.647059 0.337255
0.678431 0.658824 0.352941
0.729412 0.662745 0.356863
0.772549 0.678431 0.372549
0.819608 0.682353 0.372549
0.874510 0.701961 0.392157
0.188235 0.600000 0.254902
0.235294 0.611765 0.270588
0.278431 0.619608 0.282353
0.325490 0.631373 0.290196
0.368627 0.643137 0.290196
0.419608 0.654902 0.305882
0.470588 0.662745 0.321569
0.509804 0.670588 0.329412
0.556863 0.686275 0.337255
0.611765 0.694118 0.352941
0.654902 0.701961 0.356863
0.701961 0.713725 0.372549
0.745098 0.721569 0.372549
0.792157 0.733333 0.388235
0.843137 0.745098 0.403922
0.886275 0.752941 0.411765
0.211765 0.654902 0.282353
0.250980 0.670588 0.290196
0.294118 0.678431 0.298039
0.349020 0.690196 0.305882
0.392157 0.701961 0.321569
0.439216 0.705882 0.329412
0.482353 0.713725 0.333333
0.537255 0.733333 0.352941
0.580392 0.741176 0.356863
0.623529 0.749020 0.364706
0.670588 0.760784 0.372549
0.725490 0.768627 0.388235
0.764706 0.784314 0.403922
0.815686 0.788235 0.411765
0.858824 0.796078 0.415686
0.913725 0.811765 0.435294
0.227451 0.713725 0.298039
0.274510 0.725490 0.305882
0.317647 0.733333 0.317647
0.364706 0.745098 0.329412
0.407843 0.752941 0.333333
0.466667 0.768627 0.352941
0.505882 0.776471 0.364706
0.552941 0.784314 0.364706
0.600000 0.796078 0.372549
0.650980 0.807843 0.388235
0.694118 0.815686 0.400000
0.741176 0.827451 0.411765
0.784314 0.835294 0.415686
0.831373 0.847059 0.431373
0.878431 0.858824 0.439216
0.921569 0.866667 0.447059
0.243137 0.772549 0.317647
0.290196 0.784314 0.329412
0.341176 0.788235 0.333333
0.380392 0.803922 0.349020
0.435294 0.811765 0.364706
0.478431 0.819608 0.364706
0.525490 0.831373 0.380392
0.576471 0.847059 0.388235
0.619608 0.850980 0.400000
0.666667 0.862745 0.411765
0.713725 0.870588 0.415686
0.756863 0.886275 0.431373
0.811765 0.894118 0.439216
0.854902 0.901961 0.447059
0.898039 0.909804 0.450980
0.949020 0.925490 0.470588
0.266667 0.827451 0.333333
0.313725 0.839216 0.349020
0.360784 0.850980 0.364706
0.403922 0.858824 0.364706
0.454902 0.862745 0.376471
0.498039 0.882353 0.388235
0.549020 0.886275 0.400000
0.592157 0.894118 0.407843
0.639216 0.905882 0.415686
0.686275 0.917647 0.431373
0.737255 0.929412 0.447059
0.780392 0.941176 0.447059
0.823529 0.945098 0.458824
0.874510 0.964706 0.470588
0.917647 0.972549 0.478431
0.968627 0.976471 0.490196
0.000000 0.000000 0.078431
0.015686 0.000000 0.090196
0.062745 0.003922 0.094118
0.109804 0.015686 0.109804
0.152941 0.023529 0.113725
0.207843 0.031373 0.129412
0.247059 0.043137 0.137255
0.305882 0.054902 0.156863
0.349020 0.062745 0.160784
0.392157 0.070588 0.168627
0.439216 0.086275 0.176471
0.486275 0.094118 0.192157
0.529412 0.105882 0.196078
0.576471 0.117647 0.207843
0.619608 0.121569 0.219608
0.670588 0.133333 0.235294
0.000000 0.043137 0.094118
0.043137 0.050980 0.109804
0.086275 0.058824 0.113725
0.133333 0.070588 0.129412
0.176471 0.078431 0.137255
0.223529 0.090196 0.152941
0.270588 0.101961 0.160784
0.317647 0.109804 0.168627
0.360784 0.117647 0.172549
0.411765 0.133333 0.192157
0.462745 0.141176 0.196078
0.501961 0.152941 0.207843
0.552941 0.156863 0.219608
0.600000 0.168627 0.235294
0.647059 0.184314 0.243137
0.690196 0.188235 0.250980
0.011765 0.094118 0.121569
0.058824 0.109804 0.129412
0.101961 0.117647 0.137255
0.149020 0.129412 0.152941
0.203922 0.137255 0.160784
0.239216 0.149020 0.168627
0.290196 0.152941 0.172549
0.341176 0.168627 0.192157
0.384314 0.176471 0.196078
0.427451 0.184314 0.203922
0.478431 0.196078 0.219608
0.525490 0.207843 0.235294
0.572549 0.219608 0.243137
0.615686 0.227451 0.250980
0.658824 0.235294 0.254902
0.717647 0.250980 0.274510
0.031373 0.152941 0.137255
0.082353 0.160784 0.152941
0.125490 0.168627 0.164706
0.172549 0.184314 0.168627
0.215686 0.192157 0.172549
0.266667 0.207843 0.192157
0.309804 0.215686 0.196078
0.352941 0.223529 0.203922
0.403922 0.235294 0.219608
0.454902 0.243137 0.235294
0.494118 0.254902 0.235294
0.549020 0.262745 0.250980
0.592157 0.270588 0.254902
0.639216 0.282353 0.270588
0.686275 0.298039 0.278431
0.729412 0.301961 0.286275
0.047059 0.207843 0.164706
0.098039 0.219608 0.168627
0.141176 0.227451 0.180392
0.196078 0.239216 0.188235
0.235294 0.250980 0.203922
0.286275 0.258824 0.203922
0.329412 0.266667 0.215686
0.380392 0.282353 0.235294
0.423529 0.290196 0.235294
0.470588 0.301961 0.250980
0.513725 0.309804 0.254902
0.564706 0.321569 0.270588
0.611765 0.333333 0.278431
0.654902 0.341176 0.286275
0.705882 0.345098 0.298039
0.756863 0.360784 0.317647
0.070588 0.262745 0.180392
0.117647 0.274510 0.188235
0.168627 0.286275 0.203922
0.211765 0.298039 0.203922
0.254902 0.301961 0.215686
0.305882 0.321569 0.235294
0.349020 0.325490 0.247059
0.392157 0.337255 0.247059
0.447059 0.345098 0.262745
0.490196 0.360784 0.270588
0.541176 0.368627 0.278431
0.584314 0.376471 0.286275
0.627451 0.384314 0.298039
0.682353 0.400000 0.317647
0.725490 0.407843 0.317647
0.768627 0.415686 0.329412
0.086275 0.321569 0.196078
0.133333 0.333333 0.203922
0.184314 0.337255 0.215686
0.231373 0.356863 0.235294
0.282353 0.360784 0.247059
0.325490 0.368627 0.247059
0.372549 0.380392 0.262745
0.419608 0.396078 0.270588
0.462745 0.403922 0.278431
0.509804 0.415686 0.286275
0.560784 0.419608 0.298039
0.600000 0.435294 0.313725
0.650980 0.447059 0.317647
0.698039 0.450980 0.329412
