public/luts/desature.cube
# Studiio — look « desature », genere par scripts/lut/generer-luts.mjs
# Source : les coefficients de LOOKS_RENDUS, calcules par ffmpeg lui-meme.
# Aucune LUT tierce, aucun telechargement : provenance et licence du depot.
LUT_3D_SIZE 6
DOMAIN_MIN 0.0 0.0 0.0
DOMAIN_MAX 1.0 1.0 1.0
0.000000 0.000000 0.000000
0.098039 0.000000 0.000000
0.243137 0.027451 0.019608
0.380392 0.062745 0.043137
0.521569 0.094118 0.078431
0.654902 0.121569 0.105882
0.015686 0.145098 0.019608
0.160784 0.172549 0.050980
0.301961 0.203922 0.078431
0.435294 0.231373 0.105882
0.580392 0.262745 0.137255
0.717647 0.294118 0.168627
0.078431 0.313725 0.070588
0.223529 0.341176 0.113725
0.360784 0.372549 0.137255
0.501961 0.403922 0.168627
0.639216 0.435294 0.200000
0.780392 0.462745 0.219608
0.137255 0.478431 0.141176
0.278431 0.509804 0.164706
0.415686 0.545098 0.196078
0.556863 0.568627 0.223529
0.701961 0.603922 0.262745
0.847059 0.631373 0.294118
0.203922 0.650980 0.196078
0.337255 0.678431 0.223529
0.474510 0.709804 0.254902
0.615686 0.741176 0.290196
0.760784 0.772549 0.313725
0.898039 0.803922 0.352941
0.258824 0.823529 0.254902
0.403922 0.850980 0.290196
0.541176 0.882353 0.321569
0.682353 0.913725 0.352941
0.819608 0.937255 0.380392
0.960784 0.972549 0.403922
0.000000 0.000000 0.078431
0.109804 0.015686 0.109804
0.247059 0.043137 0.137255
0.392157 0.070588 0.168627
0.529412 0.105882 0.196078
0.670588 0.133333 0.235294
0.031373 0.152941 0.137255
0.172549 0.184314 0.168627
0.309804 0.215686 0.196078
0.454902 0.243137 0.235294
0.592157 0.270588 0.254902
0.729412 0.301961 0.286275
0.086275 0.321569 0.196078
0.231373 0.356863 0.235294
0.372549 0.380392 0.262745
0.509804 0.415686 0.286275
0.650980 0.447059 0.317647
0.796078 0.474510 0.352941
0.149020 0.490196 0.258824
0.286275 0.521569 0.282353
0.431373 0.549020 0.321569
0.572549 0.584314 0.345098
0.713725 0.619608 0.384314
0.850980 0.647059 0.411765
0.207843 0.662745 0.321569
0.352941 0.694118 0.352941
0.486275 0.721569 0.376471
0.627451 0.752941 0.407843
0.772549 0.780392 0.439216
0.909804 0.815686 0.470588
0.274510 0.831373 0.376471
0.411765 0.862745 0.407843
0.552941 0.894118 0.439216
0.690196 0.925490 0.470588
0.831373 0.956863 0.501961
0.972549 0.984314 0.525490
0.000000 0.000000 0.203922
0.121569 0.027451 0.227451
0.266667 0.054902 0.258824
0.400000 0.082353 0.286275
0.541176 0.113725 0.321569
0.686275 0.141176 0.352941
0.047059 0.164706 0.258824
0.180392 0.192157 0.286275
0.321569 0.223529 0.321569
0.458824 0.258824 0.352941
0.603922 0.286275 0.384314
0.741176 0.313725 0.403922
0.098039 0.333333 0.313725
0.247059 0.364706 0.352941
0.388235 0.396078 0.384314
0.521569 0.427451 0.403922
0.666667 0.454902 0.443137
0.803922 0.486275 0.470588
0.164706 0.505882 0.380392
0.298039 0.533333 0.407843
0.435294 0.564706 0.439216
0.580392 0.592157 0.470588
0.725490 0.631373 0.501961
0.862745 0.662745 0.533333
0.223529 0.670588 0.439216
0.360784 0.701961 0.470588
0.501961 0.737255 0.498039
0.647059 0.764706 0.537255
0.780392 0.792157 0.556863
0.921569 0.823529 0.588235
0.282353 0.847059 0.505882
0.419608 0.878431 0.537255
0.560784 0.901961 0.564706
0.701961 0.937255 0.588235
0.839216 0.968627 0.619608
0.984314 0.996078 0.654902
0.000000 0.003922 0.321569
0.133333 0.035294 0.352941
0.278431 0.066667 0.376471
0.415686 0.098039 0.411765
0.549020 0.125490 0.439216
0.690196 0.156863 0.470588
0.050980 0.180392 0.376471
0.196078 0.207843 0.419608
0.333333 0.235294 0.439216
0.478431 0.266667 0.470588
0.615686 0.298039 0.501961
0.752941 0.329412 0.533333
0.109804 0.341176 0.443137
0.258824 0.376471 0.470588
0.396078 0.407843 0.501961
0.537255 0.439216 0.533333
0.674510 0.470588 0.568627
0.815686 0.494118 0.596078
0.172549 0.513725 0.505882
0.313725 0.545098 0.529412
0.458824 0.576471 0.560784
0.592157 0.603922 0.592157
0.729412 0.635294 0.615686
0.882353 0.666667 0.658824
0.239216 0.686275 0.560784
0.372549 0.713725 0.592157
0.513725 0.745098 0.623529
0.650980 0.776471 0.654902
0.796078 0.807843 0.686275
0.929412 0.835294 0.705882
0.294118 0.858824 0.623529
0.439216 0.886275 0.654902
0.576471 0.917647 0.686275
0.709804 0.949020 0.705882
0.858824 0.972549 0.749020
0.996078 1.000000 0.772549
0.007843 0.019608 0.443137
0.141176 0.047059 0.470588
0.282353 0.078431 0.501961
0.427451 0.105882 0.537255
0.564706 0.141176 0.560784
0.705882 0.172549 0.592157
0.066667 0.188235 0.501961
0.207843 0.219608 0.537255
0.345098 0.250980 0.568627
0.490196 0.278431 0.592157
0.627451 0.305882 0.619608
0.764706 0.337255 0.650980
0.121569 0.356863 0.564706
0.258824 0.384314 0.584314
0.407843 0.415686 0.627451
0.545098 0.450980 0.650980
0.690196 0.478431 0.686275
0.831373 0.509804 0.717647
0.184314 0.525490 0.623529
0.321569 0.556863 0.654902
0.466667 0.588235 0.678431
0.607843 0.619608 0.713725
0.741176 0.647059 0.741176
0.886275 0.682353 0.776471
0.243137 0.701961 0.678431
0.388235 0.729412 0.721569
0.521569 0.756863 0.741176
0.666667 0.784314 0.772549
0.807843 0.815686 0.803922
0.945098 0.850980 0.827451
0.301961 0.870588 0.741176
0.447059 0.898039 0.772549
0.588235 0.929412 0.803922
0.725490 0.960784 0.835294
0.862745 0.988235 0.866667
1.000000 1.000000 0.898039
0.019608 0.031373 0.560784
0.156863 0.062745 0.592157
0.301961 0.090196 0.627451
0.435294 0.117647 0.654902
0.576471 0.149020 0.686275
0.721569 0.176471 0.717647
0.082353 0.200000 0.627451
0.219608 0.227451 0.654902
0.356863 0.258824 0.686275
0.494118 0.294118 0.717647
0.639216 0.321569 0.749020
0.776471 0.349020 0.768627
0.133333 0.368627 0.682353
0.278431 0.396078 0.713725
0.423529 0.431373 0.749020
0.556863 0.458824 0.776471
0.701961 0.490196 0.803922
0.839216 0.521569 0.835294
0.200000 0.541176 0.745098
0.333333 0.568627 0.772549
0.470588 0.600000 0.800000
0.615686 0.627451 0.839216
0.756863 0.662745 0.862745
0.905882 0.694118 0.898039
0.258824 0.705882 0.807843
0.400000 0.737255 0.839216
0.537255 0.772549 0.870588
0.678431 0.796078 0.890196
0.815686 0.827451 0.921569
0.956863 0.858824 0.956863
0.317647 0.882353 0.870588
0.450980 0.909804 0.890196
0.596078 0.937255 0.929412
0.737255 0.972549 0.956863
0.882353 1.000000 0.988235
1.000000 1.000000 1.000000
