public/luts/dramatic.cube
# Studiio — look « dramatic », genere par scripts/lut/generer-luts.mjs
# Source : les coefficients de LOOKS_RENDUS, calcules par ffmpeg lui-meme.
# Aucune LUT tierce, aucun telechargement : provenance et licence du depot.
LUT_3D_SIZE 16
DOMAIN_MIN 0.0 0.0 0.0
DOMAIN_MAX 1.0 1.0 1.0
0.000000 0.000000 0.000000
0.000000 0.000000 0.000000
0.003922 0.000000 0.000000
0.039216 0.000000 0.000000
0.090196 0.000000 0.000000
0.125490 0.000000 0.000000
0.188235 0.000000 0.000000
0.254902 0.000000 0.000000
0.325490 0.000000 0.000000
0.384314 0.000000 0.000000
0.462745 0.000000 0.000000
0.521569 0.000000 0.000000
0.592157 0.000000 0.000000
0.658824 0.000000 0.000000
0.737255 0.000000 0.000000
0.796078 0.000000 0.000000
0.000000 0.000000 0.000000
0.000000 0.000000 0.000000
0.000000 0.000000 0.000000
0.007843 0.000000 0.000000
0.070588 0.000000 0.000000
0.129412 0.000000 0.000000
0.207843 0.000000 0.000000
0.274510 0.000000 0.000000
0.337255 0.000000 0.000000
0.407843 0.000000 0.000000
0.474510 0.000000 0.000000
0.545098 0.000000 0.000000
0.611765 0.000000 0.000000
0.678431 0.000000 0.000000
0.745098 0.000000 0.000000
0.811765 0.003922 0.000000
0.000000 0.000000 0.000000
0.000000 0.000000 0.000000
0.000000 0.000000 0.000000
0.019608 0.000000 0.000000
0.086275 0.000000 0.000000
0.152941 0.000000 0.000000
0.219608 0.000000 0.000000
0.290196 0.007843 0.000000
0.356863 0.019608 0.000000
0.427451 0.019608 0.000000
0.498039 0.035294 0.000000
0.564706 0.039216 0.000000
0.635294 0.054902 0.000000
0.701961 0.062745 0.000000
0.760784 0.066667 0.000000
0.831373 0.082353 0.000000
0.000000 0.023529 0.000000
0.000000 0.027451 0.000000
0.000000 0.031373 0.000000
0.043137 0.043137 0.000000
0.105882 0.058824 0.000000
0.176471 0.066667 0.000000
0.243137 0.074510 0.000000
0.309804 0.078431 0.000000
0.380392 0.098039 0.000000
0.439216 0.105882 0.000000
0.505882 0.105882 0.000000
0.580392 0.121569 0.000000
0.647059 0.125490 0.000000
0.713725 0.137255 0.000000
0.788235 0.149020 0.000000
0.850980 0.156863 0.000000
0.000000 0.090196 0.000000
0.000000 0.105882 0.000000
0.000000 0.117647 0.000000
0.047059 0.125490 0.000000
0.129412 0.133333 0.000000
0.192157 0.141176 0.000000
0.258824 0.145098 0.000000
0.325490 0.160784 0.000000
0.392157 0.164706 0.000000
0.462745 0.180392 0.000000
0.529412 0.184314 0.000000
0.596078 0.196078 0.000000
0.670588 0.211765 0.000000
0.729412 0.219608 0.000000
0.803922 0.215686 0.000000
0.874510 0.235294 0.000000
0.000000 0.176471 0.000000
0.000000 0.180392 0.000000
0.011765 0.196078 0.000000
0.070588 0.200000 0.000000
0.137255 0.207843 0.000000
0.207843 0.219608 0.000000
0.274510 0.227451 0.000000
0.345098 0.235294 0.000000
0.411765 0.247059 0.000000
0.482353 0.254902 0.000000
0.552941 0.270588 0.000000
0.619608 0.274510 0.000000
0.678431 0.282353 0.000000
0.752941 0.294118 0.000000
0.815686 0.301961 0.000000
0.886275 0.309804 0.003922
0.000000 0.247059 0.000000
0.000000 0.258824 0.000000
0.019608 0.266667 0.000000
0.094118 0.278431 0.000000
0.156863 0.286275 0.000000
0.227451 0.294118 0.000000
0.290196 0.305882 0.000000
0.364706 0.313725 0.000000
0.423529 0.321569 0.000000
0.505882 0.333333 0.000000
0.564706 0.337255 0.000000
0.635294 0.345098 0.000000
0.701961 0.360784 0.000000
0.772549 0.364706 0.011765
0.839216 0.380392 0.015686
0.901961 0.392157 0.019608
0.000000 0.325490 0.000000
0.000000 0.333333 0.000000
0.043137 0.345098 0.000000
0.113725 0.352941 0.000000
0.172549 0.356863 0.000000
0.250980 0.372549 0.000000
0.309804 0.380392 0.000000
0.380392 0.396078 0.000000
0.447059 0.400000 0.000000
0.509804 0.411765 0.000000
0.584314 0.419608 0.000000
0.654902 0.427451 0.011765
0.721569 0.431373 0.011765
0.792157 0.447059 0.027451
0.858824 0.450980 0.035294
0.917647 0.458824 0.043137
0.000000 0.403922 0.000000
0.000000 0.415686 0.000000
0.054902 0.419608 0.000000
0.125490 0.435294 0.000000
0.196078 0.435294 0.000000
0.262745 0.447059 0.000000
0.333333 0.454902 0.000000
0.400000 0.466667 0.000000
0.466667 0.474510 0.000000
0.533333 0.486275 0.011765
0.600000 0.494118 0.011765
0.670588 0.509804 0.027451
0.737255 0.513725 0.035294
0.800000 0.517647 0.043137
0.874510 0.533333 0.050980
0.941176 0.537255 0.058824
0.000000 0.478431 0.000000
0.011765 0.494118 0.000000
0.078431 0.498039 0.000000
0.145098 0.509804 0.000000
0.215686 0.517647 0.000000
0.278431 0.529412 0.000000
0.345098 0.533333 0.000000
0.423529 0.545098 0.011765
0.482353 0.552941 0.011765
0.549020 0.556863 0.019608
0.619608 0.572549 0.035294
0.686275 0.576471 0.043137
0.756863 0.592157 0.050980
0.823529 0.596078 0.058824
0.886275 0.607843 0.066667
0.960784 0.619608 0.086275
0.000000 0.556863 0.000000
0.031373 0.564706 0.000000
0.090196 0.572549 0.000000
0.168627 0.584314 0.000000
0.227451 0.596078 0.000000
0.301961 0.603922 0.011765
0.364706 0.611765 0.011765
0.431373 0.615686 0.019608
0.501961 0.631373 0.035294
0.572549 0.635294 0.043137
0.639216 0.647059 0.047059
0.709804 0.654902 0.058824
0.772549 0.666667 0.066667
0.839216 0.670588 0.074510
0.909804 0.686275 0.082353
0.972549 0.694118 0.098039
0.000000 0.631373 0.000000
0.047059 0.647059 0.000000
0.113725 0.650980 0.000000
0.180392 0.654902 0.003922
0.250980 0.670588 0.019608
0.317647 0.674510 0.019608
0.384314 0.686275 0.031373
0.447059 0.698039 0.043137
0.517647 0.705882 0.047059
0.584314 0.717647 0.058824
0.654902 0.725490 0.066667
0.721569 0.729412 0.074510
0.796078 0.745098 0.082353
0.858824 0.749020 0.098039
0.929412 0.760784 0.101961
0.996078 0.772549 0.113725
0.000000 0.709804 0.000000
0.054902 0.717647 0.003922
0.133333 0.729412 0.019608
0.192157 0.737255 0.019608
0.270588 0.745098 0.031373
0.333333 0.752941 0.043137
0.407843 0.764706 0.054902
0.466667 0.772549 0.050980
0.541176 0.784314 0.066667
0.603922 0.792157 0.074510
0.678431 0.803922 0.082353
0.737255 0.811765 0.098039
0.811765 0.819608 0.101961
0.874510 0.831373 0.113725
0.945098 0.839216 0.125490
1.000000 0.843137 0.133333
0.015686 0.784314 0.015686
0.078431 0.796078 0.019608
0.152941 0.803922 0.031373
0.215686 0.815686 0.043137
0.286275 0.823529 0.054902
0.349020 0.831373 0.050980
0.423529 0.843137 0.074510
0.490196 0.847059 0.074510
0.556863 0.858824 0.086275
0.627451 0.866667 0.098039
0.690196 0.878431 0.109804
0.756863 0.882353 0.109804
0.827451 0.898039 0.125490
0.894118 0.901961 0.133333
0.964706 0.921569 0.141176
1.000000 0.925490 0.149020
0.031373 0.862745 0.031373
0.098039 0.866667 0.035294
0.168627 0.882353 0.054902
0.235294 0.890196 0.050980
0.294118 0.894118 0.066667
0.372549 0.909804 0.074510
0.435294 0.921569 0.086275
0.505882 0.929412 0.098039
0.572549 0.941176 0.109804
0.647059 0.941176 0.109804
0.713725 0.956863 0.125490
0.780392 0.960784 0.133333
0.843137 0.968627 0.141176
0.909804 0.984314 0.149020
0.976471 0.988235 0.152941
1.000000 1.000000 0.164706
0.050980 0.945098 0.054902
0.117647 0.949020 0.050980
0.184314 0.952941 0.066667
0.258824 0.964706 0.074510
0.325490 0.976471 0.086275
0.384314 0.984314 0.094118
0.458824 0.996078 0.109804
0.521569 1.000000 0.109804
0.588235 1.000000 0.117647
0.654902 1.000000 0.133333
0.721569 1.000000 0.141176
0.800000 1.000000 0.149020
0.866667 1.000000 0.160784
0.929412 1.000000 0.164706
1.000000 1.000000 0.184314
1.000000 1.000000 0.188235
0.000000 0.000000 0.000000
0.000000 0.000000 0.000000
0.000000 0.000000 0.000000
0.039216 0.000000 0.000000
0.082353 0.000000 0.000000
0.121569 0.000000 0.000000
0.192157 0.000000 0.000000
0.258824 0.000000 0.000000
0.333333 0.000000 0.000000
0.392157 0.000000 0.000000
0.454902 0.000000 0.000000
0.529412 0.000000 0.000000
0.596078 0.000000 0.000000
0.666667 0.000000 0.000000
0.733333 0.000000 0.000000
0.803922 0.000000 0.000000
0.000000 0.000000 0.000000
0.000000 0.000000 0.000000
0.000000 0.000000 0.000000
0.003922 0.000000 0.000000
0.066667 0.000000 0.000000
0.145098 0.000000 0.000000
0.203922 0.000000 0.000000
0.282353 0.000000 0.000000
0.341176 0.000000 0.000000
0.415686 0.000000 0.000000
0.478431 0.000000 0.000000
0.549020 0.000000 0.000000
0.611765 0.000000 0.000000
0.686275 0.000000 0.000000
0.745098 0.000000 0.000000
0.827451 0.007843 0.000000
0.000000 0.000000 0.000000
0.000000 0.000000 0.000000
0.000000 0.000000 0.000000
0.027451 0.000000 0.000000
0.086275 0.000000 0.000000
0.160784 0.000000 0.000000
0.223529 0.003922 0.000000
0.294118 0.007843 0.000000
0.364706 0.019608 0.000000
0.431373 0.031373 0.000000
0.498039 0.035294 0.000000
0.564706 0.050980 0.000000
0.631373 0.054902 0.000000
0.701961 0.070588 0.000000
0.768627 0.074510 0.003922
0.827451 0.082353 0.011765
0.000000 0.019608 0.000000
0.000000 0.035294 0.000000
0.000000 0.039216 0.000000
0.039216 0.050980 0.000000
0.109804 0.058824 0.000000
0.172549 0.070588 0.000000
0.247059 0.078431 0.000000
0.309804 0.090196 0.000000
0.376471 0.094118 0.000000
0.447059 0.109804 0.000000
0.521569 0.113725 0.000000
0.580392 0.117647 0.000000
0.654902 0.133333 0.003922
0.717647 0.137255 0.011765
0.788235 0.149020 0.015686
0.858824 0.160784 0.039216
0.000000 0.098039 0.000000
0.000000 0.109804 0.000000
0.000000 0.117647 0.000000
0.062745 0.125490 0.000000
0.129412 0.129412 0.000000
0.196078 0.149020 0.000000
0.262745 0.152941 0.000000
0.333333 0.168627 0.000000
0.400000 0.172549 0.000000
0.462745 0.180392 0.000000
0.529412 0.196078 0.003922
0.596078 0.200000 0.011765
0.666667 0.207843 0.015686
0.745098 0.219608 0.039216
0.803922 0.227451 0.039216
0.870588 0.231373 0.047059
0.000000 0.176471 0.000000
0.000000 0.188235 0.000000
0.003922 0.196078 0.000000
0.078431 0.207843 0.000000
0.141176 0.215686 0.000000
0.211765 0.215686 0.000000
0.282353 0.231373 0.000000
0.349020 0.235294 0.000000
0.411765 0.247059 0.007843
0.486275 0.254902 0.011765
0.549020 0.266667 0.023529
0.623529 0.282353 0.039216
0.686275 0.290196 0.039216
0.752941 0.294118 0.047059
0.823529 0.309804 0.054902
0.894118 0.309804 0.070588
0.000000 0.250980 0.000000
0.000000 0.258824 0.000000
0.027451 0.274510 0.000000
0.094118 0.278431 0.000000
0.164706 0.294118 0.000000
0.231373 0.298039 0.000000
0.294118 0.305882 0.007843
0.364706 0.317647 0.011765
0.435294 0.325490 0.023529
0.498039 0.333333 0.031373
0.572549 0.345098 0.047059
0.635294 0.352941 0.047059
0.705882 0.360784 0.058824
0.768627 0.372549 0.070588
0.839216 0.380392 0.074510
0.905882 0.392157 0.082353
0.000000 0.329412 0.000000
0.000000 0.337255 0.000000
0.047059 0.345098 0.000000
0.109804 0.356863 0.000000
0.180392 0.364706 0.007843
0.243137 0.372549 0.007843
0.317647 0.384314 0.023529
0.376471 0.392157 0.031373
0.454902 0.403922 0.047059
0.513725 0.411765 0.047059
0.592157 0.419608 0.058824
0.658824 0.431373 0.070588
0.729412 0.439216 0.082353
0.788235 0.447059 0.078431
0.862745 0.458824 0.101961
0.925490 0.466667 0.101961
0.000000 0.403922 0.000000
0.000000 0.419608 0.000000
0.062745 0.423529 0.007843
0.129412 0.431373 0.007843
0.203922 0.443137 0.023529
0.266667 0.450980 0.031373
0.337255 0.458824 0.043137
0.400000 0.470588 0.047059
0.466667 0.482353 0.058824
0.537255 0.490196 0.070588
0.603922 0.501961 0.082353
0.670588 0.505882 0.078431
0.745098 0.517647 0.101961
0.811765 0.521569 0.101961
0.870588 0.529412 0.109804
0.949020 0.541176 0.125490
0.000000 0.486275 0.007843
0.011765 0.490196 0.007843
0.078431 0.505882 0.023529
0.145098 0.509804 0.031373
0.211765 0.521569 0.043137
0.290196 0.529412 0.047059
0.352941 0.541176 0.058824
0.419608 0.545098 0.062745
0.490196 0.560784 0.082353
0.556863 0.564706 0.078431
0.615686 0.568627 0.094118
0.694118 0.584314 0.101961
0.752941 0.592157 0.109804
0.827451 0.603922 0.125490
0.894118 0.615686 0.137255
0.960784 0.619608 0.137255
0.000000 0.560784 0.019608
0.035294 0.568627 0.031373
0.098039 0.580392 0.043137
0.164706 0.584314 0.043137
0.235294 0.600000 0.058824
0.301961 0.603922 0.062745
0.372549 0.619608 0.082353
0.439216 0.623529 0.078431
0.505882 0.627451 0.094118
0.572549 0.643137 0.101961
0.639216 0.647059 0.109804
0.705882 0.658824 0.121569
0.780392 0.670588 0.137255
0.843137 0.678431 0.137255
0.909804 0.682353 0.145098
0.976471 0.698039 0.160784
0.000000 0.635294 0.043137
0.047059 0.643137 0.050980
0.121569 0.658824 0.058824
0.184314 0.662745 0.070588
0.250980 0.666667 0.070588
0.317647 0.686275 0.078431
0.384314 0.686275 0.094118
0.450980 0.701961 0.098039
0.521569 0.709804 0.109804
0.588235 0.721569 0.121569
0.670588 0.729412 0.137255
0.729412 0.737255 0.137255
0.796078 0.741176 0.145098
0.866667 0.756863 0.160784
0.933333 0.760784 0.168627
0.996078 0.772549 0.168627
0.003922 0.717647 0.058824
0.062745 0.721569 0.070588
0.129412 0.729412 0.070588
0.207843 0.741176 0.086275
0.274510 0.745098 0.094118
0.337255 0.756863 0.105882
0.407843 0.764706 0.109804
0.474510 0.776471 0.121569
0.533333 0.784314 0.129412
0.611765 0.800000 0.137255
0.670588 0.803922 0.145098
0.745098 0.819608 0.160784
0.811765 0.819608 0.168627
0.886275 0.831373 0.168627
0.949020 0.839216 0.188235
1.000000 0.850980 0.192157
0.011765 0.788235 0.070588
0.082353 0.796078 0.082353
0.149020 0.807843 0.094118
0.219608 0.815686 0.105882
0.282353 0.831373 0.109804
0.360784 0.835294 0.121569
0.423529 0.843137 0.129412
0.498039 0.854902 0.145098
0.556863 0.862745 0.145098
0.627451 0.870588 0.156863
0.694118 0.882353 0.168627
0.764706 0.890196 0.168627
0.827451 0.898039 0.184314
0.901961 0.909804 0.192157
0.960784 0.917647 0.200000
1.000000 0.929412 0.215686
0.035294 0.866667 0.094118
0.105882 0.874510 0.105882
0.168627 0.882353 0.105882
0.243137 0.894118 0.121569
0.301961 0.901961 0.129412
0.372549 0.909804 0.141176
0.439216 0.921569 0.145098
0.509804 0.929412 0.164706
0.580392 0.941176 0.168627
0.647059 0.949020 0.176471
0.713725 0.952941 0.184314
0.784314 0.968627 0.200000
0.850980 0.976471 0.200000
0.909804 0.980392 0.207843
0.984314 0.996078 0.223529
1.000000 1.000000 0.223529
0.054902 0.941176 0.105882
0.125490 0.956863 0.121569
0.192157 0.960784 0.129412
0.254902 0.972549 0.141176
0.325490 0.980392 0.145098
0.392157 0.992157 0.164706
0.458824 0.996078 0.160784
0.529412 1.000000 0.176471
0.596078 1.000000 0.184314
0.662745 1.000000 0.200000
0.737255 1.000000 0.200000
0.796078 1.000000 0.207843
0.874510 1.000000 0.223529
0.933333 1.000000 0.231373
1.000000 1.000000 0.235294
1.000000 1.000000 0.250980
0.000000 0.000000 0.023529
0.000000 0.000000 0.007843
0.000000 0.000000 0.000000
0.035294 0.000000 0.000000
0.070588 0.000000 0.000000
0.125490 0.000000 0.000000
0.192157 0.000000 0.000000
0.258824 0.000000 0.000000
0.325490 0.000000 0.000000
0.400000 0.000000 0.000000
0.462745 0.000000 0.000000
0.533333 0.000000 0.000000
0.603922 0.000000 0.015686
0.670588 0.000000 0.015686
0.733333 0.000000 0.035294
0.807843 0.000000 0.039216
0.000000 0.000000 0.000000
0.000000 0.000000 0.000000
0.000000 0.000000 0.000000
0.003922 0.000000 0.000000
0.074510 0.000000 0.000000
0.149020 0.000000 0.000000
0.211765 0.000000 0.000000
0.278431 0.000000 0.000000
0.349020 0.000000 0.000000
0.415686 0.000000 0.000000
0.486275 0.000000 0.015686
0.545098 0.000000 0.015686
0.615686 0.000000 0.035294
0.686275 0.000000 0.039216
0.756863 0.000000 0.050980
0.819608 0.007843 0.050980
0.000000 0.000000 0.000000
0.000000 0.000000 0.000000
0.000000 0.000000 0.000000
0.023529 0.000000 0.000000
0.094118 0.000000 0.000000
0.152941 0.000000 0.000000
0.235294 0.003922 0.000000
0.298039 0.011765 0.000000
0.368627 0.019608 0.011765
0.431373 0.035294 0.015686
0.501961 0.039216 0.035294
0.564706 0.047059 0.035294
0.639216 0.062745 0.050980
0.701961 0.070588 0.050980
0.776471 0.082353 0.074510
0.835294 0.090196 0.074510
0.000000 0.027451 0.000000
0.000000 0.031373 0.000000
0.000000 0.043137 0.000000
0.039216 0.050980 0.000000
0.117647 0.066667 0.000000
0.176471 0.074510 0.000000
0.247059 0.082353 0.011765
0.313725 0.094118 0.015686
0.384314 0.101961 0.035294
0.450980 0.105882 0.035294
0.521569 0.121569 0.050980
0.588235 0.125490 0.050980
0.647059 0.133333 0.066667
0.725490 0.145098 0.074510
0.788235 0.156863 0.086275
0.858824 0.164706 0.098039
0.000000 0.105882 0.000000
0.000000 0.109804 0.000000
0.000000 0.121569 0.000000
0.062745 0.129412 0.007843
0.129412 0.141176 0.011765
0.196078 0.145098 0.019608
0.266667 0.160784 0.035294
0.333333 0.164706 0.043137
0.400000 0.180392 0.050980
0.466667 0.188235 0.050980
0.529412 0.192157 0.066667
0.611765 0.203922 0.074510
0.674510 0.215686 0.086275
0.741176 0.219608 0.090196
0.811765 0.235294 0.109804
0.878431 0.239216 0.105882
0.000000 0.184314 0.000000
0.000000 0.188235 0.007843
0.011765 0.203922 0.011765
0.078431 0.203922 0.019608
0.152941 0.219608 0.035294
0.219608 0.223529 0.043137
0.278431 0.231373 0.043137
0.356863 0.243137 0.058824
0.415686 0.250980 0.066667
0.486275 0.258824 0.078431
0.556863 0.274510 0.086275
0.615686 0.282353 0.090196
0.694118 0.294118 0.109804
0.760784 0.301961 0.105882
0.827451 0.301961 0.121569
0.894118 0.317647 0.129412
0.000000 0.258824 0.011765
0.000000 0.262745 0.019608
0.023529 0.270588 0.027451
0.094118 0.286275 0.043137
0.160784 0.290196 0.043137
0.231373 0.305882 0.058824
0.301961 0.305882 0.066667
0.368627 0.317647 0.078431
0.443137 0.333333 0.086275
0.505882 0.337255 0.098039
0.572549 0.345098 0.098039
0.639216 0.360784 0.113725
0.705882 0.360784 0.121569
0.776471 0.380392 0.129412
0.843137 0.384314 0.137255
0.909804 0.396078 0.141176
0.000000 0.325490 0.027451
0.000000 0.345098 0.043137
0.047059 0.349020 0.043137
0.113725 0.360784 0.054902
0.184314 0.368627 0.066667
0.250980 0.380392 0.078431
0.325490 0.392157 0.086275
0.384314 0.400000 0.098039
0.450980 0.403922 0.098039
0.529412 0.415686 0.113725
0.588235 0.423529 0.121569
0.658824 0.431373 0.133333
0.725490 0.443137 0.137255
0.796078 0.450980 0.149020
0.854902 0.458824 0.156863
0.933333 0.474510 0.164706
0.000000 0.407843 0.043137
0.000000 0.415686 0.054902
0.066667 0.427451 0.066667
0.137255 0.435294 0.078431
0.196078 0.443137 0.074510
0.274510 0.454902 0.098039
0.333333 0.462745 0.098039
0.403922 0.470588 0.109804
0.470588 0.482353 0.121569
0.541176 0.490196 0.133333
0.603922 0.505882 0.137255
0.682353 0.509804 0.149020
0.745098 0.517647 0.156863
0.819608 0.529412 0.172549
0.878431 0.537255 0.172549
0.945098 0.541176 0.184314
0.000000 0.486275 0.058824
0.019608 0.498039 0.078431
0.078431 0.505882 0.074510
0.152941 0.517647 0.098039
0.219608 0.521569 0.098039
0.290196 0.529412 0.109804
0.356863 0.541176 0.121569
0.427451 0.549020 0.133333
0.490196 0.556863 0.133333
0.556863 0.572549 0.149020
0.623529 0.576471 0.156863
0.686275 0.584314 0.164706
0.760784 0.600000 0.172549
0.827451 0.600000 0.184314
0.901961 0.615686 0.196078
0.968627 0.627451 0.203922
0.000000 0.560784 0.082353
0.031373 0.572549 0.094118
0.101961 0.580392 0.098039
0.168627 0.592157 0.109804
0.235294 0.596078 0.117647
0.301961 0.611765 0.133333
0.376471 0.615686 0.133333
0.447059 0.631373 0.149020
0.513725 0.635294 0.156863
0.572549 0.643137 0.164706
0.647059 0.654902 0.172549
0.709804 0.662745 0.184314
0.780392 0.670588 0.188235
0.850980 0.686275 0.203922
0.917647 0.690196 0.211765
0.984314 0.705882 0.227451
0.000000 0.639216 0.105882
0.054902 0.650980 0.109804
0.121569 0.654902 0.117647
0.192157 0.670588 0.133333
0.258824 0.674510 0.133333
0.317647 0.682353 0.141176
0.392157 0.694118 0.156863
0.454902 0.701961 0.164706
0.529412 0.717647 0.172549
0.596078 0.717647 0.184314
0.662745 0.729412 0.188235
0.737255 0.745098 0.203922
0.796078 0.749020 0.211765
0.862745 0.752941 0.219608
0.933333 0.772549 0.227451
1.000000 0.776471 0.235294
0.000000 0.713725 0.117647
0.078431 0.729412 0.133333
0.137255 0.733333 0.141176
0.203922 0.741176 0.141176
0.274510 0.752941 0.164706
0.341176 0.760784 0.164706
0.403922 0.772549 0.164706
0.478431 0.780392 0.184314
0.541176 0.792157 0.188235
0.607843 0.796078 0.196078
0.678431 0.811765 0.211765
0.752941 0.811765 0.219608
0.819608 0.827451 0.227451
0.886275 0.831373 0.235294
0.952941 0.843137 0.247059
1.000000 0.854902 0.258824
0.019608 0.796078 0.141176
0.086275 0.800000 0.141176
0.149020 0.811765 0.160784
0.223529 0.819608 0.164706
0.294118 0.827451 0.172549
0.364706 0.835294 0.184314
0.427451 0.847059 0.196078
0.494118 0.850980 0.196078
0.564706 0.866667 0.211765
0.627451 0.874510 0.219608
0.698039 0.886275 0.223529
0.760784 0.898039 0.235294
0.831373 0.905882 0.247059
0.898039 0.909804 0.254902
0.976471 0.921569 0.262745
1.000000 0.929412 0.278431
0.039216 0.866667 0.160784
0.101961 0.882353 0.164706
0.172549 0.890196 0.172549
0.235294 0.894118 0.180392
0.309804 0.909804 0.196078
0.372549 0.917647 0.196078
0.450980 0.925490 0.211765
0.513725 0.933333 0.219608
0.584314 0.941176 0.231373
0.650980 0.952941 0.235294
0.721569 0.960784 0.247059
0.780392 0.968627 0.254902
0.854902 0.984314 0.262745
0.917647 0.988235 0.278431
0.984314 0.992157 0.274510
1.000000 1.000000 0.290196
0.062745 0.945098 0.172549
0.121569 0.952941 0.180392
0.196078 0.964706 0.196078
0.258824 0.972549 0.196078
0.329412 0.980392 0.207843
0.396078 0.992157 0.219608
0.466667 1.000000 0.231373
0.525490 1.000000 0.231373
0.600000 1.000000 0.254902
0.666667 1.000000 0.254902
0.737255 1.000000 0.270588
0.803922 1.000000 0.278431
0.866667 1.000000 0.282353
0.941176 1.000000 0.290196
1.000000 1.000000 0.301961
1.000000 1.000000 0.309804
0.000000 0.000000 0.070588
0.000000 0.000000 0.062745
0.000000 0.000000 0.039216
0.027451 0.000000 0.023529
0.062745 0.000000 0.007843
0.129412 0.000000 0.011765
0.192157 0.000000 0.011765
0.266667 0.000000 0.035294
0.333333 0.000000 0.039216
0.400000 0.000000 0.047059
0.474510 0.000000 0.054902
0.541176 0.000000 0.070588
0.600000 0.000000 0.070588
0.670588 0.000000 0.086275
0.737255 0.000000 0.094118
0.803922 0.000000 0.101961
0.000000 0.000000 0.039216
0.000000 0.000000 0.023529
0.000000 0.000000 0.007843
0.019608 0.000000 0.011765
0.078431 0.000000 0.011765
0.145098 0.000000 0.031373
0.219608 0.000000 0.039216
0.278431 0.000000 0.047059
0.345098 0.000000 0.047059
0.415686 0.000000 0.070588
0.482353 0.000000 0.070588
0.552941 0.000000 0.086275
0.623529 0.000000 0.094118
0.690196 0.000000 0.101961
0.760784 0.003922 0.105882
0.827451 0.011765 0.125490
0.000000 0.000000 0.015686
0.000000 0.000000 0.011765
0.000000 0.000000 0.011765
0.023529 0.000000 0.031373
0.101961 0.000000 0.039216
0.168627 0.000000 0.047059
0.235294 0.003922 0.047059
0.301961 0.019608 0.070588
0.368627 0.023529 0.070588
0.435294 0.035294 0.082353
0.505882 0.043137 0.094118
0.572549 0.054902 0.101961
0.635294 0.066667 0.105882
0.705882 0.074510 0.125490
0.772549 0.078431 0.125490
0.850980 0.090196 0.141176
0.000000 0.027451 0.019608
0.000000 0.039216 0.031373
0.000000 0.043137 0.039216
0.047059 0.058824 0.047059
0.109804 0.066667 0.047059
0.184314 0.078431 0.070588
0.243137 0.086275 0.070588
0.321569 0.094118 0.082353
0.388235 0.101961 0.094118
0.458824 0.113725 0.101961
0.517647 0.121569 0.101961
0.596078 0.129412 0.125490
0.654902 0.141176 0.125490
0.725490 0.149020 0.137255
0.792157 0.160784 0.141176
0.862745 0.168627 0.160784
0.000000 0.101961 0.039216
0.000000 0.117647 0.047059
0.000000 0.125490 0.054902
0.066667 0.133333 0.066667
0.133333 0.145098 0.078431
0.203922 0.152941 0.082353
0.262745 0.160784 0.086275
0.341176 0.172549 0.101961
0.400000 0.180392 0.101961
0.474510 0.192157 0.125490
0.541176 0.196078 0.125490
0.607843 0.207843 0.137255
0.678431 0.219608 0.141176
0.745098 0.227451 0.160784
0.811765 0.231373 0.160784
0.878431 0.247059 0.176471
0.000000 0.184314 0.054902
0.000000 0.192157 0.066667
0.019608 0.200000 0.078431
0.086275 0.211765 0.082353
0.152941 0.215686 0.094118
0.219608 0.231373 0.101961
0.286275 0.235294 0.109804
0.349020 0.243137 0.117647
0.423529 0.254902 0.133333
0.490196 0.270588 0.137255
0.560784 0.278431 0.141176
0.623529 0.290196 0.160784
0.698039 0.290196 0.160784
0.768627 0.305882 0.176471
0.835294 0.309804 0.184314
0.894118 0.317647 0.188235
0.000000 0.254902 0.070588
0.000000 0.274510 0.082353
0.031373 0.274510 0.094118
0.101961 0.294118 0.101961
0.168627 0.298039 0.109804
0.235294 0.301961 0.117647
0.309804 0.313725 0.133333
0.376471 0.325490 0.137255
0.443137 0.329412 0.145098
0.513725 0.345098 0.160784
0.580392 0.349020 0.168627
0.639216 0.356863 0.168627
0.709804 0.372549 0.184314
0.776471 0.376471 0.188235
