public/luts/dramatic.cube
# Studiio — look « dramatic », genere par scripts/lut/generer-luts.mjs
# Source : les coefficients de LOOKS_RENDUS, calcules par ffmpeg lui-meme.
# Aucune LUT tierce, aucun telechargement : provenance et licence du depot.
LUT_3D_SIZE 6
DOMAIN_MIN 0.0 0.0 0.0
DOMAIN_MAX 1.0 1.0 1.0
0.000000 0.000000 0.000000
0.039216 0.000000 0.000000
0.188235 0.000000 0.000000
0.384314 0.000000 0.000000
0.592157 0.000000 0.000000
0.796078 0.000000 0.000000
0.000000 0.023529 0.000000
0.043137 0.043137 0.000000
0.243137 0.074510 0.000000
0.439216 0.105882 0.000000
0.647059 0.125490 0.000000
0.850980 0.156863 0.000000
0.000000 0.247059 0.000000
0.094118 0.278431 0.000000
0.290196 0.305882 0.000000
0.505882 0.333333 0.000000
0.701961 0.360784 0.000000
0.901961 0.392157 0.019608
0.000000 0.478431 0.000000
0.145098 0.509804 0.000000
0.345098 0.533333 0.000000
0.549020 0.556863 0.019608
0.756863 0.592157 0.050980
0.960784 0.619608 0.086275
0.000000 0.709804 0.000000
0.192157 0.737255 0.019608
0.407843 0.764706 0.054902
0.603922 0.792157 0.074510
0.811765 0.819608 0.101961
1.000000 0.843137 0.133333
0.050980 0.945098 0.054902
0.258824 0.964706 0.074510
0.458824 0.996078 0.109804
0.654902 1.000000 0.133333
0.866667 1.000000 0.160784
1.000000 1.000000 0.188235
0.000000 0.000000 0.070588
0.027451 0.000000 0.023529
0.192157 0.000000 0.011765
0.400000 0.000000 0.047059
0.600000 0.000000 0.070588
0.803922 0.000000 0.101961
0.000000 0.027451 0.019608
0.047059 0.058824 0.047059
0.243137 0.086275 0.070588
0.458824 0.113725 0.101961
0.654902 0.141176 0.125490
0.862745 0.168627 0.160784
0.000000 0.254902 0.070588
0.101961 0.294118 0.101961
0.309804 0.313725 0.133333
0.513725 0.345098 0.160784
0.709804 0.372549 0.184314
0.917647 0.392157 0.211765
0.000000 0.490196 0.129412
0.152941 0.513725 0.152941
0.360784 0.541176 0.188235
0.556863 0.572549 0.207843
0.776471 0.600000 0.239216
0.972549 0.627451 0.262745
0.007843 0.721569 0.188235
0.211765 0.745098 0.207843
0.407843 0.772549 0.231373
0.615686 0.803922 0.258824
0.819608 0.827451 0.286275
1.000000 0.858824 0.313725
0.062745 0.949020 0.231373
0.266667 0.980392 0.266667
0.462745 1.000000 0.286275
0.674510 1.000000 0.321569
0.870588 1.000000 0.345098
1.000000 1.000000 0.372549
0.000000 0.000000 0.235294
0.003922 0.000000 0.180392
0.211765 0.000000 0.211765
0.411765 0.000000 0.227451
0.607843 0.000000 0.258824
0.819608 0.000000 0.282353
0.000000 0.039216 0.211765
0.062745 0.070588 0.227451
0.262745 0.094118 0.258824
0.462745 0.121569 0.282353
0.666667 0.149020 0.317647
0.870588 0.176471 0.337255
0.000000 0.270588 0.254902
0.117647 0.298039 0.290196
0.317647 0.329412 0.317647
0.513725 0.356863 0.337255
0.729412 0.380392 0.372549
0.925490 0.407843 0.396078
0.000000 0.501961 0.309804
0.164706 0.525490 0.341176
0.360784 0.552941 0.364706
0.576471 0.576471 0.400000
0.780392 0.615686 0.431373
0.976471 0.643137 0.450980
0.019608 0.729412 0.364706
0.219608 0.760784 0.400000
0.423529 0.784314 0.419608
0.627451 0.811765 0.454902
0.827451 0.839216 0.478431
1.000000 0.862745 0.501961
0.070588 0.960784 0.427451
0.278431 0.992157 0.454902
0.482353 1.000000 0.478431
0.678431 1.000000 0.501961
0.886275 1.000000 0.525490
1.000000 1.000000 0.556863
0.000000 0.000000 0.384314
0.015686 0.000000 0.364706
0.219608 0.000000 0.392157
0.415686 0.000000 0.415686
0.627451 0.000000 0.450980
0.823529 0.000000 0.470588
0.000000 0.054902 0.392157
0.070588 0.078431 0.423529
0.270588 0.109804 0.450980
0.482353 0.129412 0.478431
0.682353 0.160784 0.498039
0.878431 0.188235 0.529412
0.000000 0.274510 0.447059
0.125490 0.309804 0.478431
0.329412 0.341176 0.498039
0.533333 0.364706 0.529412
0.729412 0.392157 0.552941
0.937255 0.419608 0.584314
0.000000 0.509804 0.498039
0.180392 0.537255 0.525490
0.380392 0.560784 0.552941
0.576471 0.588235 0.576471
0.780392 0.623529 0.603922
0.996078 0.650980 0.643137
0.023529 0.745098 0.552941
0.227451 0.768627 0.576471
0.435294 0.796078 0.611765
0.631373 0.823529 0.635294
0.847059 0.847059 0.666667
1.000000 0.874510 0.690196
0.086275 0.972549 0.611765
0.286275 1.000000 0.635294
0.490196 1.000000 0.666667
0.690196 1.000000 0.690196
0.898039 1.000000 0.725490
1.000000 1.000000 0.749020
0.000000 0.000000 0.545098
0.023529 0.000000 0.549020
0.231373 0.000000 0.576471
0.435294 0.000000 0.603922
0.631373 0.000000 0.627451
0.831373 0.000000 0.662745
0.000000 0.062745 0.584314
0.078431 0.090196 0.603922
0.286275 0.113725 0.635294
0.486275 0.145098 0.662745
0.682353 0.172549 0.682353
0.898039 0.196078 0.717647
0.000000 0.290196 0.631373
0.129412 0.313725 0.650980
0.341176 0.345098 0.690196
0.541176 0.376471 0.717647
0.749020 0.400000 0.749020
0.945098 0.427451 0.764706
0.000000 0.521569 0.686275
0.188235 0.541176 0.717647
0.388235 0.576471 0.745098
0.592157 0.600000 0.760784
0.800000 0.627451 0.792157
1.000000 0.662745 0.819608
0.039216 0.752941 0.745098
0.239216 0.780392 0.768627
0.447059 0.807843 0.792157
0.650980 0.831373 0.823529
0.847059 0.858824 0.847059
1.000000 0.890196 0.874510
0.098039 0.988235 0.792157
0.294118 1.000000 0.823529
0.498039 1.000000 0.847059
0.705882 1.000000 0.882353
0.901961 1.000000 0.901961
1.000000 1.000000 0.933333
0.000000 0.000000 0.709804
0.035294 0.000000 0.737255
0.239216 0.000000 0.760784
0.439216 0.000000 0.788235
0.643137 0.000000 0.815686
0.850980 0.000000 0.843137
0.000000 0.070588 0.760784
0.090196 0.101961 0.796078
0.294118 0.129412 0.815686
0.501961 0.156863 0.843137
0.701961 0.180392 0.874510
0.901961 0.207843 0.898039
0.000000 0.301961 0.811765
0.141176 0.325490 0.843137
0.345098 0.360784 0.874510
0.556863 0.380392 0.905882
0.756863 0.415686 0.929412
0.952941 0.443137 0.952941
0.000000 0.529412 0.878431
0.196078 0.556863 0.898039
0.396078 0.584314 0.921569
0.603922 0.611765 0.956863
0.800000 0.639216 0.980392
1.000000 0.666667 1.000000
0.047059 0.760784 0.929412
0.254902 0.788235 0.956863
0.458824 0.811765 0.988235
0.658824 0.843137 1.000000
0.862745 0.870588 1.000000
1.000000 0.898039 1.000000
0.105882 0.992157 0.988235
0.305882 1.000000 1.000000
0.509804 1.000000 1.000000
0.717647 1.000000 1.000000
0.921569 1.000000 1.000000
1.000000 1.000000 1.000000
