public/luts/energie.cube
# Studiio — look « energie », genere par scripts/lut/generer-luts.mjs
# Source : les coefficients de LOOKS_RENDUS, calcules par ffmpeg lui-meme.
# Aucune LUT tierce, aucun telechargement : provenance et licence du depot.
LUT_3D_SIZE 6
DOMAIN_MIN 0.0 0.0 0.0
DOMAIN_MAX 1.0 1.0 1.0
0.000000 0.000000 0.000000
0.105882 0.000000 0.000000
0.364706 0.000000 0.000000
0.631373 0.000000 0.000000
0.917647 0.000000 0.000000
1.000000 0.000000 0.000000
0.000000 0.117647 0.000000
0.113725 0.117647 0.000000
0.364706 0.113725 0.000000
0.631373 0.117647 0.000000
0.917647 0.113725 0.000000
1.000000 0.113725 0.000000
0.000000 0.372549 0.000000
0.113725 0.376471 0.000000
0.360784 0.372549 0.000000
0.631373 0.364706 0.000000
0.917647 0.368627 0.000000
1.000000 0.368627 0.000000
0.011765 0.623529 0.000000
0.113725 0.623529 0.000000
0.364706 0.619608 0.000000
0.623529 0.619608 0.000000
0.913725 0.623529 0.000000
1.000000 0.619608 0.000000
0.043137 0.878431 0.000000
0.141176 0.882353 0.000000
0.400000 0.874510 0.000000
0.654902 0.878431 0.000000
0.913725 0.870588 0.000000
1.000000 0.870588 0.000000
0.043137 1.000000 0.000000
0.149020 1.000000 0.000000
0.403922 1.000000 0.000000
0.650980 1.000000 0.000000
0.909804 1.000000 0.000000
1.000000 1.000000 0.000000
0.000000 0.000000 0.141176
0.113725 0.000000 0.113725
0.364706 0.000000 0.105882
0.631373 0.000000 0.098039
0.913725 0.000000 0.074510
1.000000 0.000000 0.078431
0.000000 0.117647 0.121569
0.109804 0.117647 0.105882
0.356863 0.117647 0.101961
0.654902 0.113725 0.086275
0.913725 0.113725 0.074510
1.000000 0.113725 0.078431
0.000000 0.368627 0.101961
0.109804 0.376471 0.105882
0.364706 0.368627 0.109804
0.654902 0.368627 0.086275
0.913725 0.368627 0.074510
1.000000 0.364706 0.074510
0.011765 0.623529 0.098039
0.129412 0.623529 0.078431
0.392157 0.619608 0.086275
0.639216 0.619608 0.078431
0.921569 0.619608 0.082353
1.000000 0.619608 0.074510
0.043137 0.882353 0.078431
0.149020 0.874510 0.078431
0.396078 0.874510 0.074510
0.650980 0.878431 0.070588
0.905882 0.870588 0.074510
1.000000 0.874510 0.062745
0.043137 1.000000 0.074510
0.145098 1.000000 0.078431
0.392157 1.000000 0.074510
0.658824 1.000000 0.078431
0.905882 1.000000 0.066667
1.000000 1.000000 0.058824
0.000000 0.000000 0.376471
0.113725 0.000000 0.368627
0.368627 0.000000 0.368627
0.627451 0.000000 0.349020
0.913725 0.000000 0.341176
1.000000 0.000000 0.329412
0.000000 0.117647 0.368627
0.105882 0.117647 0.356863
0.368627 0.113725 0.368627
0.650980 0.113725 0.337255
0.921569 0.113725 0.333333
1.000000 0.113725 0.329412
0.000000 0.368627 0.364706
0.109804 0.368627 0.372549
0.396078 0.376471 0.337255
0.654902 0.372549 0.329412
0.917647 0.364706 0.329412
1.000000 0.368627 0.329412
0.015686 0.627451 0.345098
0.137255 0.623529 0.341176
0.400000 0.623529 0.325490
0.650980 0.615686 0.329412
0.917647 0.619608 0.329412
1.000000 0.619608 0.325490
0.043137 0.878431 0.325490
0.145098 0.874510 0.329412
0.400000 0.878431 0.325490
0.654902 0.874510 0.329412
0.905882 0.874510 0.325490
1.000000 0.866667 0.329412
0.043137 1.000000 0.333333
0.141176 1.000000 0.329412
0.403922 1.000000 0.333333
0.654902 1.000000 0.329412
0.901961 1.000000 0.321569
1.000000 1.000000 0.329412
0.011765 0.000000 0.615686
0.129412 0.000000 0.615686
0.376471 0.000000 0.611765
0.631373 0.000000 0.607843
0.913725 0.000000 0.592157
1.000000 0.000000 0.576471
0.011765 0.117647 0.611765
0.141176 0.117647 0.603922
0.396078 0.113725 0.600000
0.650980 0.109804 0.600000
0.917647 0.113725 0.584314
1.000000 0.109804 0.592157
0.011765 0.364706 0.615686
0.137255 0.368627 0.600000
0.403922 0.376471 0.584314
0.662745 0.364706 0.592157
0.917647 0.368627 0.584314
1.000000 0.364706 0.584314
0.011765 0.623529 0.615686
0.133333 0.619608 0.596078
0.400000 0.615686 0.592157
0.654902 0.619608 0.580392
0.901961 0.619608 0.576471
1.000000 0.619608 0.584314
0.043137 0.878431 0.592157
0.141176 0.882353 0.580392
0.400000 0.874510 0.584314
0.650980 0.874510 0.576471
0.909804 0.870588 0.584314
1.000000 0.866667 0.576471
0.043137 1.000000 0.584314
0.141176 1.000000 0.576471
0.400000 1.000000 0.584314
0.650980 1.000000 0.576471
0.909804 1.000000 0.584314
1.000000 1.000000 0.576471
0.043137 0.000000 0.850980
0.156863 0.000000 0.847059
0.407843 0.000000 0.843137
0.662745 0.000000 0.847059
0.909804 0.000000 0.839216
1.000000 0.000000 0.847059
0.043137 0.117647 0.850980
0.149020 0.117647 0.847059
0.411765 0.109804 0.847059
0.662745 0.113725 0.847059
0.913725 0.113725 0.839216
1.000000 0.105882 0.843137
0.043137 0.364706 0.843137
0.141176 0.364706 0.835294
0.403922 0.368627 0.847059
0.658824 0.364706 0.843137
0.917647 0.364706 0.847059
1.000000 0.364706 0.835294
0.043137 0.627451 0.843137
0.149020 0.615686 0.847059
0.400000 0.619608 0.843137
0.650980 0.619608 0.831373
0.909804 0.611765 0.839216
1.000000 0.619608 0.835294
0.043137 0.882353 0.843137
0.149020 0.874510 0.847059
0.396078 0.874510 0.839216
0.654902 0.870588 0.847059
0.905882 0.870588 0.831373
1.000000 0.870588 0.827451
0.043137 1.000000 0.839216
0.141176 1.000000 0.847059
0.392157 1.000000 0.831373
0.650980 1.000000 0.835294
0.905882 1.000000 0.831373
1.000000 1.000000 0.835294
0.043137 0.000000 0.972549
0.149020 0.000000 0.972549
0.411765 0.000000 0.972549
0.658824 0.000000 0.972549
0.913725 0.000000 0.972549
1.000000 0.000000 0.972549
0.043137 0.117647 0.972549
0.145098 0.117647 0.972549
0.411765 0.113725 0.972549
0.658824 0.113725 0.972549
0.913725 0.109804 0.972549
1.000000 0.109804 0.972549
0.043137 0.364706 0.972549
0.149020 0.364706 0.972549
0.400000 0.368627 0.972549
0.666667 0.364706 0.972549
0.913725 0.364706 0.972549
1.000000 0.368627 0.972549
0.043137 0.619608 0.972549
0.149020 0.623529 0.972549
0.396078 0.619608 0.972549
0.650980 0.615686 0.972549
0.909804 0.615686 0.972549
1.000000 0.615686 0.972549
0.043137 0.878431 0.972549
0.137255 0.878431 0.972549
0.403922 0.874510 0.972549
0.650980 0.870588 0.972549
0.901961 0.874510 0.972549
1.000000 0.866667 0.972549
0.043137 1.000000 0.972549
0.137255 1.000000 0.972549
0.400000 1.000000 0.972549
0.650980 1.000000 0.972549
0.905882 1.000000 0.972549
1.000000 1.000000 0.972549
