public/luts/energie.cube
# Studiio — look « energie », genere par scripts/lut/generer-luts.mjs
# Source : les coefficients de LOOKS_RENDUS, calcules par ffmpeg lui-meme.
# Aucune LUT tierce, aucun telechargement : provenance et licence du depot.
LUT_3D_SIZE 16
DOMAIN_MIN 0.0 0.0 0.0
DOMAIN_MAX 1.0 1.0 1.0
0.000000 0.000000 0.000000
0.000000 0.000000 0.000000
0.047059 0.000000 0.000000
0.105882 0.000000 0.000000
0.196078 0.000000 0.000000
0.282353 0.000000 0.000000
0.364706 0.000000 0.000000
0.454902 0.000000 0.000000
0.541176 0.000000 0.000000
0.631373 0.000000 0.000000
0.737255 0.000000 0.000000
0.831373 0.000000 0.000000
0.917647 0.000000 0.000000
1.000000 0.000000 0.000000
1.000000 0.000000 0.000000
1.000000 0.000000 0.000000
0.000000 0.000000 0.000000
0.000000 0.000000 0.000000
0.027451 0.000000 0.000000
0.109804 0.000000 0.000000
0.196078 0.000000 0.000000
0.274510 0.000000 0.000000
0.372549 0.000000 0.000000
0.450980 0.000000 0.000000
0.529412 0.000000 0.000000
0.631373 0.000000 0.000000
0.725490 0.000000 0.000000
0.839216 0.000000 0.000000
0.921569 0.000000 0.000000
1.000000 0.000000 0.000000
1.000000 0.000000 0.000000
1.000000 0.000000 0.000000
0.000000 0.031373 0.000000
0.000000 0.031373 0.000000
0.023529 0.035294 0.000000
0.105882 0.027451 0.000000
0.196078 0.035294 0.000000
0.282353 0.031373 0.000000
0.360784 0.031373 0.000000
0.454902 0.031373 0.000000
0.529412 0.031373 0.000000
0.631373 0.027451 0.000000
0.737255 0.031373 0.000000
0.839216 0.027451 0.000000
0.921569 0.031373 0.000000
1.000000 0.027451 0.000000
1.000000 0.027451 0.000000
1.000000 0.031373 0.000000
0.000000 0.117647 0.000000
0.000000 0.113725 0.000000
0.015686 0.113725 0.000000
0.113725 0.117647 0.000000
0.192157 0.117647 0.000000
0.286275 0.113725 0.000000
0.364706 0.113725 0.000000
0.450980 0.109804 0.000000
0.541176 0.117647 0.000000
0.631373 0.117647 0.000000
0.733333 0.113725 0.000000
0.831373 0.117647 0.000000
0.917647 0.113725 0.000000
0.996078 0.113725 0.000000
1.000000 0.113725 0.000000
1.000000 0.113725 0.000000
0.000000 0.200000 0.000000
0.000000 0.207843 0.000000
0.027451 0.200000 0.000000
0.101961 0.203922 0.000000
0.196078 0.200000 0.000000
0.278431 0.200000 0.000000
0.360784 0.196078 0.000000
0.450980 0.203922 0.000000
0.537255 0.200000 0.000000
0.631373 0.200000 0.000000
0.733333 0.200000 0.000000
0.823529 0.200000 0.000000
0.917647 0.200000 0.000000
0.996078 0.200000 0.000000
1.000000 0.192157 0.000000
1.000000 0.200000 0.000000
0.000000 0.286275 0.000000
0.000000 0.286275 0.000000
0.027451 0.286275 0.000000
0.105882 0.286275 0.000000
0.192157 0.282353 0.000000
0.282353 0.290196 0.000000
0.368627 0.286275 0.000000
0.447059 0.282353 0.000000
0.529412 0.286275 0.000000
0.627451 0.282353 0.000000
0.725490 0.290196 0.000000
0.835294 0.278431 0.000000
0.913725 0.278431 0.000000
1.000000 0.286275 0.000000
1.000000 0.282353 0.000000
1.000000 0.278431 0.000000
0.000000 0.372549 0.000000
0.000000 0.372549 0.000000
0.019608 0.368627 0.000000
0.113725 0.376471 0.000000
0.192157 0.376471 0.000000
0.278431 0.368627 0.000000
0.360784 0.372549 0.000000
0.450980 0.364706 0.000000
0.525490 0.368627 0.000000
0.631373 0.364706 0.000000
0.729412 0.364706 0.000000
0.823529 0.360784 0.000000
0.917647 0.368627 0.000000
1.000000 0.364706 0.000000
1.000000 0.368627 0.000000
1.000000 0.368627 0.000000
0.000000 0.454902 0.000000
0.000000 0.450980 0.000000
0.023529 0.462745 0.000000
0.109804 0.454902 0.000000
0.188235 0.454902 0.000000
0.282353 0.450980 0.000000
0.360784 0.450980 0.000000
0.447059 0.454902 0.000000
0.533333 0.450980 0.000000
0.623529 0.450980 0.000000
0.733333 0.454902 0.000000
0.823529 0.454902 0.000000
0.913725 0.450980 0.000000
0.996078 0.450980 0.000000
1.000000 0.450980 0.000000
1.000000 0.447059 0.000000
0.000000 0.549020 0.000000
0.000000 0.545098 0.000000
0.023529 0.537255 0.000000
0.101961 0.545098 0.000000
0.192157 0.537255 0.000000
0.274510 0.537255 0.000000
0.360784 0.537255 0.000000
0.443137 0.537255 0.000000
0.525490 0.533333 0.000000
0.627451 0.541176 0.000000
0.729412 0.537255 0.000000
0.823529 0.537255 0.000000
0.917647 0.533333 0.000000
0.992157 0.533333 0.000000
1.000000 0.541176 0.000000
1.000000 0.529412 0.000000
0.011765 0.623529 0.000000
0.015686 0.627451 0.000000
0.035294 0.623529 0.000000
0.113725 0.623529 0.000000
0.203922 0.623529 0.000000
0.286275 0.623529 0.000000
0.364706 0.619608 0.000000
0.462745 0.627451 0.000000
0.541176 0.627451 0.000000
0.623529 0.619608 0.000000
0.721569 0.623529 0.000000
0.831373 0.615686 0.000000
0.913725 0.623529 0.000000
1.000000 0.615686 0.000000
1.000000 0.619608 0.000000
1.000000 0.619608 0.000000
0.027451 0.709804 0.000000
0.027451 0.709804 0.000000
0.043137 0.705882 0.000000
0.129412 0.709804 0.000000
0.211765 0.705882 0.000000
0.305882 0.713725 0.000000
0.384314 0.713725 0.000000
0.474510 0.701961 0.000000
0.552941 0.709804 0.000000
0.643137 0.701961 0.000000
0.725490 0.705882 0.000000
0.831373 0.701961 0.000000
0.913725 0.705882 0.000000
1.000000 0.701961 0.000000
1.000000 0.705882 0.000000
1.000000 0.705882 0.000000
0.043137 0.792157 0.000000
0.043137 0.796078 0.000000
0.058824 0.792157 0.000000
0.141176 0.788235 0.000000
0.231373 0.796078 0.000000
0.321569 0.788235 0.000000
0.400000 0.788235 0.000000
0.486275 0.792157 0.000000
0.572549 0.788235 0.000000
0.654902 0.792157 0.000000
0.745098 0.792157 0.000000
0.823529 0.792157 0.000000
0.913725 0.792157 0.000000
0.992157 0.792157 0.000000
1.000000 0.788235 0.000000
1.000000 0.788235 0.000000
0.043137 0.878431 0.000000
0.043137 0.878431 0.000000
0.066667 0.878431 0.000000
0.141176 0.882353 0.000000
0.231373 0.874510 0.000000
0.317647 0.878431 0.000000
0.400000 0.874510 0.000000
0.482353 0.874510 0.000000
0.576471 0.878431 0.000000
0.654902 0.878431 0.000000
0.745098 0.878431 0.000000
0.823529 0.878431 0.000000
0.913725 0.870588 0.000000
0.992157 0.874510 0.000000
1.000000 0.874510 0.000000
1.000000 0.870588 0.000000
0.043137 0.956863 0.000000
0.043137 0.964706 0.000000
0.062745 0.960784 0.000000
0.149020 0.964706 0.000000
0.231373 0.960784 0.000000
0.313725 0.960784 0.000000
0.400000 0.968627 0.000000
0.486275 0.964706 0.000000
0.564706 0.960784 0.000000
0.654902 0.964706 0.000000
0.733333 0.960784 0.000000
0.827451 0.952941 0.000000
0.909804 0.960784 0.000000
0.996078 0.952941 0.000000
1.000000 0.960784 0.000000
1.000000 0.952941 0.000000
0.043137 1.000000 0.000000
0.043137 1.000000 0.000000
0.058824 1.000000 0.000000
0.141176 1.000000 0.000000
0.223529 1.000000 0.000000
0.317647 1.000000 0.000000
0.396078 1.000000 0.000000
0.490196 1.000000 0.000000
0.564706 1.000000 0.000000
0.654902 1.000000 0.000000
0.741176 1.000000 0.000000
0.827451 1.000000 0.000000
0.905882 1.000000 0.000000
0.992157 1.000000 0.000000
1.000000 1.000000 0.000000
1.000000 1.000000 0.000000
0.043137 1.000000 0.000000
0.043137 1.000000 0.000000
0.054902 1.000000 0.000000
0.149020 1.000000 0.000000
0.227451 1.000000 0.000000
0.305882 1.000000 0.000000
0.403922 1.000000 0.000000
0.482353 1.000000 0.000000
0.568627 1.000000 0.000000
0.650980 1.000000 0.000000
0.737255 1.000000 0.000000
0.823529 1.000000 0.000000
0.909804 1.000000 0.000000
0.988235 1.000000 0.000000
1.000000 1.000000 0.000000
1.000000 1.000000 0.000000
0.000000 0.000000 0.000000
0.000000 0.000000 0.000000
0.035294 0.000000 0.000000
0.113725 0.000000 0.000000
0.196078 0.000000 0.000000
0.278431 0.000000 0.000000
0.372549 0.000000 0.000000
0.450980 0.000000 0.000000
0.541176 0.000000 0.000000
0.635294 0.000000 0.000000
0.729412 0.000000 0.000000
0.839216 0.000000 0.000000
0.917647 0.000000 0.000000
1.000000 0.000000 0.000000
1.000000 0.000000 0.000000
1.000000 0.000000 0.000000
0.000000 0.000000 0.000000
0.000000 0.000000 0.000000
0.023529 0.000000 0.000000
0.113725 0.000000 0.000000
0.192157 0.000000 0.000000
0.282353 0.000000 0.000000
0.360784 0.000000 0.000000
0.450980 0.000000 0.000000
0.533333 0.000000 0.000000
0.643137 0.000000 0.000000
0.733333 0.000000 0.000000
0.835294 0.000000 0.000000
0.917647 0.000000 0.000000
1.000000 0.000000 0.000000
1.000000 0.000000 0.000000
1.000000 0.000000 0.000000
0.000000 0.039216 0.000000
0.000000 0.031373 0.000000
0.027451 0.035294 0.000000
0.113725 0.031373 0.000000
0.192157 0.031373 0.000000
0.282353 0.031373 0.000000
0.364706 0.031373 0.000000
0.447059 0.023529 0.000000
0.537255 0.035294 0.000000
0.627451 0.035294 0.000000
0.729412 0.031373 0.000000
0.823529 0.031373 0.000000
0.921569 0.027451 0.000000
1.000000 0.027451 0.000000
1.000000 0.023529 0.000000
1.000000 0.023529 0.000000
0.000000 0.117647 0.000000
0.000000 0.121569 0.000000
0.023529 0.113725 0.000000
0.101961 0.113725 0.000000
0.192157 0.113725 0.000000
0.274510 0.113725 0.000000
0.368627 0.117647 0.000000
0.447059 0.117647 0.000000
0.537255 0.113725 0.000000
0.627451 0.117647 0.000000
0.733333 0.113725 0.000000
0.831373 0.109804 0.000000
0.921569 0.109804 0.000000
1.000000 0.109804 0.000000
1.000000 0.109804 0.000000
1.000000 0.113725 0.000000
0.000000 0.200000 0.000000
0.000000 0.200000 0.000000
0.023529 0.200000 0.000000
0.105882 0.200000 0.000000
0.188235 0.196078 0.000000
0.278431 0.203922 0.000000
0.368627 0.196078 0.000000
0.454902 0.200000 0.000000
0.537255 0.196078 0.000000
0.631373 0.196078 0.000000
0.729412 0.200000 0.000000
0.831373 0.196078 0.000000
0.913725 0.200000 0.000000
1.000000 0.200000 0.000000
1.000000 0.200000 0.000000
1.000000 0.196078 0.000000
0.000000 0.286275 0.000000
0.000000 0.286275 0.000000
0.015686 0.286275 0.000000
0.113725 0.290196 0.000000
0.188235 0.290196 0.000000
0.278431 0.282353 0.000000
0.364706 0.286275 0.000000
0.447059 0.282353 0.000000
0.529412 0.282353 0.000000
0.631373 0.282353 0.000000
0.729412 0.282353 0.000000
0.835294 0.286275 0.000000
0.913725 0.286275 0.000000
1.000000 0.282353 0.000000
1.000000 0.286275 0.000000
1.000000 0.278431 0.000000
0.000000 0.372549 0.000000
0.000000 0.364706 0.000000
0.023529 0.372549 0.000000
0.109804 0.368627 0.000000
0.196078 0.372549 0.000000
0.278431 0.368627 0.000000
0.360784 0.364706 0.000000
0.447059 0.368627 0.000000
0.533333 0.368627 0.000000
0.623529 0.368627 0.000000
0.729412 0.368627 0.000000
0.819608 0.372549 0.000000
0.917647 0.360784 0.000000
1.000000 0.364706 0.000000
1.000000 0.364706 0.000000
1.000000 0.368627 0.000000
0.000000 0.458824 0.000000
0.000000 0.458824 0.000000
0.019608 0.454902 0.000000
0.105882 0.458824 0.000000
0.188235 0.450980 0.000000
0.270588 0.450980 0.000000
0.364706 0.454902 0.000000
0.443137 0.454902 0.000000
0.537255 0.454902 0.000000
0.623529 0.454902 0.000000
0.729412 0.447059 0.000000
0.831373 0.450980 0.000000
0.917647 0.447059 0.000000
0.996078 0.447059 0.000000
1.000000 0.450980 0.000000
1.000000 0.450980 0.000000
0.000000 0.541176 0.000000
0.000000 0.541176 0.000000
0.019608 0.537255 0.000000
0.101961 0.537255 0.000000
0.196078 0.541176 0.000000
0.274510 0.541176 0.000000
0.364706 0.533333 0.000000
0.450980 0.541176 0.000000
0.529412 0.537255 0.000000
0.631373 0.537255 0.000000
0.725490 0.537255 0.000000
0.823529 0.533333 0.000000
0.913725 0.541176 0.000000
1.000000 0.537255 0.000000
1.000000 0.533333 0.000000
1.000000 0.537255 0.000000
0.015686 0.627451 0.000000
0.011765 0.623529 0.000000
0.035294 0.631373 0.000000
0.121569 0.623529 0.000000
0.200000 0.627451 0.000000
0.294118 0.627451 0.000000
0.372549 0.623529 0.000000
0.454902 0.619608 0.000000
0.541176 0.623529 0.000000
0.627451 0.619608 0.000000
0.721569 0.615686 0.000000
0.831373 0.623529 0.000000
0.909804 0.619608 0.000000
1.000000 0.619608 0.000000
1.000000 0.619608 0.000000
1.000000 0.623529 0.000000
0.027451 0.709804 0.000000
0.027451 0.709804 0.000000
0.047059 0.709804 0.000000
0.133333 0.705882 0.000000
0.219608 0.709804 0.000000
0.301961 0.705882 0.000000
0.388235 0.709804 0.000000
0.466667 0.709804 0.000000
0.552941 0.701961 0.000000
0.639216 0.713725 0.000000
0.725490 0.705882 0.000000
0.815686 0.705882 0.000000
0.917647 0.705882 0.000000
0.996078 0.705882 0.000000
1.000000 0.698039 0.000000
1.000000 0.701961 0.000000
0.043137 0.796078 0.000000
0.043137 0.792157 0.000000
0.062745 0.796078 0.000000
0.145098 0.792157 0.000000
0.227451 0.792157 0.000000
0.313725 0.796078 0.000000
0.400000 0.788235 0.000000
0.478431 0.788235 0.000000
0.576471 0.788235 0.000000
0.650980 0.792157 0.000000
0.749020 0.792157 0.000000
0.827451 0.792157 0.000000
0.913725 0.784314 0.000000
0.996078 0.788235 0.000000
1.000000 0.784314 0.000000
1.000000 0.784314 0.000000
0.043137 0.882353 0.000000
0.043137 0.878431 0.000000
0.058824 0.878431 0.000000
0.145098 0.878431 0.000000
0.227451 0.874510 0.000000
0.309804 0.874510 0.000000
0.407843 0.874510 0.000000
0.490196 0.874510 0.000000
0.568627 0.874510 0.000000
0.658824 0.878431 0.000000
0.737255 0.874510 0.000000
0.827451 0.874510 0.000000
0.905882 0.874510 0.000000
0.992157 0.870588 0.000000
1.000000 0.878431 0.000000
1.000000 0.874510 0.000000
0.043137 0.964706 0.000000
0.043137 0.960784 0.000000
0.054902 0.964706 0.000000
0.145098 0.956863 0.000000
0.227451 0.968627 0.000000
0.317647 0.960784 0.000000
0.400000 0.960784 0.000000
0.490196 0.960784 0.000000
0.568627 0.960784 0.000000
0.654902 0.956863 0.000000
0.737255 0.960784 0.000000
0.823529 0.956863 0.000000
0.905882 0.960784 0.000000
1.000000 0.956863 0.000000
1.000000 0.956863 0.000000
1.000000 0.964706 0.000000
0.043137 1.000000 0.000000
0.043137 1.000000 0.000000
0.054902 1.000000 0.000000
0.149020 1.000000 0.000000
0.231373 1.000000 0.000000
0.313725 1.000000 0.000000
0.400000 1.000000 0.000000
0.478431 1.000000 0.000000
0.568627 1.000000 0.000000
0.647059 1.000000 0.000000
0.737255 1.000000 0.000000
0.819608 1.000000 0.000000
0.913725 1.000000 0.000000
0.992157 1.000000 0.000000
1.000000 1.000000 0.000000
1.000000 1.000000 0.000000
0.043137 1.000000 0.000000
0.043137 1.000000 0.000000
0.058824 1.000000 0.000000
0.141176 1.000000 0.000000
0.231373 1.000000 0.000000
0.309804 1.000000 0.000000
0.396078 1.000000 0.000000
0.478431 1.000000 0.000000
0.572549 1.000000 0.000000
0.650980 1.000000 0.000000
0.745098 1.000000 0.000000
0.823529 1.000000 0.000000
0.913725 1.000000 0.000000
0.992157 1.000000 0.000000
1.000000 1.000000 0.000000
1.000000 1.000000 0.000000
0.000000 0.000000 0.078431
0.000000 0.000000 0.047059
0.031373 0.000000 0.027451
0.109804 0.000000 0.015686
0.196078 0.000000 0.027451
0.278431 0.000000 0.019608
0.364706 0.000000 0.023529
0.450980 0.000000 0.015686
0.533333 0.000000 0.027451
0.635294 0.000000 0.015686
0.729412 0.000000 0.011765
0.835294 0.000000 0.000000
0.921569 0.000000 0.000000
1.000000 0.000000 0.000000
1.000000 0.000000 0.000000
1.000000 0.000000 0.000000
0.000000 0.000000 0.027451
0.000000 0.000000 0.015686
0.027451 0.000000 0.027451
0.109804 0.000000 0.019608
0.188235 0.000000 0.019608
0.278431 0.000000 0.015686
0.364706 0.000000 0.027451
0.454902 0.000000 0.019608
0.541176 0.000000 0.031373
0.635294 0.000000 0.011765
0.737255 0.000000 0.003922
0.831373 0.000000 0.000000
0.917647 0.000000 0.000000
1.000000 0.000000 0.000000
1.000000 0.000000 0.000000
1.000000 0.000000 0.000000
0.000000 0.031373 0.023529
0.000000 0.031373 0.027451
0.019608 0.031373 0.019608
0.105882 0.035294 0.015686
0.200000 0.031373 0.027451
0.274510 0.035294 0.019608
0.368627 0.031373 0.031373
0.450980 0.031373 0.019608
0.533333 0.027451 0.019608
0.635294 0.031373 0.003922
0.737255 0.027451 0.003922
0.827451 0.027451 0.000000
0.921569 0.031373 0.000000
1.000000 0.031373 0.000000
1.000000 0.031373 0.000000
1.000000 0.031373 0.000000
0.000000 0.117647 0.019608
0.000000 0.113725 0.027451
0.031373 0.117647 0.027451
0.109804 0.117647 0.027451
0.200000 0.117647 0.031373
0.282353 0.117647 0.019608
0.364706 0.113725 0.019608
0.450980 0.117647 0.015686
0.537255 0.113725 0.023529
0.631373 0.113725 0.003922
0.733333 0.121569 0.003922
0.831373 0.117647 0.000000
0.909804 0.113725 0.000000
1.000000 0.113725 0.000000
1.000000 0.109804 0.000000
1.000000 0.113725 0.000000
0.000000 0.203922 0.027451
0.000000 0.203922 0.027451
0.019608 0.203922 0.023529
0.109804 0.203922 0.027451
0.192157 0.203922 0.019608
0.274510 0.196078 0.027451
0.360784 0.200000 0.023529
0.447059 0.196078 0.023529
0.537255 0.207843 0.023529
0.639216 0.200000 0.000000
0.729412 0.200000 0.000000
0.839216 0.200000 0.000000
0.917647 0.196078 0.000000
1.000000 0.192157 0.000000
1.000000 0.196078 0.000000
1.000000 0.192157 0.000000
0.000000 0.286275 0.023529
0.000000 0.286275 0.027451
0.023529 0.290196 0.019608
0.105882 0.282353 0.027451
0.192157 0.286275 0.023529
0.274510 0.282353 0.023529
0.356863 0.282353 0.011765
0.454902 0.282353 0.027451
0.541176 0.282353 0.019608
0.635294 0.278431 0.007843
0.737255 0.282353 0.003922
0.827451 0.282353 0.000000
0.917647 0.282353 0.000000
0.996078 0.282353 0.000000
1.000000 0.278431 0.000000
1.000000 0.286275 0.000000
0.000000 0.376471 0.019608
0.000000 0.368627 0.027451
0.015686 0.368627 0.019608
0.101961 0.372549 0.023529
0.192157 0.364706 0.011765
0.274510 0.376471 0.027451
0.364706 0.368627 0.019608
0.447059 0.368627 0.019608
0.541176 0.368627 0.019608
0.631373 0.368627 0.011765
0.729412 0.364706 0.000000
0.827451 0.364706 0.000000
0.913725 0.364706 0.000000
1.000000 0.372549 0.000000
1.000000 0.368627 0.000000
1.000000 0.368627 0.000000
0.000000 0.454902 0.019608
0.000000 0.458824 0.023529
0.023529 0.450980 0.011765
0.101961 0.450980 0.019608
0.196078 0.454902 0.019608
0.278431 0.454902 0.019608
0.364706 0.454902 0.023529
0.447059 0.454902 0.023529
0.529412 0.450980 0.011765
0.631373 0.450980 0.011765
0.721569 0.450980 0.000000
0.823529 0.447059 0.000000
0.909804 0.458824 0.000000
1.000000 0.447059 0.000000
1.000000 0.447059 0.000000
1.000000 0.450980 0.000000
0.000000 0.537255 0.011765
0.000000 0.537255 0.019608
0.027451 0.545098 0.015686
0.109804 0.541176 0.015686
0.192157 0.541176 0.015686
0.282353 0.541176 0.019608
0.356863 0.541176 0.011765
0.443137 0.533333 0.019608
0.525490 0.537255 0.015686
0.631373 0.529412 0.003922
0.725490 0.545098 0.000000
0.835294 0.533333 0.000000
0.913725 0.533333 0.000000
1.000000 0.533333 0.000000
1.000000 0.533333 0.000000
1.000000 0.529412 0.000000
0.011765 0.623529 0.003922
0.015686 0.627451 0.011765
0.035294 0.623529 0.007843
0.125490 0.623529 0.011765
0.203922 0.627451 0.000000
0.286275 0.619608 0.007843
0.372549 0.623529 0.003922
0.462745 0.615686 0.003922
0.549020 0.623529 0.000000
0.635294 0.623529 0.011765
0.729412 0.619608 0.000000
0.823529 0.619608 0.000000
0.913725 0.619608 0.000000
0.992157 0.619608 0.000000
1.000000 0.623529 0.000000
1.000000 0.623529 0.000000
0.027451 0.709804 0.007843
0.027451 0.709804 0.000000
0.050980 0.713725 0.000000
0.129412 0.709804 0.000000
0.215686 0.701961 0.000000
0.298039 0.709804 0.000000
0.392157 0.709804 0.000000
0.478431 0.709804 0.003922
0.564706 0.705882 0.000000
0.643137 0.705882 0.000000
0.733333 0.705882 0.000000
0.823529 0.705882 0.000000
0.909804 0.701961 0.000000
0.996078 0.705882 0.000000
1.000000 0.701961 0.000000
1.000000 0.709804 0.000000
0.043137 0.796078 0.000000
0.043137 0.796078 0.000000
0.062745 0.788235 0.000000
0.145098 0.792157 0.000000
0.235294 0.792157 0.000000
0.317647 0.792157 0.000000
0.403922 0.792157 0.000000
0.486275 0.792157 0.000000
0.568627 0.796078 0.000000
0.654902 0.792157 0.000000
0.733333 0.792157 0.000000
0.827451 0.792157 0.000000
0.905882 0.796078 0.000000
1.000000 0.788235 0.000000
1.000000 0.792157 0.000000
1.000000 0.784314 0.000000
0.043137 0.874510 0.000000
0.043137 0.878431 0.000000
0.062745 0.878431 0.000000
0.145098 0.878431 0.000000
0.231373 0.882353 0.000000
0.317647 0.878431 0.000000
0.396078 0.874510 0.000000
0.486275 0.878431 0.000000
0.564706 0.878431 0.000000
0.654902 0.866667 0.000000
0.737255 0.878431 0.000000
0.831373 0.874510 0.000000
0.913725 0.878431 0.000000
1.000000 0.870588 0.000000
1.000000 0.870588 0.000000
1.000000 0.874510 0.000000
0.043137 0.964706 0.000000
0.043137 0.964706 0.000000
0.058824 0.960784 0.000000
0.145098 0.964706 0.000000
0.227451 0.960784 0.000000
0.317647 0.960784 0.000000
0.396078 0.960784 0.000000
0.486275 0.952941 0.000000
0.576471 0.964706 0.000000
0.654902 0.960784 0.000000
0.741176 0.960784 0.000000
0.823529 0.960784 0.000000
0.909804 0.956863 0.000000
0.988235 0.956863 0.000000
1.000000 0.956863 0.000000
1.000000 0.956863 0.000000
0.043137 1.000000 0.000000
0.043137 1.000000 0.000000
0.058824 1.000000 0.000000
0.137255 1.000000 0.000000
0.231373 1.000000 0.000000
0.305882 1.000000 0.000000
0.407843 1.000000 0.000000
0.486275 1.000000 0.000000
0.572549 1.000000 0.000000
0.654902 1.000000 0.000000
0.741176 1.000000 0.000000
0.819608 1.000000 0.000000
0.909804 1.000000 0.000000
0.988235 1.000000 0.000000
1.000000 1.000000 0.000000
1.000000 1.000000 0.000000
0.043137 1.000000 0.000000
0.043137 1.000000 0.000000
0.062745 1.000000 0.000000
0.141176 1.000000 0.000000
0.227451 1.000000 0.000000
0.317647 1.000000 0.000000
0.400000 1.000000 0.000000
0.482353 1.000000 0.000000
0.564706 1.000000 0.000000
0.650980 1.000000 0.000000
0.733333 1.000000 0.000000
0.819608 1.000000 0.000000
0.898039 1.000000 0.000000
1.000000 1.000000 0.000000
1.000000 1.000000 0.000000
1.000000 1.000000 0.000000
0.000000 0.000000 0.141176
0.000000 0.000000 0.125490
0.023529 0.000000 0.105882
0.113725 0.000000 0.113725
0.192157 0.000000 0.105882
0.286275 0.000000 0.113725
0.364706 0.000000 0.105882
0.454902 0.000000 0.117647
0.537255 0.000000 0.105882
0.631373 0.000000 0.098039
0.733333 0.000000 0.082353
0.835294 0.000000 0.082353
0.913725 0.000000 0.074510
1.000000 0.000000 0.090196
1.000000 0.000000 0.078431
1.000000 0.000000 0.078431
0.000000 0.000000 0.105882
0.000000 0.000000 0.113725
0.023529 0.000000 0.105882
0.117647 0.000000 0.113725
0.196078 0.000000 0.105882
0.278431 0.000000 0.109804
0.368627 0.000000 0.105882
0.447059 0.000000 0.105882
0.529412 0.000000 0.098039
0.627451 0.000000 0.101961
0.729412 0.000000 0.082353
0.831373 0.000000 0.090196
0.925490 0.000000 0.078431
1.000000 0.000000 0.078431
1.000000 0.000000 0.074510
1.000000 0.000000 0.082353
0.000000 0.027451 0.113725
0.000000 0.039216 0.113725
0.027451 0.035294 0.105882
0.105882 0.031373 0.109804
0.196078 0.035294 0.105882
0.278431 0.031373 0.105882
0.360784 0.031373 0.098039
0.447059 0.031373 0.109804
0.541176 0.027451 0.098039
0.639216 0.027451 0.101961
0.741176 0.027451 0.082353
0.835294 0.027451 0.078431
0.917647 0.031373 0.074510
1.000000 0.027451 0.082353
1.000000 0.027451 0.074510
1.000000 0.031373 0.082353
0.000000 0.117647 0.121569
0.000000 0.117647 0.109804
0.023529 0.113725 0.109804
0.109804 0.117647 0.105882
0.188235 0.117647 0.098039
0.282353 0.113725 0.109804
0.356863 0.117647 0.101961
0.454902 0.113725 0.109804
0.552941 0.117647 0.094118
0.654902 0.113725 0.086275
0.745098 0.113725 0.070588
0.835294 0.113725 0.082353
0.913725 0.113725 0.074510
1.000000 0.109804 0.070588
1.000000 0.117647 0.074510
1.000000 0.113725 0.078431
0.000000 0.203922 0.109804
0.000000 0.203922 0.105882
0.019608 0.203922 0.113725
0.109804 0.196078 0.105882
0.192157 0.200000 0.109804
0.282353 0.200000 0.113725
0.360784 0.200000 0.101961
0.454902 0.200000 0.105882
0.549020 0.200000 0.086275
0.654902 0.200000 0.090196
0.745098 0.200000 0.074510
0.823529 0.196078 0.070588
0.917647 0.203922 0.074510
0.996078 0.200000 0.078431
1.000000 0.196078 0.070588
1.000000 0.196078 0.082353
0.000000 0.286275 0.113725
0.000000 0.282353 0.105882
0.023529 0.286275 0.109804
0.109804 0.290196 0.113725
0.192157 0.286275 0.109804
0.278431 0.290196 0.105882
0.364706 0.282353 0.113725
0.443137 0.282353 0.105882
0.549020 0.282353 0.098039
0.639216 0.282353 0.078431
0.756863 0.286275 0.074510
0.827451 0.286275 0.078431
0.921569 0.282353 0.070588
1.000000 0.282353 0.082353
1.000000 0.278431 0.074510
1.000000 0.278431 0.074510
0.000000 0.368627 0.101961
0.000000 0.376471 0.113725
0.023529 0.368627 0.109804
0.109804 0.376471 0.105882
0.192157 0.368627 0.113725
0.274510 0.368627 0.105882
0.364706 0.368627 0.109804
0.443137 0.368627 0.098039
0.549020 0.360784 0.094118
0.654902 0.368627 0.086275
0.749020 0.364706 0.078431
0.831373 0.364706 0.078431
0.913725 0.368627 0.074510
1.000000 0.364706 0.074510
