public/luts/ete.cube
# Studiio — look « ete », genere par scripts/lut/generer-luts.mjs
# Source : les coefficients de LOOKS_RENDUS, calcules par ffmpeg lui-meme.
# Aucune LUT tierce, aucun telechargement : provenance et licence du depot.
LUT_3D_SIZE 16
DOMAIN_MIN 0.0 0.0 0.0
DOMAIN_MAX 1.0 1.0 1.0
0.000000 0.000000 0.035294
0.050980 0.000000 0.035294
0.141176 0.000000 0.035294
0.207843 0.000000 0.035294
0.294118 0.000000 0.023529
0.372549 0.000000 0.011765
0.458824 0.000000 0.000000
0.537255 0.000000 0.000000
0.635294 0.011765 0.000000
0.709804 0.019608 0.000000
0.807843 0.031373 0.000000
0.890196 0.035294 0.000000
0.972549 0.035294 0.000000
1.000000 0.035294 0.000000
1.000000 0.035294 0.000000
1.000000 0.035294 0.000000
0.000000 0.062745 0.035294
0.047059 0.058824 0.035294
0.129412 0.054902 0.035294
0.211765 0.058824 0.035294
0.294118 0.050980 0.023529
0.368627 0.047059 0.011765
0.458824 0.047059 0.000000
0.529412 0.043137 0.000000
0.611765 0.047059 0.000000
0.713725 0.058824 0.000000
0.800000 0.062745 0.000000
0.886275 0.074510 0.000000
0.960784 0.066667 0.000000
1.000000 0.062745 0.000000
1.000000 0.058824 0.000000
1.000000 0.066667 0.000000
0.000000 0.141176 0.035294
0.047059 0.137255 0.035294
0.125490 0.137255 0.035294
0.207843 0.129412 0.035294
0.286275 0.137255 0.023529
0.364706 0.125490 0.011765
0.439216 0.121569 0.003922
0.529412 0.121569 0.000000
0.607843 0.125490 0.000000
0.701961 0.137255 0.000000
0.796078 0.145098 0.000000
0.882353 0.145098 0.000000
0.964706 0.141176 0.000000
1.000000 0.133333 0.000000
1.000000 0.137255 0.000000
1.000000 0.137255 0.000000
0.000000 0.219608 0.035294
0.043137 0.211765 0.035294
0.113725 0.207843 0.035294
0.203922 0.207843 0.035294
0.278431 0.203922 0.023529
0.368627 0.203922 0.011765
0.435294 0.200000 0.003922
0.521569 0.196078 0.000000
0.607843 0.203922 0.000000
0.698039 0.215686 0.000000
0.792157 0.215686 0.000000
0.870588 0.223529 0.000000
0.952941 0.219608 0.000000
1.000000 0.215686 0.000000
1.000000 0.215686 0.000000
1.000000 0.211765 0.000000
0.000000 0.294118 0.023529
0.035294 0.294118 0.023529
0.113725 0.286275 0.023529
0.188235 0.286275 0.023529
0.274510 0.286275 0.023529
0.352941 0.282353 0.015686
0.435294 0.274510 0.003922
0.517647 0.278431 0.000000
0.603922 0.274510 0.000000
0.690196 0.290196 0.000000
0.788235 0.298039 0.000000
0.866667 0.298039 0.000000
0.956863 0.298039 0.000000
1.000000 0.294118 0.000000
1.000000 0.290196 0.000000
1.000000 0.290196 0.000000
0.000000 0.368627 0.011765
0.023529 0.368627 0.011765
0.109804 0.368627 0.011765
0.188235 0.364706 0.011765
0.270588 0.356863 0.015686
0.352941 0.360784 0.011765
0.435294 0.352941 0.003922
0.501961 0.349020 0.000000
0.596078 0.360784 0.000000
0.682353 0.356863 0.000000
0.784314 0.380392 0.000000
0.862745 0.376471 0.000000
0.941176 0.376471 0.000000
1.000000 0.372549 0.000000
1.000000 0.364706 0.000000
1.000000 0.364706 0.000000
0.000000 0.447059 0.000000
0.027451 0.447059 0.000000
0.101961 0.443137 0.003922
0.192157 0.443137 0.003922
0.258824 0.439216 0.003922
0.341176 0.431373 0.003922
0.423529 0.435294 0.003922
0.505882 0.427451 0.000000
0.580392 0.435294 0.000000
0.678431 0.439216 0.000000
0.768627 0.450980 0.000000
0.858824 0.447059 0.000000
0.937255 0.447059 0.000000
1.000000 0.443137 0.000000
1.000000 0.447059 0.000000
1.000000 0.447059 0.000000
0.000000 0.525490 0.000000
0.019608 0.517647 0.000000
0.098039 0.525490 0.000000
0.176471 0.513725 0.000000
0.258824 0.513725 0.000000
0.341176 0.509804 0.000000
0.415686 0.513725 0.000000
0.494118 0.509804 0.000000
0.584314 0.509804 0.000000
0.670588 0.513725 0.000000
0.768627 0.525490 0.000000
0.847059 0.533333 0.000000
0.929412 0.525490 0.000000
1.000000 0.529412 0.000000
1.000000 0.521569 0.000000
1.000000 0.517647 0.000000
0.007843 0.615686 0.000000
0.015686 0.607843 0.000000
0.101961 0.603922 0.000000
0.176471 0.607843 0.000000
0.258824 0.603922 0.000000
0.333333 0.596078 0.000000
0.423529 0.596078 0.000000
0.494118 0.584314 0.000000
0.576471 0.580392 0.000000
0.666667 0.596078 0.000000
0.756863 0.600000 0.000000
0.850980 0.611765 0.000000
0.929412 0.603922 0.000000
1.000000 0.603922 0.000000
1.000000 0.603922 0.000000
1.000000 0.592157 0.000000
0.019608 0.698039 0.000000
0.023529 0.701961 0.000000
0.109804 0.698039 0.000000
0.184314 0.690196 0.000000
0.274510 0.690196 0.000000
0.345098 0.682353 0.000000
0.411765 0.678431 0.000000
0.501961 0.678431 0.000000
0.576471 0.674510 0.000000
0.662745 0.670588 0.000000
0.752941 0.682353 0.000000
0.843137 0.686275 0.000000
0.921569 0.686275 0.000000
1.000000 0.674510 0.000000
1.000000 0.678431 0.000000
1.000000 0.670588 0.000000
0.031373 0.792157 0.000000
0.031373 0.784314 0.000000
0.105882 0.776471 0.000000
0.192157 0.776471 0.000000
0.262745 0.772549 0.000000
0.352941 0.772549 0.000000
0.427451 0.768627 0.000000
0.513725 0.764706 0.000000
0.584314 0.768627 0.000000
0.670588 0.760784 0.000000
0.745098 0.756863 0.000000
0.839216 0.760784 0.000000
0.917647 0.760784 0.000000
1.000000 0.749020 0.000000
1.000000 0.756863 0.000000
1.000000 0.752941 0.000000
0.035294 0.866667 0.000000
0.039216 0.866667 0.000000
0.105882 0.862745 0.000000
0.192157 0.858824 0.000000
0.270588 0.858824 0.000000
0.356863 0.854902 0.000000
0.427451 0.854902 0.000000
0.509804 0.854902 0.000000
0.592157 0.847059 0.000000
0.670588 0.847059 0.000000
0.756863 0.843137 0.000000
0.823529 0.839216 0.000000
0.913725 0.839216 0.000000
0.988235 0.835294 0.000000
1.000000 0.831373 0.000000
1.000000 0.827451 0.000000
0.035294 0.945098 0.000000
0.035294 0.945098 0.000000
0.109804 0.941176 0.000000
0.180392 0.945098 0.000000
0.262745 0.933333 0.000000
0.345098 0.937255 0.000000
0.427451 0.929412 0.000000
0.501961 0.925490 0.000000
0.592157 0.925490 0.000000
0.658824 0.921569 0.000000
0.749020 0.921569 0.000000
0.823529 0.917647 0.000000
0.909804 0.913725 0.000000
0.984314 0.913725 0.000000
1.000000 0.909804 0.000000
1.000000 0.905882 0.000000
0.035294 1.000000 0.000000
0.035294 1.000000 0.000000
0.101961 1.000000 0.000000
0.184314 1.000000 0.000000
0.266667 1.000000 0.000000
0.341176 1.000000 0.000000
0.415686 1.000000 0.000000
0.498039 1.000000 0.000000
0.576471 1.000000 0.000000
0.662745 1.000000 0.000000
0.741176 0.996078 0.000000
0.815686 0.992157 0.000000
0.894118 0.992157 0.000000
0.980392 0.988235 0.000000
1.000000 0.988235 0.000000
1.000000 0.980392 0.000000
0.035294 1.000000 0.000000
0.035294 1.000000 0.000000
0.094118 1.000000 0.000000
0.176471 1.000000 0.000000
0.250980 1.000000 0.000000
0.333333 1.000000 0.000000
0.415686 1.000000 0.000000
0.498039 1.000000 0.000000
0.572549 1.000000 0.000000
0.654902 1.000000 0.000000
0.733333 1.000000 0.000000
0.819608 1.000000 0.000000
0.894118 1.000000 0.000000
0.968627 1.000000 0.000000
1.000000 1.000000 0.000000
1.000000 1.000000 0.000000
0.035294 1.000000 0.000000
0.035294 1.000000 0.000000
0.086275 1.000000 0.000000
0.172549 1.000000 0.000000
0.250980 1.000000 0.000000
0.325490 1.000000 0.000000
0.411765 1.000000 0.000000
0.486275 1.000000 0.000000
0.564706 1.000000 0.000000
0.647059 1.000000 0.000000
0.729412 1.000000 0.000000
0.807843 1.000000 0.000000
0.886275 1.000000 0.000000
0.968627 1.000000 0.000000
1.000000 1.000000 0.000000
1.000000 1.000000 0.000000
0.000000 0.000000 0.090196
0.058824 0.000000 0.090196
0.137255 0.000000 0.082353
0.215686 0.000000 0.086275
0.298039 0.000000 0.062745
0.372549 0.000000 0.050980
0.462745 0.000000 0.035294
0.529412 0.000000 0.039216
0.631373 0.011765 0.023529
0.713725 0.019608 0.007843
0.803922 0.031373 0.000000
0.894118 0.035294 0.000000
0.960784 0.035294 0.000000
1.000000 0.035294 0.000000
1.000000 0.035294 0.000000
1.000000 0.035294 0.000000
0.000000 0.054902 0.090196
0.054902 0.062745 0.086275
0.129412 0.058824 0.074510
0.207843 0.050980 0.070588
0.286275 0.058824 0.054902
0.368627 0.047059 0.047059
0.447059 0.047059 0.031373
0.537255 0.043137 0.031373
0.623529 0.054902 0.011765
0.717647 0.058824 0.000000
0.800000 0.070588 0.000000
0.886275 0.066667 0.000000
0.964706 0.066667 0.000000
1.000000 0.058824 0.000000
1.000000 0.058824 0.000000
1.000000 0.062745 0.000000
0.000000 0.141176 0.090196
0.047059 0.133333 0.074510
0.121569 0.137255 0.086275
0.203922 0.129412 0.070588
0.282353 0.129412 0.050980
0.368627 0.125490 0.043137
0.447059 0.125490 0.027451
0.529412 0.113725 0.023529
0.611765 0.129412 0.011765
0.705882 0.141176 0.000000
0.792157 0.141176 0.000000
0.882353 0.145098 0.000000
0.956863 0.141176 0.000000
1.000000 0.141176 0.000000
1.000000 0.137255 0.000000
1.000000 0.129412 0.000000
0.000000 0.215686 0.082353
0.035294 0.215686 0.066667
0.121569 0.211765 0.066667
0.196078 0.203922 0.062745
0.286275 0.203922 0.054902
0.352941 0.203922 0.035294
0.439216 0.200000 0.031373
0.517647 0.200000 0.019608
0.607843 0.200000 0.000000
0.694118 0.215686 0.000000
0.788235 0.219608 0.000000
0.870588 0.219608 0.000000
0.956863 0.219608 0.000000
1.000000 0.211765 0.000000
1.000000 0.207843 0.000000
1.000000 0.211765 0.000000
0.000000 0.294118 0.062745
0.031373 0.290196 0.050980
0.121569 0.290196 0.054902
0.192157 0.286275 0.043137
0.270588 0.278431 0.047059
0.356863 0.282353 0.031373
0.435294 0.270588 0.023529
0.513725 0.278431 0.019608
0.607843 0.282353 0.007843
0.694118 0.290196 0.000000
0.784314 0.301961 0.000000
0.870588 0.294118 0.000000
0.941176 0.298039 0.000000
1.000000 0.294118 0.000000
1.000000 0.290196 0.000000
1.000000 0.282353 0.000000
0.000000 0.372549 0.047059
0.027451 0.368627 0.031373
0.101961 0.364706 0.031373
0.192157 0.364706 0.031373
0.262745 0.360784 0.035294
0.345098 0.356863 0.027451
0.427451 0.352941 0.019608
0.509804 0.352941 0.011765
0.592157 0.352941 0.000000
0.690196 0.360784 0.000000
0.772549 0.372549 0.000000
0.862745 0.376471 0.000000
0.945098 0.376471 0.000000
1.000000 0.364706 0.000000
1.000000 0.372549 0.000000
1.000000 0.364706 0.000000
0.000000 0.447059 0.023529
0.023529 0.443137 0.015686
0.098039 0.443137 0.023529
0.184314 0.439216 0.015686
0.262745 0.439216 0.019608
0.349020 0.435294 0.011765
0.423529 0.427451 0.011765
0.509804 0.423529 0.007843
0.588235 0.435294 0.000000
0.670588 0.439216 0.000000
0.772549 0.447059 0.000000
0.854902 0.450980 0.000000
0.933333 0.447059 0.000000
1.000000 0.450980 0.000000
1.000000 0.443137 0.000000
1.000000 0.443137 0.000000
0.000000 0.525490 0.023529
0.015686 0.525490 0.015686
0.094118 0.517647 0.015686
0.180392 0.521569 0.011765
0.258824 0.513725 0.007843
0.329412 0.509804 0.000000
0.419608 0.509804 0.003922
0.494118 0.505882 0.000000
0.592157 0.509804 0.000000
0.666667 0.517647 0.000000
0.764706 0.525490 0.000000
0.850980 0.533333 0.000000
0.933333 0.521569 0.000000
1.000000 0.521569 0.000000
1.000000 0.517647 0.000000
1.000000 0.517647 0.000000
0.007843 0.607843 0.007843
0.027451 0.615686 0.000000
0.105882 0.603922 0.000000
0.172549 0.600000 0.000000
0.262745 0.600000 0.000000
0.337255 0.596078 0.000000
0.419608 0.584314 0.000000
0.498039 0.592157 0.000000
0.576471 0.592157 0.000000
0.670588 0.596078 0.000000
0.756863 0.600000 0.000000
0.847059 0.603922 0.000000
0.921569 0.607843 0.000000
1.000000 0.603922 0.000000
1.000000 0.596078 0.000000
1.000000 0.600000 0.000000
0.019608 0.701961 0.000000
0.023529 0.694118 0.000000
0.105882 0.698039 0.000000
0.188235 0.690196 0.000000
0.258824 0.690196 0.000000
0.341176 0.682353 0.000000
0.419608 0.682353 0.000000
0.501961 0.674510 0.000000
0.580392 0.670588 0.000000
0.666667 0.666667 0.000000
0.741176 0.674510 0.000000
0.843137 0.686275 0.000000
0.917647 0.678431 0.000000
1.000000 0.682353 0.000000
1.000000 0.678431 0.000000
1.000000 0.670588 0.000000
0.031373 0.788235 0.000000
0.035294 0.780392 0.000000
0.109804 0.784314 0.000000
0.184314 0.772549 0.000000
0.270588 0.776471 0.000000
0.349020 0.768627 0.000000
0.431373 0.764706 0.000000
0.501961 0.768627 0.000000
0.584314 0.760784 0.000000
0.666667 0.764706 0.000000
0.749020 0.752941 0.000000
0.835294 0.760784 0.000000
0.913725 0.760784 0.000000
0.988235 0.756863 0.000000
1.000000 0.749020 0.000000
1.000000 0.749020 0.000000
0.035294 0.870588 0.000000
0.035294 0.866667 0.000000
0.113725 0.866667 0.000000
0.188235 0.858824 0.000000
0.270588 0.850980 0.000000
0.349020 0.858824 0.000000
0.427451 0.850980 0.000000
0.505882 0.850980 0.000000
0.592157 0.843137 0.000000
0.666667 0.847059 0.000000
0.752941 0.843137 0.000000
0.827451 0.839216 0.000000
0.909804 0.831373 0.000000
0.992157 0.831373 0.000000
1.000000 0.827451 0.000000
1.000000 0.827451 0.000000
0.035294 0.949020 0.000000
0.035294 0.945098 0.000000
0.105882 0.933333 0.000000
0.184314 0.941176 0.000000
0.266667 0.933333 0.000000
0.345098 0.929412 0.000000
0.431373 0.929412 0.000000
0.501961 0.933333 0.000000
0.576471 0.925490 0.000000
0.662745 0.921569 0.000000
0.741176 0.917647 0.000000
0.827451 0.913725 0.000000
0.901961 0.917647 0.000000
0.980392 0.909804 0.000000
1.000000 0.909804 0.000000
1.000000 0.901961 0.000000
0.035294 1.000000 0.000000
0.035294 1.000000 0.000000
0.098039 1.000000 0.000000
0.180392 1.000000 0.000000
0.254902 1.000000 0.000000
0.341176 1.000000 0.000000
0.415686 1.000000 0.000000
0.501961 1.000000 0.000000
0.580392 1.000000 0.000000
0.658824 0.992157 0.000000
0.737255 1.000000 0.000000
0.819608 0.992157 0.000000
0.898039 0.988235 0.000000
0.984314 0.984314 0.000000
1.000000 0.984314 0.000000
1.000000 0.988235 0.000000
0.035294 1.000000 0.000000
0.035294 1.000000 0.000000
0.086275 1.000000 0.000000
0.176471 1.000000 0.000000
0.250980 1.000000 0.000000
0.333333 1.000000 0.000000
0.415686 1.000000 0.000000
0.486275 1.000000 0.000000
0.576471 1.000000 0.000000
0.650980 1.000000 0.000000
0.737255 1.000000 0.000000
0.815686 1.000000 0.000000
0.890196 1.000000 0.000000
0.968627 1.000000 0.000000
1.000000 1.000000 0.000000
1.000000 1.000000 0.000000
0.035294 1.000000 0.000000
0.035294 1.000000 0.000000
0.090196 1.000000 0.000000
0.164706 1.000000 0.000000
0.254902 1.000000 0.000000
0.321569 1.000000 0.000000
0.407843 1.000000 0.000000
0.486275 1.000000 0.000000
0.572549 1.000000 0.000000
0.647059 1.000000 0.000000
0.725490 1.000000 0.000000
0.803922 1.000000 0.000000
0.890196 1.000000 0.000000
0.968627 1.000000 0.000000
1.000000 1.000000 0.000000
1.000000 1.000000 0.000000
0.000000 0.000000 0.172549
0.054902 0.000000 0.168627
0.133333 0.000000 0.172549
0.215686 0.000000 0.160784
0.294118 0.000000 0.149020
0.380392 0.000000 0.137255
0.450980 0.000000 0.125490
0.533333 0.000000 0.109804
0.619608 0.007843 0.105882
0.721569 0.023529 0.082353
0.800000 0.031373 0.078431
0.886275 0.035294 0.058824
0.968627 0.035294 0.070588
1.000000 0.035294 0.058824
1.000000 0.035294 0.050980
1.000000 0.035294 0.054902
0.000000 0.062745 0.172549
0.050980 0.058824 0.160784
0.129412 0.054902 0.160784
0.215686 0.050980 0.152941
0.286275 0.050980 0.137255
0.368627 0.047059 0.117647
0.447059 0.043137 0.117647
0.533333 0.039216 0.101961
0.623529 0.058824 0.098039
0.709804 0.058824 0.070588
0.807843 0.070588 0.070588
0.882353 0.066667 0.058824
0.960784 0.058824 0.050980
1.000000 0.062745 0.054902
1.000000 0.054902 0.050980
1.000000 0.054902 0.043137
0.000000 0.133333 0.156863
0.054902 0.133333 0.168627
0.121569 0.133333 0.149020
0.200000 0.133333 0.129412
0.286275 0.125490 0.125490
0.352941 0.125490 0.105882
0.447059 0.129412 0.113725
0.529412 0.133333 0.090196
0.627451 0.137255 0.082353
0.717647 0.149020 0.062745
0.800000 0.141176 0.050980
0.874510 0.141176 0.050980
0.956863 0.137255 0.050980
1.000000 0.137255 0.043137
1.000000 0.133333 0.047059
1.000000 0.137255 0.039216
0.000000 0.215686 0.156863
0.035294 0.207843 0.152941
0.121569 0.207843 0.137255
0.192157 0.203922 0.141176
0.282353 0.207843 0.125490
0.356863 0.203922 0.101961
0.443137 0.196078 0.109804
0.533333 0.207843 0.090196
0.619608 0.207843 0.066667
0.705882 0.223529 0.054902
0.788235 0.223529 0.050980
0.874510 0.219608 0.043137
0.949020 0.215686 0.043137
1.000000 0.219608 0.039216
1.000000 0.211765 0.043137
1.000000 0.211765 0.039216
0.000000 0.294118 0.141176
0.027451 0.290196 0.141176
0.109804 0.290196 0.121569
0.192157 0.286275 0.117647
0.274510 0.282353 0.117647
0.352941 0.274510 0.105882
0.427451 0.278431 0.094118
0.525490 0.282353 0.090196
0.611765 0.290196 0.070588
0.709804 0.301961 0.047059
0.780392 0.301961 0.043137
0.870588 0.301961 0.039216
0.945098 0.294118 0.043137
1.000000 0.286275 0.027451
1.000000 0.290196 0.039216
1.000000 0.282353 0.027451
0.000000 0.372549 0.125490
0.031373 0.368627 0.117647
0.109804 0.364706 0.109804
0.192157 0.356863 0.105882
0.262745 0.360784 0.094118
0.349020 0.352941 0.101961
0.423529 0.349020 0.090196
0.525490 0.360784 0.090196
0.596078 0.364706 0.066667
0.698039 0.372549 0.058824
0.780392 0.376471 0.043137
0.854902 0.372549 0.027451
0.945098 0.372549 0.039216
1.000000 0.368627 0.027451
1.000000 0.364706 0.027451
1.000000 0.364706 0.027451
0.000000 0.447059 0.109804
0.027451 0.439216 0.105882
0.098039 0.439216 0.090196
0.180392 0.439216 0.101961
0.262745 0.431373 0.090196
0.337255 0.439216 0.101961
0.419608 0.431373 0.086275
0.505882 0.435294 0.086275
0.603922 0.443137 0.062745
0.686275 0.447059 0.047059
0.780392 0.450980 0.035294
0.850980 0.450980 0.035294
0.937255 0.447059 0.027451
1.000000 0.447059 0.027451
1.000000 0.443137 0.023529
1.000000 0.443137 0.011765
0.000000 0.521569 0.090196
0.015686 0.521569 0.101961
0.105882 0.525490 0.078431
0.184314 0.529412 0.086275
0.262745 0.521569 0.078431
0.345098 0.517647 0.082353
0.427451 0.513725 0.078431
0.498039 0.505882 0.070588
0.596078 0.513725 0.058824
0.682353 0.525490 0.047059
0.768627 0.533333 0.027451
0.850980 0.525490 0.027451
0.933333 0.529412 0.023529
1.000000 0.521569 0.027451
1.000000 0.517647 0.015686
1.000000 0.517647 0.007843
0.007843 0.607843 0.082353
0.015686 0.607843 0.086275
0.105882 0.619608 0.062745
0.192157 0.611765 0.070588
0.266667 0.607843 0.058824
0.349020 0.600000 0.058824
0.423529 0.603922 0.058824
0.501961 0.592157 0.054902
0.588235 0.600000 0.050980
0.674510 0.596078 0.039216
0.764706 0.615686 0.023529
0.847059 0.603922 0.027451
0.921569 0.600000 0.015686
1.000000 0.600000 0.023529
1.000000 0.596078 0.011765
1.000000 0.592157 0.011765
0.019608 0.698039 0.058824
0.031373 0.694118 0.070588
0.117647 0.701961 0.047059
0.196078 0.694118 0.043137
0.270588 0.698039 0.043137
0.352941 0.686275 0.043137
0.435294 0.694118 0.039216
0.517647 0.682353 0.039216
0.584314 0.682353 0.031373
0.666667 0.682353 0.039216
0.756863 0.682353 0.019608
0.835294 0.682353 0.019608
0.921569 0.678431 0.011765
0.996078 0.678431 0.011765
1.000000 0.674510 0.011765
1.000000 0.674510 0.007843
0.031373 0.784314 0.054902
0.031373 0.784314 0.039216
0.117647 0.788235 0.035294
0.192157 0.780392 0.031373
0.274510 0.780392 0.023529
0.349020 0.780392 0.027451
0.435294 0.776471 0.019608
0.513725 0.772549 0.027451
0.596078 0.764706 0.015686
0.674510 0.764706 0.019608
0.760784 0.760784 0.015686
0.831373 0.760784 0.011765
0.913725 0.752941 0.003922
0.996078 0.756863 0.007843
1.000000 0.749020 0.000000
1.000000 0.752941 0.007843
0.035294 0.870588 0.043137
0.035294 0.866667 0.031373
0.113725 0.858824 0.039216
0.184314 0.862745 0.027451
0.270588 0.858824 0.019608
0.345098 0.850980 0.023529
0.431373 0.850980 0.015686
0.509804 0.847059 0.019608
0.584314 0.850980 0.011765
0.670588 0.847059 0.011765
0.745098 0.839216 0.003922
0.835294 0.839216 0.007843
0.909804 0.835294 0.000000
0.984314 0.827451 0.000000
1.000000 0.831373 0.000000
1.000000 0.823529 0.000000
0.035294 0.941176 0.039216
0.035294 0.945098 0.027451
0.101961 0.945098 0.027451
0.184314 0.933333 0.023529
0.262745 0.933333 0.023529
0.349020 0.929412 0.019608
0.415686 0.929412 0.007843
0.505882 0.929412 0.011765
0.580392 0.921569 0.003922
0.666667 0.917647 0.003922
0.737255 0.921569 0.000000
0.819608 0.909804 0.000000
0.901961 0.917647 0.000000
0.984314 0.905882 0.000000
1.000000 0.905882 0.000000
1.000000 0.905882 0.000000
0.035294 1.000000 0.027451
0.035294 1.000000 0.023529
0.094118 1.000000 0.015686
0.184314 1.000000 0.019608
0.254902 1.000000 0.015686
0.345098 1.000000 0.011765
0.419608 1.000000 0.011765
0.501961 1.000000 0.003922
0.576471 1.000000 0.000000
0.650980 0.996078 0.000000
0.737255 0.996078 0.000000
0.815686 0.992157 0.000000
0.901961 0.988235 0.000000
0.968627 0.984314 0.000000
1.000000 0.984314 0.000000
1.000000 0.980392 0.000000
0.035294 1.000000 0.015686
0.035294 1.000000 0.019608
0.090196 1.000000 0.015686
0.168627 1.000000 0.007843
0.254902 1.000000 0.011765
0.329412 1.000000 0.003922
0.411765 1.000000 0.011765
0.490196 1.000000 0.000000
0.572549 1.000000 0.000000
0.650980 1.000000 0.000000
0.737255 1.000000 0.000000
0.807843 1.000000 0.000000
0.898039 1.000000 0.000000
0.972549 1.000000 0.000000
1.000000 1.000000 0.000000
1.000000 1.000000 0.000000
0.035294 1.000000 0.015686
0.035294 1.000000 0.007843
0.094118 1.000000 0.011765
0.164706 1.000000 0.003922
0.247059 1.000000 0.007843
0.325490 1.000000 0.000000
0.411765 1.000000 0.000000
0.486275 1.000000 0.000000
0.564706 1.000000 0.000000
0.643137 1.000000 0.000000
0.729412 1.000000 0.000000
0.807843 1.000000 0.000000
0.882353 1.000000 0.000000
0.968627 1.000000 0.000000
1.000000 1.000000 0.000000
1.000000 1.000000 0.000000
0.000000 0.000000 0.250980
0.050980 0.000000 0.250980
0.133333 0.000000 0.243137
0.215686 0.000000 0.250980
0.286275 0.000000 0.227451
0.376471 0.000000 0.223529
0.450980 0.000000 0.200000
0.541176 0.000000 0.203922
0.627451 0.011765 0.188235
0.713725 0.019608 0.164706
0.803922 0.031373 0.149020
0.890196 0.035294 0.149020
0.968627 0.035294 0.141176
1.000000 0.035294 0.145098
1.000000 0.035294 0.137255
1.000000 0.035294 0.141176
0.000000 0.062745 0.243137
0.054902 0.054902 0.243137
0.121569 0.054902 0.231373
0.211765 0.050980 0.239216
0.286275 0.047059 0.215686
0.364706 0.047059 0.207843
0.450980 0.043137 0.200000
0.525490 0.043137 0.188235
0.615686 0.047059 0.168627
0.709804 0.058824 0.160784
0.803922 0.066667 0.141176
0.878431 0.066667 0.145098
0.964706 0.062745 0.137255
1.000000 0.054902 0.141176
1.000000 0.058824 0.137255
1.000000 0.050980 0.129412
0.000000 0.133333 0.247059
0.043137 0.137255 0.239216
0.125490 0.129412 0.219608
0.203922 0.129412 0.215686
0.290196 0.125490 0.207843
0.356863 0.121569 0.192157
0.447059 0.125490 0.180392
0.533333 0.129412 0.176471
0.631373 0.137255 0.152941
0.709804 0.145098 0.145098
0.800000 0.145098 0.137255
0.874510 0.141176 0.141176
0.960784 0.145098 0.137255
1.000000 0.137255 0.129412
1.000000 0.133333 0.125490
1.000000 0.133333 0.129412
0.000000 0.211765 0.243137
0.039216 0.211765 0.227451
0.121569 0.203922 0.219608
0.196078 0.203922 0.200000
0.274510 0.207843 0.184314
0.360784 0.200000 0.192157
0.443137 0.215686 0.172549
0.537255 0.215686 0.156863
0.627451 0.227451 0.141176
0.713725 0.223529 0.141176
0.788235 0.219608 0.125490
0.878431 0.219608 0.129412
0.945098 0.215686 0.125490
1.000000 0.211765 0.125490
1.000000 0.211765 0.113725
1.000000 0.203922 0.121569
0.000000 0.290196 0.223529
0.031373 0.290196 0.211765
0.109804 0.286275 0.207843
0.192157 0.278431 0.188235
0.270588 0.282353 0.200000
0.349020 0.274510 0.184314
0.439216 0.282353 0.164706
0.537255 0.294118 0.156863
0.619608 0.298039 0.133333
0.713725 0.301961 0.129412
0.784314 0.298039 0.125490
0.862745 0.298039 0.125490
0.949020 0.294118 0.113725
1.000000 0.290196 0.121569
1.000000 0.286275 0.109804
1.000000 0.290196 0.121569
0.000000 0.368627 0.211765
0.027451 0.360784 0.196078
0.105882 0.364706 0.200000
0.180392 0.360784 0.184314
0.266667 0.356863 0.184314
0.345098 0.356863 0.184314
0.435294 0.356863 0.164706
0.513725 0.364706 0.149020
0.615686 0.376471 0.141176
0.698039 0.380392 0.125490
0.784314 0.376471 0.113725
0.858824 0.376471 0.121569
0.937255 0.368627 0.109804
1.000000 0.372549 0.121569
1.000000 0.364706 0.105882
1.000000 0.356863 0.109804
0.000000 0.443137 0.196078
0.019608 0.443137 0.184314
0.105882 0.439216 0.184314
0.196078 0.450980 0.172549
0.270588 0.439216 0.164706
0.345098 0.443137 0.156863
0.431373 0.435294 0.164706
0.521569 0.447059 0.145098
0.607843 0.443137 0.133333
0.694118 0.458824 0.121569
0.776471 0.450980 0.125490
0.850980 0.447059 0.109804
0.933333 0.450980 0.105882
1.000000 0.439216 0.109804
