public/luts/ete.cube
# Studiio — look « ete », genere par scripts/lut/generer-luts.mjs
# Source : les coefficients de LOOKS_RENDUS, calcules par ffmpeg lui-meme.
# Aucune LUT tierce, aucun telechargement : provenance et licence du depot.
LUT_3D_SIZE 6
DOMAIN_MIN 0.0 0.0 0.0
DOMAIN_MAX 1.0 1.0 1.0
0.000000 0.000000 0.035294
0.207843 0.000000 0.035294
0.458824 0.000000 0.000000
0.709804 0.019608 0.000000
0.972549 0.035294 0.000000
1.000000 0.035294 0.000000
0.000000 0.219608 0.035294
0.203922 0.207843 0.035294
0.435294 0.200000 0.003922
0.698039 0.215686 0.000000
0.952941 0.219608 0.000000
1.000000 0.211765 0.000000
0.000000 0.447059 0.000000
0.192157 0.443137 0.003922
0.423529 0.435294 0.003922
0.678431 0.439216 0.000000
0.937255 0.447059 0.000000
1.000000 0.447059 0.000000
0.019608 0.698039 0.000000
0.184314 0.690196 0.000000
0.411765 0.678431 0.000000
0.662745 0.670588 0.000000
0.921569 0.686275 0.000000
1.000000 0.670588 0.000000
0.035294 0.945098 0.000000
0.180392 0.945098 0.000000
0.427451 0.929412 0.000000
0.658824 0.921569 0.000000
0.909804 0.913725 0.000000
1.000000 0.905882 0.000000
0.035294 1.000000 0.000000
0.172549 1.000000 0.000000
0.411765 1.000000 0.000000
0.647059 1.000000 0.000000
0.886275 1.000000 0.000000
1.000000 1.000000 0.000000
0.000000 0.000000 0.250980
0.215686 0.000000 0.250980
0.450980 0.000000 0.200000
0.713725 0.019608 0.164706
0.968627 0.035294 0.141176
1.000000 0.035294 0.141176
0.000000 0.211765 0.243137
0.196078 0.203922 0.200000
0.443137 0.215686 0.172549
0.713725 0.223529 0.141176
0.945098 0.215686 0.125490
1.000000 0.203922 0.121569
0.000000 0.443137 0.196078
0.196078 0.450980 0.172549
0.431373 0.435294 0.164706
0.694118 0.458824 0.121569
0.933333 0.450980 0.105882
1.000000 0.439216 0.098039
0.019608 0.694118 0.149020
0.196078 0.709804 0.117647
0.443137 0.694118 0.109804
0.674510 0.686275 0.094118
0.921569 0.682353 0.105882
1.000000 0.670588 0.090196
0.035294 0.949020 0.109804
0.184314 0.933333 0.109804
0.419608 0.925490 0.094118
0.654902 0.921569 0.086275
0.901961 0.909804 0.078431
1.000000 0.901961 0.062745
0.035294 1.000000 0.094118
0.168627 1.000000 0.094118
0.400000 1.000000 0.078431
0.647059 1.000000 0.070588
0.882353 1.000000 0.066667
1.000000 1.000000 0.050980
0.000000 0.000000 0.466667
0.207843 0.000000 0.450980
0.450980 0.000000 0.450980
0.709804 0.019608 0.411765
0.960784 0.035294 0.392157
1.000000 0.035294 0.380392
0.000000 0.215686 0.450980
0.203922 0.219608 0.419608
0.447059 0.203922 0.419608
0.709804 0.223529 0.380392
0.952941 0.207843 0.372549
1.000000 0.203922 0.356863
0.000000 0.443137 0.435294
0.196078 0.447059 0.419608
0.454902 0.462745 0.372549
0.686275 0.458824 0.356863
0.933333 0.443137 0.360784
1.000000 0.439216 0.349020
0.019608 0.698039 0.388235
0.192157 0.698039 0.368627
0.431373 0.690196 0.352941
0.678431 0.682353 0.352941
0.913725 0.678431 0.341176
1.000000 0.670588 0.325490
0.035294 0.937255 0.352941
0.180392 0.933333 0.352941
0.415686 0.925490 0.337255
0.658824 0.913725 0.329412
0.898039 0.909804 0.317647
1.000000 0.898039 0.317647
0.035294 1.000000 0.345098
0.160784 1.000000 0.329412
0.411765 1.000000 0.333333
0.643137 1.000000 0.317647
0.874510 1.000000 0.305882
1.000000 1.000000 0.298039
0.023529 0.023529 0.682353
0.235294 0.023529 0.682353
0.462745 0.019608 0.666667
0.701961 0.019608 0.654902
0.960784 0.035294 0.631373
1.000000 0.035294 0.615686
0.019608 0.231373 0.666667
0.231373 0.231373 0.643137
0.466667 0.227451 0.631373
0.705882 0.215686 0.623529
0.945098 0.207843 0.611765
1.000000 0.200000 0.615686
0.019608 0.454902 0.654902
0.211765 0.470588 0.623529
0.447059 0.462745 0.611765
0.694118 0.450980 0.615686
0.929412 0.443137 0.600000
1.000000 0.427451 0.592157
0.015686 0.682353 0.643137
0.188235 0.701961 0.611765
0.435294 0.686275 0.603922
0.666667 0.678431 0.588235
0.901961 0.670588 0.572549
1.000000 0.666667 0.584314
0.035294 0.937255 0.603922
0.172549 0.929412 0.588235
0.411765 0.917647 0.588235
0.654902 0.913725 0.576471
0.894118 0.901961 0.572549
1.000000 0.894118 0.556863
0.035294 1.000000 0.588235
0.168627 1.000000 0.576471
0.400000 1.000000 0.572549
0.635294 1.000000 0.556863
0.886275 1.000000 0.552941
1.000000 1.000000 0.537255
0.035294 0.035294 0.917647
0.239216 0.035294 0.901961
0.474510 0.035294 0.890196
0.721569 0.035294 0.882353
0.952941 0.035294 0.870588
1.000000 0.035294 0.874510
0.035294 0.243137 0.898039
0.227451 0.231373 0.882353
0.466667 0.219608 0.886275
0.701961 0.215686 0.874510
0.941176 0.207843 0.858824
1.000000 0.196078 0.850980
0.035294 0.466667 0.878431
0.200000 0.458824 0.866667
0.454902 0.454902 0.866667
0.686275 0.447059 0.850980
0.925490 0.435294 0.843137
1.000000 0.431373 0.835294
0.035294 0.705882 0.862745
0.192157 0.690196 0.854902
0.427451 0.682353 0.839216
0.662745 0.682353 0.827451
0.909804 0.666667 0.831373
1.000000 0.662745 0.819608
0.035294 0.933333 0.839216
0.176471 0.925490 0.843137
0.407843 0.921569 0.831373
0.654902 0.905882 0.823529
0.890196 0.901961 0.811765
1.000000 0.898039 0.796078
0.035294 1.000000 0.831373
0.160784 1.000000 0.823529
0.396078 1.000000 0.811765
0.635294 1.000000 0.811765
0.874510 1.000000 0.796078
1.000000 1.000000 0.792157
0.035294 0.035294 0.956863
0.235294 0.035294 0.956863
0.478431 0.035294 0.956863
0.713725 0.035294 0.956863
0.949020 0.035294 0.956863
1.000000 0.035294 0.956863
0.035294 0.239216 0.956863
0.219608 0.227451 0.956863
0.462745 0.219608 0.956863
0.694118 0.215686 0.956863
0.941176 0.200000 0.956863
1.000000 0.196078 0.956863
0.035294 0.466667 0.956863
0.200000 0.458824 0.956863
0.447059 0.450980 0.956863
0.690196 0.443137 0.956863
0.921569 0.435294 0.956863
1.000000 0.427451 0.956863
0.035294 0.694118 0.956863
0.188235 0.690196 0.956863
0.423529 0.682353 0.956863
0.666667 0.670588 0.956863
0.901961 0.662745 0.956863
1.000000 0.658824 0.956863
0.035294 0.929412 0.956863
0.168627 0.925490 0.956863
0.411765 0.909804 0.956863
0.650980 0.905882 0.956863
0.882353 0.901961 0.956863
1.000000 0.882353 0.956863
0.035294 1.000000 0.956863
0.156863 1.000000 0.956863
0.396078 1.000000 0.956863
0.627451 1.000000 0.956863
0.878431 1.000000 0.956863
1.000000 1.000000 0.956863
