public/luts/film-soft.cube
# Studiio — look « film-soft », genere par scripts/lut/generer-luts.mjs
# Source : les coefficients de LOOKS_RENDUS, calcules par ffmpeg lui-meme.
# Aucune LUT tierce, aucun telechargement : provenance et licence du depot.
LUT_3D_SIZE 16
DOMAIN_MIN 0.0 0.0 0.0
DOMAIN_MAX 1.0 1.0 1.0
0.062745 0.047059 0.058824
0.121569 0.043137 0.050980
0.188235 0.043137 0.066667
0.239216 0.047059 0.054902
0.298039 0.043137 0.050980
0.349020 0.047059 0.043137
0.411765 0.043137 0.035294
0.466667 0.050980 0.039216
0.525490 0.043137 0.035294
0.588235 0.043137 0.031373
0.654902 0.047059 0.039216
0.717647 0.047059 0.031373
0.772549 0.043137 0.039216
0.835294 0.050980 0.039216
0.901961 0.047059 0.039216
0.956863 0.050980 0.035294
0.066667 0.105882 0.066667
0.121569 0.105882 0.066667
0.192157 0.105882 0.062745
0.243137 0.105882 0.054902
0.298039 0.105882 0.047059
0.352941 0.105882 0.043137
0.407843 0.105882 0.035294
0.466667 0.105882 0.031373
0.525490 0.105882 0.035294
0.592157 0.113725 0.031373
0.647059 0.105882 0.039216
0.713725 0.109804 0.039216
0.776471 0.109804 0.039216
0.839216 0.109804 0.035294
0.894118 0.113725 0.039216
0.964706 0.109804 0.039216
0.058824 0.172549 0.062745
0.129412 0.168627 0.066667
0.184314 0.168627 0.058824
0.243137 0.168627 0.066667
0.298039 0.168627 0.050980
0.352941 0.168627 0.047059
0.407843 0.168627 0.039216
0.470588 0.172549 0.031373
0.521569 0.168627 0.039216
0.592157 0.168627 0.031373
0.650980 0.172549 0.039216
0.721569 0.172549 0.035294
0.776471 0.172549 0.039216
0.839216 0.172549 0.039216
0.901961 0.172549 0.043137
0.960784 0.180392 0.043137
0.062745 0.231373 0.054902
0.121569 0.227451 0.062745
0.180392 0.223529 0.054902
0.243137 0.227451 0.058824
0.294118 0.231373 0.050980
0.360784 0.231373 0.047059
0.403922 0.231373 0.039216
0.474510 0.227451 0.043137
0.533333 0.235294 0.039216
0.588235 0.239216 0.035294
0.650980 0.227451 0.031373
0.713725 0.235294 0.039216
0.780392 0.231373 0.043137
0.835294 0.235294 0.035294
0.898039 0.235294 0.039216
0.960784 0.235294 0.035294
0.047059 0.290196 0.047059
0.113725 0.290196 0.054902
0.176471 0.294118 0.050980
0.231373 0.294118 0.050980
0.301961 0.290196 0.054902
0.349020 0.294118 0.050980
0.407843 0.290196 0.035294
0.470588 0.298039 0.043137
0.525490 0.294118 0.031373
0.592157 0.294118 0.047059
0.654902 0.294118 0.043137
0.717647 0.294118 0.035294
0.780392 0.294118 0.039216
0.835294 0.298039 0.035294
0.905882 0.294118 0.043137
0.964706 0.301961 0.043137
0.050980 0.352941 0.043137
0.105882 0.356863 0.043137
0.172549 0.352941 0.047059
0.231373 0.352941 0.050980
0.290196 0.352941 0.043137
0.356863 0.356863 0.050980
0.411765 0.352941 0.035294
0.470588 0.349020 0.043137
0.529412 0.360784 0.043137
0.592157 0.356863 0.043137
0.654902 0.360784 0.039216
0.717647 0.356863 0.043137
0.780392 0.356863 0.043137
0.847059 0.360784 0.043137
0.898039 0.360784 0.039216
0.964706 0.356863 0.035294
0.031373 0.411765 0.035294
0.101961 0.415686 0.043137
0.160784 0.419608 0.035294
0.227451 0.419608 0.043137
0.282353 0.415686 0.031373
0.345098 0.415686 0.043137
0.411765 0.419608 0.043137
0.474510 0.419608 0.043137
0.525490 0.419608 0.035294
0.600000 0.419608 0.043137
0.654902 0.419608 0.043137
0.721569 0.415686 0.047059
0.776471 0.419608 0.039216
0.839216 0.419608 0.043137
0.905882 0.423529 0.043137
0.964706 0.427451 0.043137
0.039216 0.478431 0.035294
0.101961 0.478431 0.039216
0.164706 0.478431 0.031373
0.227451 0.474510 0.043137
0.282353 0.478431 0.039216
0.356863 0.478431 0.043137
0.407843 0.478431 0.035294
0.474510 0.482353 0.043137
0.533333 0.482353 0.043137
0.592157 0.482353 0.047059
0.658824 0.482353 0.039216
0.713725 0.482353 0.043137
0.784314 0.478431 0.039216
0.843137 0.486275 0.050980
0.901961 0.482353 0.043137
0.964706 0.482353 0.047059
0.039216 0.541176 0.031373
0.101961 0.537255 0.043137
0.164706 0.541176 0.039216
0.223529 0.545098 0.043137
0.286275 0.537255 0.035294
0.345098 0.541176 0.035294
0.415686 0.541176 0.043137
0.470588 0.545098 0.047059
0.529412 0.541176 0.035294
0.596078 0.545098 0.043137
0.658824 0.545098 0.039216
0.725490 0.545098 0.050980
0.784314 0.541176 0.043137
0.839216 0.545098 0.047059
0.905882 0.549020 0.043137
0.960784 0.545098 0.043137
0.043137 0.600000 0.047059
0.105882 0.607843 0.043137
0.168627 0.600000 0.035294
0.223529 0.603922 0.035294
0.290196 0.603922 0.043137
0.352941 0.603922 0.047059
0.403922 0.603922 0.035294
0.478431 0.603922 0.043137
0.533333 0.607843 0.039216
0.596078 0.603922 0.047059
0.658824 0.607843 0.043137
0.717647 0.603922 0.047059
0.784314 0.611765 0.043137
0.843137 0.603922 0.043137
0.898039 0.607843 0.043137
0.972549 0.607843 0.050980
0.035294 0.666667 0.043137
0.105882 0.662745 0.035294
0.160784 0.662745 0.047059
0.227451 0.666667 0.047059
0.286275 0.662745 0.035294
0.352941 0.666667 0.043137
0.415686 0.666667 0.039216
0.474510 0.666667 0.047059
0.533333 0.670588 0.043137
0.600000 0.666667 0.047059
0.654902 0.670588 0.039216
0.725490 0.666667 0.043137
0.780392 0.666667 0.043137
0.843137 0.666667 0.047059
0.909804 0.670588 0.047059
0.960784 0.670588 0.043137
0.043137 0.725490 0.047059
0.109804 0.729412 0.047059
0.164706 0.721569 0.043137
0.227451 0.725490 0.039216
0.290196 0.729412 0.047059
0.356863 0.725490 0.047059
0.407843 0.725490 0.039216
0.474510 0.729412 0.047059
0.537255 0.729412 0.039216
0.592157 0.733333 0.043137
0.662745 0.729412 0.043137
0.717647 0.729412 0.047059
0.788235 0.733333 0.047059
0.843137 0.729412 0.043137
0.901961 0.729412 0.039216
0.968627 0.733333 0.054902
0.043137 0.788235 0.043137
0.101961 0.788235 0.039216
0.168627 0.792157 0.047059
0.227451 0.792157 0.047059
0.290196 0.784314 0.047059
0.349020 0.792157 0.047059
0.419608 0.788235 0.047059
0.474510 0.792157 0.043137
0.537255 0.792157 0.043137
0.600000 0.792157 0.047059
0.666667 0.796078 0.047059
0.721569 0.792157 0.043137
0.784314 0.792157 0.039216
0.843137 0.796078 0.054902
0.905882 0.796078 0.047059
0.964706 0.792157 0.047059
0.047059 0.847059 0.043137
0.105882 0.854902 0.047059
0.172549 0.847059 0.047059
0.231373 0.854902 0.047059
0.294118 0.850980 0.047059
0.356863 0.854902 0.043137
0.411765 0.854902 0.050980
0.478431 0.850980 0.047059
0.533333 0.854902 0.050980
0.596078 0.854902 0.043137
0.658824 0.854902 0.047059
0.721569 0.850980 0.050980
0.788235 0.858824 0.047059
0.847059 0.850980 0.047059
0.905882 0.858824 0.047059
0.972549 0.854902 0.047059
0.039216 0.913725 0.047059
0.105882 0.909804 0.039216
0.168627 0.917647 0.047059
0.231373 0.917647 0.043137
0.286275 0.909804 0.047059
0.352941 0.913725 0.047059
0.415686 0.913725 0.050980
0.478431 0.913725 0.043137
0.533333 0.917647 0.047059
0.603922 0.913725 0.050980
0.662745 0.917647 0.054902
0.725490 0.913725 0.047059
0.784314 0.913725 0.047059
0.850980 0.917647 0.047059
0.909804 0.917647 0.050980
0.960784 0.917647 0.047059
0.050980 0.976471 0.047059
0.109804 0.976471 0.043137
0.168627 0.968627 0.047059
0.235294 0.976471 0.047059
0.290196 0.976471 0.050980
0.352941 0.976471 0.043137
0.415686 0.976471 0.047059
0.478431 0.976471 0.050980
0.541176 0.976471 0.050980
0.596078 0.980392 0.047059
0.662745 0.976471 0.047059
0.725490 0.984314 0.047059
0.792157 0.976471 0.058824
0.843137 0.976471 0.047059
0.909804 0.980392 0.054902
0.972549 0.980392 0.050980
0.058824 0.043137 0.121569
0.121569 0.043137 0.121569
0.184314 0.043137 0.117647
0.243137 0.047059 0.117647
0.298039 0.043137 0.101961
0.345098 0.043137 0.105882
0.411765 0.043137 0.098039
0.466667 0.047059 0.098039
0.533333 0.043137 0.094118
0.588235 0.047059 0.094118
0.647059 0.047059 0.098039
0.717647 0.047059 0.105882
0.768627 0.047059 0.094118
0.839216 0.043137 0.098039
0.898039 0.050980 0.098039
0.960784 0.050980 0.105882
0.066667 0.101961 0.125490
0.125490 0.109804 0.125490
0.180392 0.105882 0.109804
0.235294 0.101961 0.113725
0.286275 0.109804 0.105882
0.349020 0.105882 0.098039
0.400000 0.105882 0.090196
0.470588 0.105882 0.094118
0.525490 0.109804 0.098039
0.592157 0.113725 0.105882
0.650980 0.109804 0.094118
0.713725 0.105882 0.098039
0.780392 0.113725 0.098039
0.843137 0.109804 0.105882
0.894118 0.109804 0.098039
0.964706 0.109804 0.105882
0.058824 0.168627 0.121569
0.121569 0.164706 0.121569
0.180392 0.168627 0.125490
0.243137 0.168627 0.113725
0.290196 0.168627 0.101961
0.349020 0.172549 0.098039
0.407843 0.168627 0.098039
0.470588 0.168627 0.101961
0.533333 0.168627 0.094118
0.588235 0.172549 0.098039
0.650980 0.172549 0.094118
0.717647 0.172549 0.105882
0.772549 0.168627 0.098039
0.839216 0.172549 0.105882
0.901961 0.172549 0.098039
0.952941 0.172549 0.098039
0.058824 0.227451 0.121569
0.113725 0.235294 0.113725
0.176471 0.227451 0.113725
0.231373 0.231373 0.105882
0.290196 0.231373 0.113725
0.345098 0.231373 0.101961
0.407843 0.231373 0.101961
0.470588 0.231373 0.098039
0.529412 0.231373 0.094118
0.592157 0.239216 0.105882
0.654902 0.231373 0.098039
0.709804 0.231373 0.098039
0.784314 0.235294 0.098039
0.835294 0.231373 0.098039
0.898039 0.231373 0.098039
0.964706 0.235294 0.105882
0.050980 0.290196 0.113725
0.105882 0.290196 0.098039
0.172549 0.294118 0.113725
0.235294 0.294118 0.109804
0.290196 0.286275 0.105882
0.345098 0.294118 0.098039
0.411765 0.290196 0.101961
0.474510 0.298039 0.105882
0.537255 0.290196 0.105882
0.592157 0.294118 0.098039
0.650980 0.301961 0.098039
0.717647 0.294118 0.098039
0.772549 0.294118 0.098039
0.847059 0.294118 0.105882
0.901961 0.298039 0.101961
0.956863 0.294118 0.098039
0.054902 0.352941 0.113725
0.101961 0.356863 0.101961
0.156863 0.352941 0.098039
0.223529 0.356863 0.098039
0.282353 0.356863 0.101961
0.349020 0.352941 0.101961
0.403922 0.356863 0.105882
0.474510 0.352941 0.098039
0.529412 0.356863 0.101961
0.592157 0.356863 0.098039
0.654902 0.352941 0.105882
0.721569 0.360784 0.105882
0.780392 0.360784 0.101961
0.839216 0.352941 0.098039
0.901961 0.364706 0.098039
0.968627 0.356863 0.109804
0.031373 0.415686 0.098039
0.101961 0.411765 0.094118
0.160784 0.419608 0.101961
0.231373 0.415686 0.101961
0.286275 0.415686 0.105882
0.349020 0.419608 0.098039
0.411765 0.415686 0.101961
0.470588 0.415686 0.098039
0.533333 0.415686 0.105882
0.592157 0.419608 0.101961
0.658824 0.423529 0.109804
0.713725 0.419608 0.098039
0.776471 0.415686 0.101961
0.843137 0.419608 0.109804
0.905882 0.419608 0.101961
0.960784 0.423529 0.105882
0.043137 0.478431 0.101961
0.098039 0.482353 0.101961
0.160784 0.474510 0.101961
0.223529 0.482353 0.098039
0.286275 0.482353 0.101961
0.349020 0.482353 0.098039
0.407843 0.478431 0.105882
0.470588 0.478431 0.101961
0.537255 0.482353 0.109804
0.588235 0.482353 0.098039
0.658824 0.478431 0.101961
0.717647 0.486275 0.109804
0.788235 0.482353 0.109804
0.839216 0.478431 0.101961
0.905882 0.482353 0.105882
0.964706 0.482353 0.101961
0.039216 0.537255 0.101961
0.105882 0.541176 0.098039
0.164706 0.541176 0.101961
0.227451 0.541176 0.098039
0.290196 0.541176 0.105882
0.345098 0.541176 0.101961
0.415686 0.537255 0.105882
0.470588 0.541176 0.098039
0.533333 0.541176 0.101961
0.600000 0.545098 0.109804
0.654902 0.549020 0.109804
0.717647 0.541176 0.101961
0.780392 0.545098 0.105882
0.847059 0.545098 0.101961
0.901961 0.545098 0.113725
0.964706 0.545098 0.105882
0.039216 0.603922 0.101961
0.101961 0.603922 0.098039
0.164706 0.603922 0.105882
0.227451 0.603922 0.101961
0.282353 0.603922 0.105882
0.352941 0.603922 0.098039
0.407843 0.603922 0.101961
0.474510 0.600000 0.101961
0.537255 0.607843 0.109804
0.592157 0.603922 0.101961
0.654902 0.603922 0.101961
0.721569 0.607843 0.101961
0.784314 0.603922 0.113725
0.847059 0.607843 0.105882
0.901961 0.607843 0.109804
0.964706 0.607843 0.101961
0.035294 0.662745 0.101961
0.109804 0.662745 0.109804
0.164706 0.666667 0.105882
0.231373 0.662745 0.098039
0.290196 0.666667 0.101961
0.349020 0.666667 0.101961
0.415686 0.666667 0.109804
0.466667 0.666667 0.101961
0.537255 0.662745 0.101961
0.596078 0.670588 0.101961
0.658824 0.670588 0.113725
0.717647 0.666667 0.101961
0.784314 0.670588 0.109804
0.847059 0.670588 0.101961
0.905882 0.666667 0.105882
0.964706 0.670588 0.109804
0.047059 0.725490 0.105882
0.101961 0.729412 0.105882
0.168627 0.725490 0.101961
0.223529 0.725490 0.109804
0.286275 0.729412 0.105882
0.349020 0.729412 0.101961
0.411765 0.725490 0.101961
0.474510 0.729412 0.098039
0.541176 0.729412 0.113725
0.592157 0.729412 0.101961
0.662745 0.729412 0.109804
0.721569 0.733333 0.101961
0.788235 0.729412 0.105882
0.843137 0.729412 0.109804
0.905882 0.729412 0.109804
0.968627 0.729412 0.105882
0.043137 0.792157 0.101961
0.105882 0.788235 0.109804
0.168627 0.788235 0.105882
0.231373 0.788235 0.109804
0.294118 0.788235 0.101961
0.349020 0.788235 0.105882
0.419608 0.792157 0.113725
0.470588 0.788235 0.101961
0.533333 0.788235 0.105882
0.600000 0.792157 0.101961
0.658824 0.796078 0.105882
0.725490 0.792157 0.109804
0.780392 0.792157 0.109804
0.850980 0.792157 0.105882
0.909804 0.800000 0.113725
0.968627 0.796078 0.101961
0.043137 0.850980 0.105882
0.105882 0.850980 0.109804
0.168627 0.850980 0.101961
0.231373 0.850980 0.105882
0.290196 0.858824 0.113725
0.352941 0.847059 0.109804
0.407843 0.850980 0.105882
0.482353 0.850980 0.109804
0.537255 0.854902 0.105882
0.596078 0.850980 0.105882
0.662745 0.854902 0.109804
0.725490 0.854902 0.105882
0.788235 0.854902 0.109804
0.847059 0.854902 0.101961
0.905882 0.854902 0.113725
0.972549 0.858824 0.113725
0.043137 0.913725 0.101961
0.109804 0.909804 0.105882
0.164706 0.913725 0.105882
0.235294 0.909804 0.109804
0.290196 0.913725 0.105882
0.352941 0.913725 0.105882
0.419608 0.917647 0.105882
0.470588 0.913725 0.113725
0.545098 0.913725 0.109804
0.600000 0.917647 0.113725
0.662745 0.917647 0.109804
0.721569 0.917647 0.109804
0.784314 0.917647 0.113725
0.847059 0.917647 0.105882
0.913725 0.921569 0.113725
0.964706 0.917647 0.105882
0.047059 0.972549 0.105882
0.101961 0.976471 0.109804
0.172549 0.972549 0.105882
0.227451 0.976471 0.105882
0.294118 0.980392 0.105882
0.352941 0.972549 0.113725
0.411765 0.972549 0.105882
0.478431 0.976471 0.113725
0.541176 0.980392 0.109804
0.600000 0.980392 0.109804
0.666667 0.976471 0.113725
0.721569 0.980392 0.113725
0.796078 0.980392 0.113725
0.847059 0.976471 0.113725
0.909804 0.980392 0.105882
0.976471 0.984314 0.113725
0.058824 0.039216 0.180392
0.125490 0.043137 0.180392
0.188235 0.043137 0.180392
0.243137 0.043137 0.176471
0.294118 0.047059 0.176471
0.349020 0.047059 0.160784
0.407843 0.050980 0.160784
0.462745 0.047059 0.152941
0.525490 0.043137 0.160784
0.592157 0.047059 0.160784
0.647059 0.050980 0.164706
0.713725 0.043137 0.152941
0.772549 0.050980 0.160784
0.843137 0.047059 0.160784
0.898039 0.047059 0.164706
0.960784 0.047059 0.160784
0.062745 0.105882 0.180392
0.121569 0.105882 0.180392
0.180392 0.105882 0.180392
0.235294 0.105882 0.168627
0.290196 0.105882 0.164706
0.345098 0.105882 0.152941
0.400000 0.105882 0.160784
0.470588 0.105882 0.156863
0.529412 0.109804 0.164706
0.592157 0.101961 0.152941
0.654902 0.109804 0.160784
0.709804 0.113725 0.160784
0.776471 0.109804 0.164706
0.835294 0.113725 0.160784
0.901961 0.109804 0.160784
0.956863 0.109804 0.156863
0.054902 0.164706 0.184314
0.121569 0.164706 0.180392
0.172549 0.168627 0.172549
0.227451 0.168627 0.160784
0.282353 0.168627 0.160784
0.337255 0.172549 0.156863
0.411765 0.172549 0.164706
0.462745 0.168627 0.152941
0.529412 0.164706 0.156863
0.592157 0.172549 0.160784
0.654902 0.172549 0.164706
0.709804 0.168627 0.152941
0.776471 0.172549 0.160784
0.839216 0.172549 0.156863
0.905882 0.172549 0.172549
0.956863 0.172549 0.160784
0.058824 0.231373 0.176471
0.109804 0.231373 0.176471
0.172549 0.227451 0.168627
0.227451 0.231373 0.172549
0.290196 0.231373 0.164706
0.345098 0.231373 0.152941
0.403922 0.231373 0.156863
0.470588 0.235294 0.160784
0.533333 0.231373 0.164706
0.592157 0.227451 0.152941
0.650980 0.235294 0.160784
0.713725 0.235294 0.156863
0.776471 0.235294 0.164706
0.839216 0.235294 0.160784
0.901961 0.231373 0.164706
0.968627 0.239216 0.160784
0.054902 0.290196 0.176471
0.109804 0.290196 0.172549
0.156863 0.294118 0.156863
0.223529 0.290196 0.160784
0.278431 0.294118 0.156863
0.341176 0.290196 0.164706
0.407843 0.298039 0.164706
0.466667 0.290196 0.160784
0.533333 0.294118 0.160784
0.596078 0.298039 0.156863
0.650980 0.298039 0.164706
0.717647 0.294118 0.160784
0.776471 0.298039 0.164706
0.843137 0.294118 0.156863
0.901961 0.301961 0.164706
0.960784 0.294118 0.164706
0.043137 0.352941 0.164706
0.098039 0.352941 0.160784
0.160784 0.352941 0.156863
0.223529 0.352941 0.164706
0.290196 0.356863 0.164706
0.349020 0.352941 0.160784
0.403922 0.356863 0.156863
0.474510 0.356863 0.164706
0.533333 0.356863 0.164706
0.596078 0.349020 0.164706
0.654902 0.356863 0.164706
0.713725 0.360784 0.156863
0.784314 0.360784 0.164706
0.835294 0.360784 0.164706
0.905882 0.356863 0.164706
0.964706 0.364706 0.164706
0.035294 0.419608 0.156863
0.105882 0.411765 0.164706
0.160784 0.415686 0.160784
0.223529 0.415686 0.160784
0.286275 0.415686 0.156863
0.345098 0.423529 0.164706
0.411765 0.419608 0.164706
0.462745 0.415686 0.164706
0.537255 0.419608 0.164706
0.592157 0.419608 0.164706
0.654902 0.419608 0.160784
0.717647 0.419608 0.172549
0.780392 0.419608 0.164706
0.847059 0.423529 0.164706
0.909804 0.423529 0.168627
0.960784 0.423529 0.156863
0.043137 0.478431 0.160784
0.098039 0.478431 0.160784
0.164706 0.474510 0.156863
0.219608 0.478431 0.160784
0.294118 0.478431 0.164706
0.345098 0.478431 0.164706
0.411765 0.482353 0.164706
0.474510 0.482353 0.164706
0.537255 0.482353 0.160784
0.600000 0.478431 0.172549
0.654902 0.482353 0.164706
0.717647 0.482353 0.168627
0.784314 0.486275 0.168627
0.839216 0.482353 0.164706
0.901961 0.478431 0.168627
0.968627 0.486275 0.164706
0.039216 0.541176 0.156863
0.101961 0.537255 0.160784
0.164706 0.545098 0.164706
0.227451 0.537255 0.164706
0.282353 0.541176 0.160784
0.349020 0.545098 0.164706
0.411765 0.545098 0.160784
0.470588 0.537255 0.164706
0.533333 0.541176 0.164706
0.596078 0.541176 0.168627
0.658824 0.549020 0.168627
0.721569 0.541176 0.164706
0.776471 0.545098 0.168627
0.850980 0.545098 0.172549
0.905882 0.549020 0.168627
0.964706 0.541176 0.168627
0.039216 0.600000 0.160784
0.101961 0.600000 0.164706
0.164706 0.600000 0.160784
0.231373 0.603922 0.164706
0.294118 0.603922 0.160784
0.349020 0.600000 0.164706
0.411765 0.607843 0.164706
0.478431 0.603922 0.168627
0.533333 0.607843 0.160784
0.596078 0.603922 0.164706
0.658824 0.603922 0.168627
0.713725 0.607843 0.168627
0.788235 0.607843 0.168627
0.839216 0.607843 0.168627
0.909804 0.607843 0.164706
0.968627 0.607843 0.176471
0.039216 0.662745 0.168627
0.101961 0.662745 0.160784
0.168627 0.670588 0.160784
0.223529 0.662745 0.164706
0.286275 0.662745 0.160784
0.345098 0.670588 0.168627
0.415686 0.666667 0.160784
0.470588 0.670588 0.164706
0.541176 0.666667 0.168627
0.596078 0.666667 0.168627
0.662745 0.670588 0.168627
0.717647 0.666667 0.168627
0.780392 0.666667 0.160784
0.847059 0.670588 0.176471
0.909804 0.670588 0.172549
0.964706 0.670588 0.172549
0.047059 0.729412 0.168627
0.098039 0.725490 0.164706
0.168627 0.721569 0.168627
0.227451 0.729412 0.168627
0.298039 0.729412 0.160784
0.349020 0.725490 0.160784
0.415686 0.729412 0.168627
0.474510 0.729412 0.168627
0.537255 0.737255 0.168627
0.600000 0.725490 0.168627
0.654902 0.729412 0.160784
0.721569 0.733333 0.176471
0.784314 0.733333 0.172549
0.843137 0.729412 0.168627
0.909804 0.733333 0.168627
0.972549 0.733333 0.168627
0.043137 0.784314 0.168627
0.109804 0.792157 0.168627
0.164706 0.792157 0.168627
0.227451 0.784314 0.160784
0.290196 0.792157 0.176471
0.352941 0.792157 0.168627
0.411765 0.792157 0.164706
0.474510 0.792157 0.168627
0.537255 0.792157 0.160784
0.600000 0.788235 0.172549
0.658824 0.796078 0.172549
0.725490 0.788235 0.168627
0.784314 0.796078 0.168627
0.850980 0.792157 0.168627
0.909804 0.796078 0.172549
0.968627 0.796078 0.176471
0.047059 0.854902 0.168627
0.101961 0.850980 0.160784
0.164706 0.847059 0.172549
0.231373 0.850980 0.168627
0.294118 0.850980 0.172549
0.356863 0.850980 0.168627
0.411765 0.854902 0.168627
0.482353 0.850980 0.172549
0.541176 0.858824 0.172549
0.600000 0.850980 0.168627
0.658824 0.854902 0.164706
0.721569 0.858824 0.168627
0.788235 0.854902 0.172549
0.839216 0.854902 0.168627
0.913725 0.854902 0.168627
0.968627 0.858824 0.172549
0.039216 0.909804 0.172549
0.105882 0.917647 0.168627
0.168627 0.913725 0.172549
0.227451 0.909804 0.160784
0.294118 0.913725 0.168627
0.349020 0.917647 0.172549
0.423529 0.917647 0.180392
0.474510 0.917647 0.168627
0.541176 0.913725 0.172549
0.603922 0.921569 0.168627
0.662745 0.917647 0.172549
0.721569 0.913725 0.168627
0.788235 0.917647 0.168627
0.850980 0.917647 0.172549
0.909804 0.913725 0.160784
0.968627 0.917647 0.176471
0.050980 0.976471 0.172549
0.101961 0.976471 0.160784
0.172549 0.976471 0.168627
0.231373 0.976471 0.172549
0.298039 0.972549 0.172549
0.352941 0.976471 0.168627
0.415686 0.976471 0.172549
0.478431 0.976471 0.164706
0.537255 0.980392 0.180392
0.603922 0.976471 0.168627
0.662745 0.980392 0.176471
0.725490 0.980392 0.172549
0.784314 0.976471 0.168627
0.850980 0.980392 0.176471
0.909804 0.980392 0.172549
0.972549 0.980392 0.172549
0.058824 0.043137 0.231373
0.121569 0.039216 0.243137
0.176471 0.047059 0.239216
0.243137 0.039216 0.239216
0.290196 0.043137 0.227451
0.356863 0.043137 0.227451
0.403922 0.047059 0.219608
0.466667 0.047059 0.223529
0.529412 0.047059 0.219608
0.592157 0.043137 0.219608
0.658824 0.050980 0.219608
0.713725 0.043137 0.223529
0.772549 0.047059 0.219608
0.839216 0.050980 0.227451
0.901961 0.050980 0.219608
0.956863 0.047059 0.219608
0.062745 0.109804 0.243137
0.109804 0.101961 0.231373
0.172549 0.105882 0.227451
0.239216 0.109804 0.235294
0.294118 0.105882 0.227451
0.337255 0.105882 0.219608
0.403922 0.109804 0.219608
0.466667 0.109804 0.219608
0.529412 0.109804 0.215686
0.592157 0.105882 0.223529
0.650980 0.105882 0.219608
0.713725 0.113725 0.227451
0.780392 0.109804 0.219608
0.831373 0.109804 0.219608
0.905882 0.109804 0.227451
0.960784 0.109804 0.227451
0.062745 0.164706 0.243137
0.113725 0.172549 0.235294
0.168627 0.172549 0.227451
0.227451 0.164706 0.227451
0.286275 0.168627 0.219608
0.349020 0.168627 0.219608
0.407843 0.168627 0.215686
0.466667 0.168627 0.223529
0.533333 0.168627 0.219608
0.588235 0.168627 0.223529
0.662745 0.172549 0.219608
0.713725 0.168627 0.219608
0.772549 0.176471 0.227451
0.843137 0.172549 0.227451
0.898039 0.176471 0.223529
0.964706 0.172549 0.227451
0.062745 0.231373 0.247059
0.109804 0.227451 0.235294
0.168627 0.223529 0.227451
0.223529 0.231373 0.219608
0.282353 0.235294 0.215686
0.345098 0.231373 0.223529
0.403922 0.235294 0.219608
0.470588 0.231373 0.223529
0.529412 0.239216 0.219608
0.596078 0.231373 0.219608
0.650980 0.231373 0.223529
0.717647 0.235294 0.227451
0.780392 0.235294 0.223529
0.835294 0.231373 0.219608
0.901961 0.235294 0.219608
0.964706 0.235294 0.231373
0.050980 0.290196 0.235294
0.109804 0.294118 0.227451
0.160784 0.294118 0.223529
0.223529 0.286275 0.219608
0.282353 0.294118 0.227451
0.352941 0.290196 0.223529
0.407843 0.294118 0.215686
0.470588 0.294118 0.219608
0.533333 0.294118 0.223529
0.600000 0.298039 0.227451
0.658824 0.298039 0.223529
0.709804 0.294118 0.219608
0.776471 0.298039 0.219608
0.839216 0.298039 0.231373
0.901961 0.298039 0.223529
0.964706 0.298039 0.227451
0.047059 0.356863 0.231373
0.098039 0.349020 0.219608
0.164706 0.352941 0.227451
0.219608 0.356863 0.223529
0.290196 0.352941 0.223529
0.345098 0.356863 0.219608
0.407843 0.356863 0.231373
0.466667 0.356863 0.223529
0.533333 0.360784 0.231373
0.592157 0.356863 0.219608
0.658824 0.360784 0.219608
0.713725 0.360784 0.231373
0.784314 0.356863 0.223529
0.839216 0.360784 0.227451
0.905882 0.356863 0.223529
0.964706 0.360784 0.223529
0.039216 0.411765 0.223529
0.101961 0.419608 0.223529
0.164706 0.419608 0.223529
0.223529 0.419608 0.219608
0.286275 0.415686 0.231373
0.349020 0.415686 0.223529
0.415686 0.419608 0.231373
0.466667 0.419608 0.219608
0.537255 0.415686 0.223529
0.596078 0.423529 0.231373
0.662745 0.415686 0.231373
0.713725 0.415686 0.223529
0.776471 0.423529 0.223529
0.843137 0.419608 0.223529
