public/luts/film-soft.cube
# Studiio — look « film-soft », genere par scripts/lut/generer-luts.mjs
# Source : les coefficients de LOOKS_RENDUS, calcules par ffmpeg lui-meme.
# Aucune LUT tierce, aucun telechargement : provenance et licence du depot.
LUT_3D_SIZE 6
DOMAIN_MIN 0.0 0.0 0.0
DOMAIN_MAX 1.0 1.0 1.0
0.062745 0.047059 0.058824
0.239216 0.047059 0.054902
0.411765 0.043137 0.035294
0.588235 0.043137 0.031373
0.772549 0.043137 0.039216
0.956863 0.050980 0.035294
0.062745 0.231373 0.054902
0.243137 0.227451 0.058824
0.403922 0.231373 0.039216
0.588235 0.239216 0.035294
0.780392 0.231373 0.043137
0.960784 0.235294 0.035294
0.031373 0.411765 0.035294
0.227451 0.419608 0.043137
0.411765 0.419608 0.043137
0.600000 0.419608 0.043137
0.776471 0.419608 0.039216
0.964706 0.427451 0.043137
0.043137 0.600000 0.047059
0.223529 0.603922 0.035294
0.403922 0.603922 0.035294
0.596078 0.603922 0.047059
0.784314 0.611765 0.043137
0.972549 0.607843 0.050980
0.043137 0.788235 0.043137
0.227451 0.792157 0.047059
0.419608 0.788235 0.047059
0.600000 0.792157 0.047059
0.784314 0.792157 0.039216
0.964706 0.792157 0.047059
0.050980 0.976471 0.047059
0.235294 0.976471 0.047059
0.415686 0.976471 0.047059
0.596078 0.980392 0.047059
0.792157 0.976471 0.058824
0.972549 0.980392 0.050980
0.058824 0.043137 0.231373
0.243137 0.039216 0.239216
0.403922 0.047059 0.219608
0.592157 0.043137 0.219608
0.772549 0.047059 0.219608
0.956863 0.047059 0.219608
0.062745 0.231373 0.247059
0.223529 0.231373 0.219608
0.403922 0.235294 0.219608
0.596078 0.231373 0.219608
0.780392 0.235294 0.223529
0.964706 0.235294 0.231373
0.039216 0.411765 0.223529
0.223529 0.419608 0.219608
0.415686 0.419608 0.231373
0.596078 0.423529 0.231373
0.776471 0.423529 0.223529
0.968627 0.419608 0.231373
0.043137 0.603922 0.227451
0.223529 0.603922 0.227451
0.407843 0.603922 0.223529
0.596078 0.603922 0.223529
0.784314 0.603922 0.227451
0.968627 0.611765 0.231373
0.047059 0.788235 0.223529
0.231373 0.784314 0.231373
0.411765 0.788235 0.223529
0.596078 0.796078 0.227451
0.784314 0.792157 0.235294
0.968627 0.792157 0.227451
0.047059 0.972549 0.223529
0.231373 0.980392 0.235294
0.411765 0.980392 0.235294
0.603922 0.976471 0.235294
0.784314 0.976471 0.235294
0.976471 0.984314 0.231373
0.039216 0.043137 0.407843
0.219608 0.043137 0.400000
0.403922 0.043137 0.403922
0.588235 0.050980 0.400000
0.776471 0.047059 0.407843
0.960784 0.047059 0.407843
0.039216 0.231373 0.407843
0.227451 0.235294 0.400000
0.411765 0.231373 0.407843
0.592157 0.235294 0.407843
0.780392 0.231373 0.407843
0.956863 0.235294 0.407843
0.039216 0.415686 0.403922
0.227451 0.415686 0.415686
0.407843 0.419608 0.407843
0.588235 0.423529 0.407843
0.788235 0.423529 0.411765
0.964706 0.423529 0.411765
0.035294 0.603922 0.403922
0.231373 0.603922 0.415686
0.411765 0.603922 0.407843
0.600000 0.603922 0.415686
0.784314 0.607843 0.419608
0.964706 0.611765 0.407843
0.050980 0.792157 0.407843
0.231373 0.792157 0.415686
0.407843 0.792157 0.411765
0.596078 0.792157 0.411765
0.788235 0.796078 0.415686
0.972549 0.792157 0.415686
0.047059 0.976471 0.419608
0.231373 0.976471 0.411765
0.423529 0.976471 0.423529
0.603922 0.980392 0.415686
0.784314 0.984314 0.415686
0.968627 0.980392 0.423529
0.035294 0.047059 0.588235
0.223529 0.043137 0.588235
0.407843 0.043137 0.588235
0.588235 0.047059 0.584314
0.780392 0.047059 0.588235
0.960784 0.050980 0.588235
0.039216 0.231373 0.588235
0.227451 0.227451 0.592157
0.411765 0.235294 0.588235
0.596078 0.235294 0.596078
0.776471 0.235294 0.588235
0.960784 0.235294 0.596078
0.043137 0.415686 0.592157
0.227451 0.423529 0.596078
0.411765 0.423529 0.588235
0.600000 0.419608 0.596078
0.780392 0.419608 0.596078
0.968627 0.423529 0.600000
0.047059 0.600000 0.592157
0.227451 0.603922 0.592157
0.411765 0.600000 0.600000
0.596078 0.607843 0.596078
0.776471 0.607843 0.596078
0.972549 0.607843 0.600000
0.043137 0.788235 0.600000
0.227451 0.796078 0.596078
0.419608 0.788235 0.603922
0.600000 0.792157 0.592157
0.784314 0.788235 0.600000
0.968627 0.796078 0.603922
0.050980 0.976471 0.603922
0.235294 0.976471 0.592157
0.415686 0.976471 0.600000
0.600000 0.984314 0.603922
0.788235 0.984314 0.603922
0.972549 0.980392 0.603922
0.027451 0.047059 0.772549
0.227451 0.047059 0.776471
0.407843 0.047059 0.768627
0.592157 0.047059 0.776471
0.772549 0.047059 0.772549
0.952941 0.050980 0.772549
0.043137 0.231373 0.776471
0.223529 0.235294 0.776471
0.407843 0.231373 0.772549
0.596078 0.231373 0.772549
0.780392 0.235294 0.776471
0.964706 0.235294 0.776471
0.035294 0.415686 0.768627
0.223529 0.415686 0.768627
0.415686 0.419608 0.784314
0.596078 0.423529 0.776471
0.784314 0.419608 0.784314
0.964706 0.423529 0.776471
0.043137 0.603922 0.780392
0.231373 0.603922 0.780392
0.407843 0.603922 0.780392
0.596078 0.603922 0.772549
0.788235 0.607843 0.784314
0.972549 0.611765 0.788235
0.039216 0.792157 0.780392
0.231373 0.788235 0.780392
0.415686 0.796078 0.784314
0.603922 0.792157 0.792157
0.784314 0.796078 0.780392
0.964706 0.796078 0.780392
0.054902 0.980392 0.784314
0.235294 0.980392 0.792157
0.415686 0.984314 0.780392
0.607843 0.976471 0.788235
0.788235 0.980392 0.780392
0.976471 0.980392 0.792157
0.039216 0.043137 0.952941
0.219608 0.047059 0.952941
0.407843 0.043137 0.952941
0.592157 0.050980 0.956863
0.776471 0.047059 0.964706
0.964706 0.047059 0.952941
0.035294 0.231373 0.952941
0.219608 0.235294 0.964706
0.411765 0.231373 0.964706
0.592157 0.235294 0.952941
0.780392 0.231373 0.960784
0.964706 0.239216 0.964706
0.039216 0.415686 0.956863
0.227451 0.415686 0.956863
0.411765 0.419608 0.960784
0.600000 0.423529 0.964706
0.788235 0.423529 0.964706
0.968627 0.423529 0.964706
0.043137 0.600000 0.964706
0.227451 0.607843 0.960784
0.415686 0.607843 0.960784
0.600000 0.603922 0.968627
0.780392 0.607843 0.960784
0.972549 0.607843 0.972549
0.050980 0.788235 0.968627
0.231373 0.792157 0.968627
0.415686 0.788235 0.968627
0.600000 0.796078 0.972549
0.788235 0.796078 0.964706
0.972549 0.792157 0.968627
0.047059 0.976471 0.968627
0.231373 0.984314 0.972549
0.423529 0.980392 0.972549
0.603922 0.980392 0.968627
0.792157 0.980392 0.976471
0.972549 0.980392 0.968627
