public/luts/film-contrast.cube
# Studiio — look « film-contrast », genere par scripts/lut/generer-luts.mjs
# Source : les coefficients de LOOKS_RENDUS, calcules par ffmpeg lui-meme.
# Aucune LUT tierce, aucun telechargement : provenance et licence du depot.
LUT_3D_SIZE 16
DOMAIN_MIN 0.0 0.0 0.0
DOMAIN_MAX 1.0 1.0 1.0
0.000000 0.000000 0.000000
0.000000 0.000000 0.000000
0.015686 0.000000 0.000000
0.054902 0.000000 0.000000
0.129412 0.000000 0.000000
0.200000 0.000000 0.000000
0.274510 0.000000 0.000000
0.349020 0.000000 0.000000
0.423529 0.000000 0.000000
0.490196 0.000000 0.000000
0.560784 0.000000 0.000000
0.627451 0.000000 0.000000
0.705882 0.000000 0.000000
0.776471 0.000000 0.000000
0.847059 0.000000 0.000000
0.913725 0.000000 0.000000
0.000000 0.000000 0.000000
0.000000 0.000000 0.000000
0.003922 0.000000 0.000000
0.074510 0.000000 0.000000
0.141176 0.000000 0.000000
0.207843 0.000000 0.000000
0.290196 0.000000 0.000000
0.356863 0.000000 0.000000
0.423529 0.000000 0.000000
0.501961 0.000000 0.000000
0.572549 0.000000 0.000000
0.643137 0.003922 0.000000
0.709804 0.007843 0.000000
0.784314 0.011765 0.000000
0.858824 0.023529 0.000000
0.933333 0.023529 0.000000
0.000000 0.015686 0.000000
0.000000 0.019608 0.000000
0.011765 0.027451 0.000000
0.082353 0.027451 0.000000
0.160784 0.039216 0.000000
0.227451 0.043137 0.000000
0.294118 0.050980 0.000000
0.368627 0.054902 0.000000
0.443137 0.062745 0.000000
0.513725 0.062745 0.000000
0.584314 0.070588 0.000000
0.658824 0.074510 0.000000
0.729412 0.090196 0.000000
0.800000 0.094118 0.000000
0.866667 0.094118 0.000000
0.937255 0.105882 0.000000
0.000000 0.094118 0.000000
0.000000 0.094118 0.000000
0.019608 0.098039 0.000000
0.101961 0.109804 0.000000
0.168627 0.113725 0.000000
0.243137 0.117647 0.000000
0.309804 0.129412 0.000000
0.384314 0.129412 0.000000
0.454902 0.141176 0.000000
0.521569 0.145098 0.000000
0.592157 0.145098 0.000000
0.670588 0.160784 0.000000
0.741176 0.160784 0.000000
0.803922 0.168627 0.000000
0.878431 0.172549 0.000000
0.945098 0.176471 0.000000
0.000000 0.164706 0.000000
0.000000 0.176471 0.000000
0.035294 0.180392 0.000000
0.101961 0.184314 0.000000
0.184314 0.192157 0.000000
0.250980 0.196078 0.000000
0.325490 0.200000 0.000000
0.388235 0.211765 0.000000
0.462745 0.211765 0.000000
0.537255 0.223529 0.000000
0.611765 0.227451 0.000000
0.678431 0.231373 0.000000
0.756863 0.235294 0.000000
0.815686 0.243137 0.000000
0.894118 0.250980 0.000000
0.964706 0.258824 0.000000
0.000000 0.243137 0.000000
0.000000 0.250980 0.000000
0.054902 0.258824 0.000000
0.121569 0.262745 0.000000
0.192157 0.266667 0.000000
0.262745 0.274510 0.000000
0.337255 0.274510 0.000000
0.403922 0.278431 0.000000
0.474510 0.298039 0.000000
0.545098 0.298039 0.000000
0.615686 0.305882 0.000000
0.690196 0.305882 0.000000
0.760784 0.317647 0.000000
0.839216 0.321569 0.000000
0.898039 0.329412 0.000000
0.972549 0.333333 0.000000
0.000000 0.317647 0.000000
0.000000 0.329412 0.000000
0.054902 0.337255 0.000000
0.133333 0.341176 0.000000
0.200000 0.345098 0.000000
0.270588 0.345098 0.000000
0.349020 0.360784 0.000000
0.419608 0.360784 0.000000
0.482353 0.368627 0.000000
0.560784 0.372549 0.000000
0.631373 0.384314 0.000000
0.701961 0.384314 0.000000
0.772549 0.392157 0.000000
0.847059 0.396078 0.000000
0.921569 0.407843 0.000000
0.984314 0.415686 0.000000
0.000000 0.400000 0.000000
0.003922 0.400000 0.000000
0.074510 0.407843 0.000000
0.141176 0.411765 0.000000
0.211765 0.423529 0.000000
0.290196 0.427451 0.000000
0.356863 0.431373 0.000000
0.427451 0.439216 0.000000
0.505882 0.447059 0.000000
0.564706 0.454902 0.000000
0.643137 0.462745 0.000000
0.709804 0.462745 0.000000
0.780392 0.466667 0.000000
0.858824 0.478431 0.007843
0.929412 0.482353 0.007843
0.996078 0.486275 0.015686
0.000000 0.478431 0.000000
0.007843 0.478431 0.000000
0.086275 0.486275 0.000000
0.152941 0.498039 0.000000
0.223529 0.498039 0.000000
0.290196 0.501961 0.000000
0.372549 0.513725 0.000000
0.439216 0.517647 0.000000
0.513725 0.521569 0.000000
0.584314 0.529412 0.000000
0.650980 0.533333 0.000000
0.725490 0.545098 0.007843
0.800000 0.549020 0.007843
0.866667 0.552941 0.015686
0.937255 0.560784 0.019608
1.000000 0.560784 0.027451
0.000000 0.552941 0.000000
0.027451 0.560784 0.000000
0.098039 0.564706 0.000000
0.164706 0.568627 0.000000
0.243137 0.580392 0.000000
0.309804 0.584314 0.000000
0.376471 0.592157 0.000000
0.450980 0.596078 0.000000
0.517647 0.600000 0.000000
0.592157 0.600000 0.000000
0.666667 0.615686 0.007843
0.733333 0.619608 0.015686
0.807843 0.627451 0.019608
0.878431 0.627451 0.027451
0.949020 0.635294 0.035294
1.000000 0.643137 0.047059
0.000000 0.631373 0.000000
0.035294 0.635294 0.000000
0.101961 0.639216 0.000000
0.184314 0.647059 0.000000
0.250980 0.654902 0.000000
0.321569 0.662745 0.000000
0.388235 0.666667 0.000000
0.462745 0.666667 0.000000
0.537255 0.682353 0.007843
0.607843 0.682353 0.015686
0.674510 0.686275 0.015686
0.752941 0.694118 0.027451
0.819608 0.701961 0.035294
0.890196 0.705882 0.043137
0.960784 0.713725 0.047059
1.000000 0.717647 0.054902
0.000000 0.705882 0.000000
0.050980 0.717647 0.000000
0.117647 0.717647 0.000000
0.192157 0.721569 0.000000
0.262745 0.729412 0.000000
0.337255 0.733333 0.000000
0.400000 0.745098 0.003922
0.470588 0.752941 0.015686
0.545098 0.752941 0.015686
0.615686 0.760784 0.027451
0.694118 0.768627 0.035294
0.760784 0.772549 0.043137
0.839216 0.776471 0.047059
0.898039 0.784314 0.054902
0.972549 0.788235 0.054902
1.000000 0.800000 0.070588
0.000000 0.788235 0.000000
0.054902 0.792157 0.000000
0.129412 0.796078 0.000000
0.196078 0.800000 0.000000
0.274510 0.807843 0.011765
0.345098 0.815686 0.015686
0.419608 0.815686 0.023529
0.478431 0.823529 0.019608
0.560784 0.835294 0.035294
0.627451 0.839216 0.043137
0.705882 0.843137 0.047059
0.772549 0.847059 0.054902
0.847059 0.850980 0.054902
0.913725 0.866667 0.070588
0.980392 0.870588 0.070588
1.000000 0.870588 0.074510
0.000000 0.854902 0.000000
0.066667 0.866667 0.000000
0.145098 0.874510 0.011765
0.215686 0.882353 0.015686
0.286275 0.882353 0.023529
0.352941 0.890196 0.019608
0.431373 0.898039 0.043137
0.501961 0.901961 0.043137
0.564706 0.909804 0.050980
0.643137 0.913725 0.054902
0.709804 0.917647 0.062745
0.780392 0.921569 0.062745
0.854902 0.933333 0.070588
0.929412 0.937255 0.074510
0.996078 0.949020 0.078431
1.000000 0.949020 0.086275
0.011765 0.941176 0.011765
0.086275 0.941176 0.011765
0.149020 0.952941 0.023529
0.223529 0.956863 0.019608
0.290196 0.956863 0.035294
0.372549 0.968627 0.043137
0.439216 0.972549 0.050980
0.517647 0.980392 0.054902
0.576471 0.984314 0.062745
0.650980 0.988235 0.062745
0.725490 1.000000 0.078431
0.800000 1.000000 0.074510
0.866667 1.000000 0.082353
0.937255 1.000000 0.086275
1.000000 1.000000 0.090196
1.000000 1.000000 0.098039
0.023529 1.000000 0.023529
0.098039 1.000000 0.019608
0.164706 1.000000 0.035294
0.239216 1.000000 0.043137
0.305882 1.000000 0.050980
0.372549 1.000000 0.050980
0.450980 1.000000 0.062745
0.517647 1.000000 0.062745
0.596078 1.000000 0.074510
0.658824 1.000000 0.074510
0.733333 1.000000 0.082353
0.803922 1.000000 0.086275
0.882353 1.000000 0.098039
0.949020 1.000000 0.098039
1.000000 1.000000 0.109804
1.000000 1.000000 0.109804
0.000000 0.000000 0.000000
0.000000 0.000000 0.000000
0.007843 0.000000 0.000000
0.066667 0.000000 0.000000
0.133333 0.000000 0.000000
0.200000 0.000000 0.000000
0.282353 0.000000 0.000000
0.349020 0.000000 0.000000
0.423529 0.000000 0.000000
0.490196 0.000000 0.000000
0.556863 0.000000 0.000000
0.635294 0.000000 0.000000
0.701961 0.000000 0.000000
0.772549 0.000000 0.000000
0.850980 0.000000 0.000000
0.921569 0.000000 0.007843
0.000000 0.000000 0.000000
0.000000 0.000000 0.000000
0.000000 0.000000 0.000000
0.074510 0.000000 0.000000
0.145098 0.000000 0.000000
0.215686 0.000000 0.000000
0.282353 0.000000 0.000000
0.360784 0.000000 0.000000
0.431373 0.000000 0.000000
0.509804 0.000000 0.000000
0.576471 0.000000 0.000000
0.643137 0.003922 0.000000
0.717647 0.015686 0.000000
0.792157 0.015686 0.007843
0.858824 0.019608 0.007843
0.933333 0.023529 0.019608
0.000000 0.015686 0.000000
0.000000 0.019608 0.000000
0.019608 0.031373 0.000000
0.090196 0.031373 0.000000
0.156863 0.039216 0.000000
0.227451 0.047059 0.000000
0.301961 0.054902 0.000000
0.372549 0.054902 0.000000
0.443137 0.066667 0.000000
0.509804 0.070588 0.000000
0.584314 0.070588 0.000000
0.658824 0.082353 0.007843
0.725490 0.086275 0.007843
0.796078 0.094118 0.019608
0.870588 0.098039 0.019608
0.937255 0.101961 0.027451
0.000000 0.094118 0.000000
0.000000 0.101961 0.000000
0.027451 0.101961 0.000000
0.094118 0.109804 0.000000
0.176471 0.117647 0.000000
0.243137 0.121569 0.000000
0.313725 0.129412 0.000000
0.380392 0.137255 0.000000
0.450980 0.137255 0.000000
0.529412 0.149020 0.007843
0.600000 0.152941 0.007843
0.666667 0.152941 0.015686
0.745098 0.160784 0.019608
0.803922 0.168627 0.027451
0.882353 0.172549 0.031373
0.952941 0.184314 0.043137
0.000000 0.168627 0.000000
0.000000 0.176471 0.000000
0.043137 0.184314 0.000000
0.109804 0.188235 0.000000
0.184314 0.188235 0.000000
0.254902 0.200000 0.000000
0.325490 0.200000 0.000000
0.396078 0.215686 0.007843
0.470588 0.215686 0.015686
0.537255 0.223529 0.015686
0.607843 0.231373 0.019608
0.682353 0.231373 0.027451
0.752941 0.243137 0.031373
0.827451 0.247059 0.043137
0.890196 0.254902 0.039216
0.960784 0.254902 0.047059
0.000000 0.247059 0.000000
0.000000 0.254902 0.000000
0.047059 0.258824 0.000000
0.121569 0.266667 0.000000
0.188235 0.270588 0.000000
0.262745 0.270588 0.000000
0.337255 0.282353 0.015686
0.411765 0.286275 0.015686
0.470588 0.294118 0.023529
0.549020 0.298039 0.027451
0.619608 0.305882 0.039216
0.698039 0.313725 0.043137
0.764706 0.317647 0.039216
0.839216 0.317647 0.047059
0.905882 0.337255 0.054902
0.980392 0.337255 0.062745
0.000000 0.325490 0.000000
0.000000 0.325490 0.000000
0.058824 0.337255 0.000000
0.129412 0.337255 0.000000
0.207843 0.349020 0.015686
0.278431 0.352941 0.015686
0.345098 0.356863 0.023529
0.423529 0.360784 0.027451
0.494118 0.372549 0.039216
0.556863 0.380392 0.035294
0.631373 0.384314 0.047059
0.698039 0.388235 0.047059
0.772549 0.388235 0.054902
0.847059 0.403922 0.062745
0.921569 0.403922 0.062745
0.984314 0.415686 0.074510
0.000000 0.400000 0.000000
0.000000 0.403922 0.000000
0.078431 0.407843 0.011765
0.141176 0.423529 0.015686
0.215686 0.423529 0.023529
0.282353 0.427451 0.019608
0.364706 0.439216 0.039216
0.431373 0.443137 0.035294
0.505882 0.447059 0.047059
0.568627 0.454902 0.047059
0.639216 0.454902 0.054902
0.717647 0.470588 0.062745
0.788235 0.470588 0.070588
0.854902 0.474510 0.070588
0.933333 0.482353 0.078431
1.000000 0.490196 0.082353
0.000000 0.478431 0.011765
0.015686 0.486275 0.015686
0.090196 0.486275 0.023529
0.156863 0.490196 0.019608
0.231373 0.505882 0.039216
0.298039 0.509804 0.035294
0.372549 0.509804 0.043137
0.443137 0.521569 0.047059
0.509804 0.521569 0.054902
0.592157 0.533333 0.062745
0.650980 0.541176 0.070588
0.725490 0.541176 0.070588
0.796078 0.552941 0.078431
0.874510 0.556863 0.082353
0.941176 0.560784 0.090196
1.000000 0.568627 0.094118
0.000000 0.556863 0.023529
0.023529 0.556863 0.019608
0.101961 0.572549 0.039216
0.172549 0.572549 0.035294
0.235294 0.580392 0.043137
0.309804 0.588235 0.047059
0.376471 0.592157 0.054902
0.450980 0.592157 0.054902
0.525490 0.603922 0.070588
0.600000 0.607843 0.070588
0.666667 0.611765 0.074510
0.741176 0.623529 0.082353
0.807843 0.627451 0.090196
0.886275 0.635294 0.094118
0.952941 0.639216 0.101961
1.000000 0.643137 0.101961
0.000000 0.627451 0.027451
0.043137 0.639216 0.043137
0.109804 0.643137 0.043137
0.180392 0.647059 0.043137
0.254902 0.654902 0.054902
0.321569 0.658824 0.054902
0.396078 0.670588 0.070588
0.462745 0.678431 0.070588
0.533333 0.678431 0.074510
0.611765 0.690196 0.082353
0.682353 0.690196 0.090196
0.749020 0.698039 0.090196
0.819608 0.705882 0.101961
0.886275 0.709804 0.101961
0.960784 0.709804 0.105882
1.000000 0.725490 0.125490
0.000000 0.709804 0.043137
0.043137 0.713725 0.050980
0.121569 0.721569 0.054902
0.188235 0.725490 0.062745
0.266667 0.729412 0.066667
0.337255 0.741176 0.070588
0.403922 0.745098 0.074510
0.470588 0.749020 0.074510
0.552941 0.760784 0.090196
0.619608 0.764706 0.090196
0.698039 0.768627 0.101961
0.764706 0.772549 0.101961
0.835294 0.776471 0.105882
0.905882 0.792157 0.125490
0.976471 0.792157 0.129412
1.000000 0.796078 0.129412
0.000000 0.788235 0.054902
0.054902 0.792157 0.062745
0.133333 0.800000 0.066667
0.203922 0.807843 0.078431
0.278431 0.807843 0.074510
0.345098 0.811765 0.082353
0.427451 0.823529 0.090196
0.486275 0.831373 0.090196
0.552941 0.835294 0.098039
0.631373 0.843137 0.101961
0.698039 0.843137 0.105882
0.780392 0.854902 0.125490
0.847059 0.858824 0.129412
0.921569 0.858824 0.129412
0.984314 0.870588 0.141176
1.000000 0.878431 0.145098
0.003922 0.866667 0.066667
0.070588 0.866667 0.070588
0.141176 0.878431 0.074510
0.211765 0.878431 0.082353
0.290196 0.894118 0.090196
0.360784 0.894118 0.098039
0.427451 0.898039 0.098039
0.505882 0.901961 0.109804
0.568627 0.909804 0.105882
0.643137 0.917647 0.117647
0.713725 0.925490 0.129412
0.788235 0.925490 0.129412
0.854902 0.929412 0.137255
0.937255 0.941176 0.145098
0.996078 0.949020 0.152941
1.000000 0.956863 0.156863
0.015686 0.941176 0.074510
0.090196 0.941176 0.082353
0.149020 0.949020 0.082353
0.231373 0.960784 0.098039
0.298039 0.964706 0.098039
0.368627 0.964706 0.105882
0.443137 0.976471 0.105882
0.513725 0.980392 0.125490
0.592157 0.988235 0.129412
0.650980 0.996078 0.137255
0.721569 0.996078 0.137255
0.800000 1.000000 0.152941
0.870588 1.000000 0.152941
0.937255 1.000000 0.152941
1.000000 1.000000 0.164706
1.000000 1.000000 0.160784
0.023529 1.000000 0.082353
0.098039 1.000000 0.098039
0.172549 1.000000 0.098039
0.231373 1.000000 0.105882
0.309804 1.000000 0.105882
0.380392 1.000000 0.125490
0.454902 1.000000 0.125490
0.525490 1.000000 0.137255
0.600000 1.000000 0.137255
0.666667 1.000000 0.152941
0.741176 1.000000 0.152941
0.807843 1.000000 0.160784
0.886275 1.000000 0.164706
0.952941 1.000000 0.168627
1.000000 1.000000 0.168627
1.000000 1.000000 0.176471
0.000000 0.000000 0.039216
0.000000 0.000000 0.015686
0.003922 0.000000 0.000000
0.062745 0.000000 0.000000
0.133333 0.000000 0.007843
0.207843 0.000000 0.007843
0.278431 0.000000 0.019608
0.349020 0.000000 0.019608
0.423529 0.000000 0.031373
0.498039 0.000000 0.035294
0.560784 0.000000 0.039216
0.631373 0.000000 0.039216
0.709804 0.000000 0.054902
0.780392 0.000000 0.054902
0.847059 0.000000 0.062745
0.925490 0.000000 0.066667
0.000000 0.000000 0.000000
0.000000 0.000000 0.000000
0.007843 0.000000 0.007843
0.082353 0.000000 0.007843
0.149020 0.000000 0.015686
0.219608 0.000000 0.019608
0.290196 0.000000 0.031373
0.364706 0.000000 0.027451
0.435294 0.000000 0.039216
0.505882 0.000000 0.039216
0.584314 0.003922 0.054902
0.643137 0.011765 0.054902
0.717647 0.011765 0.062745
0.788235 0.023529 0.066667
0.858824 0.023529 0.074510
0.933333 0.031373 0.078431
0.000000 0.015686 0.003922
0.000000 0.023529 0.015686
0.015686 0.027451 0.015686
0.086275 0.035294 0.019608
0.164706 0.043137 0.031373
0.227451 0.050980 0.027451
0.301961 0.054902 0.039216
0.368627 0.058824 0.039216
0.443137 0.062745 0.047059
0.517647 0.074510 0.054902
0.592157 0.074510 0.062745
0.658824 0.082353 0.062745
0.729412 0.090196 0.074510
0.800000 0.098039 0.078431
0.878431 0.101961 0.094118
0.945098 0.105882 0.094118
0.000000 0.094118 0.015686
0.000000 0.098039 0.023529
0.035294 0.109804 0.031373
0.101961 0.113725 0.035294
0.176471 0.117647 0.039216
0.243137 0.125490 0.039216
0.309804 0.129412 0.047059
0.388235 0.141176 0.054902
0.458824 0.141176 0.062745
0.525490 0.149020 0.062745
0.596078 0.156863 0.074510
0.674510 0.160784 0.078431
0.741176 0.164706 0.090196
0.811765 0.172549 0.094118
0.878431 0.176471 0.101961
0.960784 0.188235 0.109804
0.000000 0.176471 0.031373
0.000000 0.180392 0.035294
0.035294 0.184314 0.035294
0.113725 0.188235 0.047059
0.180392 0.196078 0.047059
0.250980 0.196078 0.054902
0.329412 0.207843 0.062745
0.396078 0.211765 0.070588
0.466667 0.223529 0.074510
0.545098 0.227451 0.078431
0.611765 0.231373 0.090196
0.686275 0.239216 0.094118
0.752941 0.243137 0.101961
0.827451 0.243137 0.101961
0.898039 0.258824 0.117647
0.968627 0.262745 0.117647
0.000000 0.247059 0.035294
0.000000 0.254902 0.047059
0.047059 0.262745 0.047059
0.121569 0.262745 0.054902
0.196078 0.278431 0.062745
0.270588 0.278431 0.070588
0.337255 0.282353 0.066667
0.419608 0.290196 0.086275
0.478431 0.298039 0.090196
0.552941 0.298039 0.098039
0.623529 0.309804 0.101961
0.690196 0.313725 0.101961
0.772549 0.321569 0.117647
0.839216 0.329412 0.117647
0.909804 0.329412 0.121569
0.976471 0.341176 0.125490
0.000000 0.325490 0.047059
0.000000 0.325490 0.054902
0.062745 0.337255 0.058824
0.133333 0.349020 0.070588
0.203922 0.349020 0.066667
0.282353 0.360784 0.086275
0.352941 0.360784 0.090196
0.419608 0.364706 0.098039
0.498039 0.372549 0.101961
0.556863 0.380392 0.109804
0.631373 0.380392 0.109804
0.705882 0.392157 0.125490
0.780392 0.396078 0.121569
0.850980 0.403922 0.125490
0.925490 0.403922 0.133333
0.988235 0.419608 0.137255
0.000000 0.403922 0.058824
0.007843 0.411765 0.070588
0.078431 0.411765 0.066667
0.141176 0.419608 0.074510
0.223529 0.427451 0.090196
0.290196 0.431373 0.098039
0.364706 0.439216 0.101961
0.431373 0.443137 0.109804
0.505882 0.443137 0.109804
0.580392 0.458824 0.125490
0.643137 0.466667 0.121569
0.713725 0.466667 0.129412
0.788235 0.474510 0.133333
0.862745 0.482353 0.145098
0.929412 0.486275 0.145098
1.000000 0.494118 0.149020
0.000000 0.478431 0.066667
0.015686 0.482353 0.074510
0.090196 0.494118 0.090196
0.164706 0.498039 0.098039
0.223529 0.505882 0.098039
0.301961 0.509804 0.109804
0.368627 0.513725 0.109804
0.447059 0.521569 0.121569
0.517647 0.529412 0.121569
0.588235 0.529412 0.129412
0.654902 0.541176 0.133333
0.733333 0.549020 0.145098
0.800000 0.552941 0.145098
0.878431 0.556863 0.156863
0.941176 0.564706 0.156863
1.000000 0.564706 0.160784
0.000000 0.552941 0.082353
0.031373 0.564706 0.098039
0.098039 0.568627 0.098039
0.176471 0.572549 0.109804
0.243137 0.580392 0.109804
0.313725 0.588235 0.121569
0.384314 0.596078 0.121569
0.458824 0.596078 0.129412
0.525490 0.600000 0.129412
0.600000 0.615686 0.145098
0.674510 0.615686 0.145098
0.733333 0.623529 0.152941
0.811765 0.631373 0.156863
0.878431 0.635294 0.160784
0.960784 0.643137 0.172549
1.000000 0.647059 0.176471
0.000000 0.635294 0.105882
0.035294 0.639216 0.105882
0.109804 0.647059 0.109804
0.184314 0.654902 0.121569
0.254902 0.654902 0.117647
0.321569 0.666667 0.129412
0.392157 0.670588 0.129412
0.470588 0.682353 0.145098
0.541176 0.682353 0.145098
0.607843 0.686275 0.152941
0.686275 0.694118 0.156863
0.752941 0.698039 0.160784
0.819608 0.701961 0.160784
0.894118 0.713725 0.176471
0.968627 0.717647 0.176471
1.000000 0.725490 0.188235
0.000000 0.709804 0.117647
0.050980 0.721569 0.121569
0.125490 0.721569 0.125490
0.196078 0.729412 0.129412
0.266667 0.733333 0.129412
0.333333 0.737255 0.137255
0.411765 0.749020 0.145098
0.478431 0.752941 0.152941
0.549020 0.764706 0.156863
0.623529 0.764706 0.160784
0.690196 0.768627 0.160784
0.768627 0.780392 0.176471
0.835294 0.784314 0.176471
0.901961 0.788235 0.184314
0.976471 0.796078 0.188235
1.000000 0.803922 0.200000
0.000000 0.788235 0.125490
0.062745 0.796078 0.129412
0.129412 0.800000 0.137255
0.203922 0.803922 0.137255
0.278431 0.815686 0.152941
0.352941 0.819608 0.152941
0.419608 0.823529 0.149020
0.490196 0.831373 0.160784
0.556863 0.835294 0.160784
0.635294 0.843137 0.172549
0.705882 0.850980 0.176471
0.780392 0.850980 0.184314
0.850980 0.862745 0.188235
0.925490 0.866667 0.200000
0.988235 0.874510 0.207843
1.000000 0.882353 0.219608
0.003922 0.866667 0.137255
0.070588 0.870588 0.137255
0.137255 0.874510 0.145098
0.219608 0.886275 0.152941
0.286275 0.890196 0.160784
0.364706 0.894118 0.160784
0.431373 0.898039 0.168627
0.509804 0.905882 0.172549
0.572549 0.917647 0.176471
0.639216 0.921569 0.184314
0.713725 0.921569 0.184314
0.788235 0.937255 0.200000
0.862745 0.937255 0.207843
0.929412 0.941176 0.211765
1.000000 0.945098 0.215686
1.000000 0.952941 0.223529
0.015686 0.937255 0.145098
0.090196 0.952941 0.152941
0.156863 0.956863 0.160784
0.223529 0.960784 0.156863
0.301961 0.964706 0.168627
0.372549 0.976471 0.172549
0.447059 0.980392 0.184314
0.513725 0.984314 0.184314
0.588235 0.984314 0.192157
0.658824 1.000000 0.200000
0.729412 1.000000 0.207843
0.796078 1.000000 0.211765
0.874510 1.000000 0.215686
0.941176 1.000000 0.223529
1.000000 1.000000 0.223529
1.000000 1.000000 0.239216
0.031373 1.000000 0.160784
0.098039 1.000000 0.156863
0.176471 1.000000 0.168627
0.239216 1.000000 0.172549
0.313725 1.000000 0.180392
0.384314 1.000000 0.184314
0.458824 1.000000 0.192157
0.525490 1.000000 0.188235
0.600000 1.000000 0.215686
0.670588 1.000000 0.211765
0.737255 1.000000 0.223529
0.811765 1.000000 0.223529
0.878431 1.000000 0.231373
0.960784 1.000000 0.239216
1.000000 1.000000 0.239216
1.000000 1.000000 0.247059
0.000000 0.000000 0.086275
0.000000 0.000000 0.078431
0.000000 0.000000 0.062745
0.070588 0.000000 0.070588
0.133333 0.000000 0.070588
0.215686 0.000000 0.086275
0.282353 0.000000 0.082353
0.356863 0.000000 0.094118
0.423529 0.000000 0.094118
0.498039 0.000000 0.101961
0.572549 0.000000 0.109804
0.639216 0.000000 0.117647
0.705882 0.000000 0.117647
0.776471 0.000000 0.129412
0.850980 0.000000 0.125490
0.921569 0.000000 0.137255
0.000000 0.000000 0.062745
0.000000 0.000000 0.070588
0.007843 0.000000 0.070588
0.090196 0.000000 0.086275
0.156863 0.000000 0.082353
0.215686 0.000000 0.090196
0.294118 0.000000 0.094118
0.360784 0.000000 0.101961
0.431373 0.000000 0.101961
0.509804 0.000000 0.117647
0.580392 0.000000 0.117647
0.647059 0.011765 0.129412
0.717647 0.011765 0.125490
0.792157 0.023529 0.137255
0.866667 0.027451 0.141176
0.933333 0.031373 0.149020
0.000000 0.015686 0.078431
0.000000 0.031373 0.086275
0.023529 0.035294 0.082353
0.090196 0.039216 0.090196
0.168627 0.043137 0.094118
0.235294 0.047059 0.101961
0.301961 0.050980 0.101961
0.376471 0.066667 0.117647
0.450980 0.066667 0.117647
0.517647 0.070588 0.121569
0.596078 0.078431 0.125490
0.666667 0.086275 0.137255
0.729412 0.098039 0.141176
0.803922 0.098039 0.149020
0.870588 0.101961 0.149020
0.952941 0.113725 0.164706
0.000000 0.098039 0.090196
0.000000 0.105882 0.090196
0.031373 0.105882 0.098039
0.101961 0.113725 0.101961
0.168627 0.117647 0.101961
0.250980 0.129412 0.117647
0.313725 0.137255 0.117647
0.384314 0.137255 0.121569
0.454902 0.149020 0.125490
0.533333 0.152941 0.137255
0.600000 0.156863 0.137255
0.678431 0.160784 0.149020
0.745098 0.168627 0.149020
0.811765 0.172549 0.156863
0.886275 0.184314 0.164706
0.960784 0.184314 0.176471
0.000000 0.172549 0.098039
0.000000 0.180392 0.101961
0.039216 0.184314 0.109804
0.117647 0.192157 0.113725
0.188235 0.200000 0.125490
0.258824 0.200000 0.121569
0.325490 0.207843 0.121569
0.403922 0.219608 0.137255
0.470588 0.223529 0.137255
0.545098 0.227451 0.149020
0.611765 0.235294 0.149020
0.678431 0.239216 0.156863
0.760784 0.250980 0.164706
0.827451 0.250980 0.176471
0.894118 0.254902 0.176471
0.964706 0.262745 0.188235
0.000000 0.247059 0.109804
0.000000 0.258824 0.113725
0.054902 0.266667 0.125490
0.121569 0.270588 0.121569
0.196078 0.270588 0.129412
0.270588 0.286275 0.137255
0.345098 0.286275 0.145098
0.411765 0.290196 0.145098
0.482353 0.298039 0.156863
0.549020 0.305882 0.156863
0.631373 0.317647 0.164706
0.698039 0.317647 0.176471
0.768627 0.321569 0.176471
0.843137 0.329412 0.188235
0.913725 0.329412 0.188235
0.980392 0.341176 0.200000
0.000000 0.325490 0.117647
0.000000 0.337255 0.121569
0.062745 0.337255 0.129412
0.141176 0.352941 0.137255
0.211765 0.352941 0.145098
0.278431 0.356863 0.145098
0.356863 0.364706 0.156863
0.423529 0.368627 0.156863
0.498039 0.368627 0.160784
0.564706 0.384314 0.176471
0.639216 0.384314 0.184314
0.705882 0.392157 0.184314
0.776471 0.400000 0.188235
0.854902 0.403922 0.200000
