public/luts/film-contrast.cube
# Studiio — look « film-contrast », genere par scripts/lut/generer-luts.mjs
# Source : les coefficients de LOOKS_RENDUS, calcules par ffmpeg lui-meme.
# Aucune LUT tierce, aucun telechargement : provenance et licence du depot.
LUT_3D_SIZE 6
DOMAIN_MIN 0.0 0.0 0.0
DOMAIN_MAX 1.0 1.0 1.0
0.000000 0.000000 0.000000
0.054902 0.000000 0.000000
0.274510 0.000000 0.000000
0.490196 0.000000 0.000000
0.705882 0.000000 0.000000
0.913725 0.000000 0.000000
0.000000 0.094118 0.000000
0.101961 0.109804 0.000000
0.309804 0.129412 0.000000
0.521569 0.145098 0.000000
0.741176 0.160784 0.000000
0.945098 0.176471 0.000000
0.000000 0.317647 0.000000
0.133333 0.341176 0.000000
0.349020 0.360784 0.000000
0.560784 0.372549 0.000000
0.772549 0.392157 0.000000
0.984314 0.415686 0.000000
0.000000 0.552941 0.000000
0.164706 0.568627 0.000000
0.376471 0.592157 0.000000
0.592157 0.600000 0.000000
0.807843 0.627451 0.019608
1.000000 0.643137 0.047059
0.000000 0.788235 0.000000
0.196078 0.800000 0.000000
0.419608 0.815686 0.023529
0.627451 0.839216 0.043137
0.847059 0.850980 0.054902
1.000000 0.870588 0.074510
0.023529 1.000000 0.023529
0.239216 1.000000 0.043137
0.450980 1.000000 0.062745
0.658824 1.000000 0.074510
0.882353 1.000000 0.098039
1.000000 1.000000 0.109804
0.000000 0.000000 0.086275
0.070588 0.000000 0.070588
0.282353 0.000000 0.082353
0.498039 0.000000 0.101961
0.705882 0.000000 0.117647
0.921569 0.000000 0.137255
0.000000 0.098039 0.090196
0.101961 0.113725 0.101961
0.313725 0.137255 0.117647
0.533333 0.152941 0.137255
0.745098 0.168627 0.149020
0.960784 0.184314 0.176471
0.000000 0.325490 0.117647
0.141176 0.352941 0.137255
0.356863 0.364706 0.156863
0.564706 0.384314 0.176471
0.776471 0.400000 0.188235
1.000000 0.415686 0.211765
0.000000 0.560784 0.152941
0.172549 0.576471 0.172549
0.384314 0.592157 0.192157
0.600000 0.611765 0.203922
0.819608 0.635294 0.231373
1.000000 0.650980 0.243137
0.000000 0.788235 0.192157
0.211765 0.807843 0.211765
0.423529 0.823529 0.223529
0.631373 0.847059 0.239216
0.850980 0.862745 0.258824
1.000000 0.878431 0.270588
0.035294 1.000000 0.223529
0.243137 1.000000 0.247059
0.458824 1.000000 0.258824
0.674510 1.000000 0.278431
0.886275 1.000000 0.298039
1.000000 1.000000 0.313725
0.000000 0.000000 0.266667
0.074510 0.000000 0.262745
0.290196 0.000000 0.286275
0.505882 0.000000 0.298039
0.709804 0.000000 0.325490
0.929412 0.000000 0.341176
0.000000 0.105882 0.286275
0.109804 0.125490 0.298039
0.325490 0.137255 0.325490
0.537255 0.156863 0.341176
0.756863 0.172549 0.360784
0.960784 0.192157 0.372549
0.000000 0.333333 0.321569
0.149020 0.352941 0.349020
0.364706 0.376471 0.360784
0.568627 0.392157 0.372549
0.788235 0.407843 0.392157
1.000000 0.427451 0.407843
0.000000 0.564706 0.352941
0.180392 0.580392 0.376471
0.392157 0.603922 0.388235
0.607843 0.615686 0.407843
0.819608 0.639216 0.435294
1.000000 0.658824 0.447059
0.007843 0.800000 0.388235
0.211765 0.815686 0.407843
0.427451 0.835294 0.427451
0.643137 0.850980 0.450980
0.854902 0.866667 0.462745
1.000000 0.886275 0.482353
0.039216 1.000000 0.439216
0.254902 1.000000 0.450980
0.466667 1.000000 0.470588
0.682353 1.000000 0.482353
0.886275 1.000000 0.494118
1.000000 1.000000 0.517647
0.000000 0.000000 0.454902
0.086275 0.000000 0.478431
0.290196 0.000000 0.486275
0.505882 0.000000 0.501961
0.721569 0.000000 0.521569
0.933333 0.000000 0.533333
0.000000 0.109804 0.486275
0.117647 0.129412 0.509804
0.333333 0.149020 0.521569
0.545098 0.160784 0.541176
0.760784 0.180392 0.556863
0.968627 0.200000 0.584314
0.000000 0.333333 0.521569
0.149020 0.360784 0.541176
0.364706 0.384314 0.556863
0.588235 0.396078 0.584314
0.792157 0.415686 0.596078
1.000000 0.431373 0.619608
0.000000 0.572549 0.560784
0.184314 0.588235 0.576471
0.400000 0.607843 0.600000
0.615686 0.627451 0.611765
0.819608 0.643137 0.623529
1.000000 0.662745 0.650980
0.011765 0.803922 0.600000
0.219608 0.827451 0.611765
0.439216 0.835294 0.631373
0.647059 0.858824 0.647059
0.866667 0.874510 0.666667
1.000000 0.890196 0.686275
0.043137 1.000000 0.631373
0.266667 1.000000 0.647059
0.474510 1.000000 0.666667
0.686275 1.000000 0.686275
0.898039 1.000000 0.705882
1.000000 1.000000 0.717647
0.000000 0.000000 0.662745
0.090196 0.000000 0.670588
0.298039 0.000000 0.686275
0.513725 0.000000 0.709804
0.725490 0.000000 0.725490
0.941176 0.000000 0.749020
0.000000 0.117647 0.694118
0.121569 0.133333 0.709804
0.341176 0.149020 0.733333
0.552941 0.172549 0.749020
0.760784 0.188235 0.756863
0.976471 0.207843 0.780392
0.000000 0.345098 0.729412
0.152941 0.360784 0.737255
0.376471 0.384314 0.764706
0.588235 0.403922 0.780392
0.803922 0.423529 0.800000
1.000000 0.439216 0.811765
0.000000 0.580392 0.760784
0.196078 0.596078 0.784314
0.400000 0.615686 0.792157
0.615686 0.635294 0.807843
0.839216 0.647059 0.835294
1.000000 0.674510 0.854902
0.015686 0.811765 0.792157
0.227451 0.831373 0.815686
0.443137 0.847059 0.835294
0.654902 0.862745 0.854902
0.870588 0.882353 0.870588
1.000000 0.905882 0.882353
0.054902 1.000000 0.835294
0.266667 1.000000 0.854902
0.474510 1.000000 0.870588
0.698039 1.000000 0.890196
0.901961 1.000000 0.901961
1.000000 1.000000 0.909804
0.000000 0.000000 0.862745
0.098039 0.000000 0.878431
0.305882 0.000000 0.894118
0.521569 0.000000 0.909804
0.737255 0.000000 0.929412
0.949020 0.000000 0.941176
0.000000 0.125490 0.894118
0.129412 0.145098 0.917647
0.349020 0.160784 0.929412
0.552941 0.180392 0.941176
0.776471 0.196078 0.972549
0.980392 0.211765 0.980392
0.000000 0.352941 0.921569
0.168627 0.368627 0.945098
0.380392 0.396078 0.972549
0.600000 0.403922 0.988235
0.807843 0.427451 1.000000
1.000000 0.447059 1.000000
0.000000 0.588235 0.972549
0.200000 0.600000 0.984314
0.415686 0.623529 1.000000
0.627451 0.635294 1.000000
0.839216 0.654902 1.000000
1.000000 0.678431 1.000000
0.027451 0.819608 1.000000
0.231373 0.835294 1.000000
0.454902 0.850980 1.000000
0.662745 0.874510 1.000000
0.874510 0.890196 1.000000
1.000000 0.901961 1.000000
0.058824 1.000000 1.000000
0.274510 1.000000 1.000000
0.486275 1.000000 1.000000
0.701961 1.000000 1.000000
0.913725 1.000000 1.000000
1.000000 1.000000 1.000000
