public/luts/heure-doree.cube
# Studiio — look « heure-doree », genere par scripts/lut/generer-luts.mjs
# Source : les coefficients de LOOKS_RENDUS, calcules par ffmpeg lui-meme.
# Aucune LUT tierce, aucun telechargement : provenance et licence du depot.
LUT_3D_SIZE 6
DOMAIN_MIN 0.0 0.0 0.0
DOMAIN_MAX 1.0 1.0 1.0
0.000000 0.000000 0.000000
0.145098 0.000000 0.000000
0.450980 0.027451 0.000000
0.698039 0.031373 0.000000
0.898039 0.000000 0.000000
1.000000 0.000000 0.000000
0.000000 0.164706 0.000000
0.152941 0.164706 0.000000
0.450980 0.192157 0.000000
0.698039 0.196078 0.000000
0.890196 0.164706 0.000000
1.000000 0.160784 0.000000
0.082353 0.423529 0.000000
0.235294 0.419608 0.000000
0.458824 0.423529 0.000000
0.698039 0.415686 0.000000
0.894118 0.388235 0.000000
1.000000 0.388235 0.000000
0.101961 0.639216 0.000000
0.250980 0.639216 0.000000
0.470588 0.643137 0.000000
0.694118 0.639216 0.000000
0.894118 0.615686 0.000000
1.000000 0.611765 0.000000
0.070588 0.835294 0.000000
0.215686 0.835294 0.000000
0.447059 0.835294 0.000000
0.666667 0.831373 0.000000
0.898039 0.831373 0.000000
1.000000 0.835294 0.000000
0.070588 1.000000 0.000000
0.219608 1.000000 0.000000
0.447059 1.000000 0.000000
0.670588 1.000000 0.000000
0.890196 1.000000 0.000000
1.000000 1.000000 0.000000
0.000000 0.000000 0.141176
0.152941 0.000000 0.152941
0.447059 0.027451 0.070588
0.705882 0.031373 0.050980
0.890196 0.000000 0.074510
1.000000 0.000000 0.078431
0.000000 0.160784 0.152941
0.203922 0.184314 0.101961
0.482353 0.207843 0.031373
0.678431 0.172549 0.070588
0.890196 0.160784 0.070588
1.000000 0.160784 0.078431
0.078431 0.415686 0.070588
0.266667 0.431373 0.035294
0.490196 0.431373 0.035294
0.678431 0.396078 0.070588
0.890196 0.388235 0.070588
1.000000 0.388235 0.074510
0.101961 0.639216 0.043137
0.219608 0.619608 0.070588
0.450980 0.615686 0.066667
0.674510 0.619608 0.062745
0.898039 0.615686 0.090196
1.000000 0.611765 0.082353
0.070588 0.835294 0.074510
0.223529 0.835294 0.086275
0.443137 0.831373 0.078431
0.662745 0.835294 0.074510
0.894118 0.835294 0.082353
1.000000 0.831373 0.074510
0.070588 1.000000 0.078431
0.223529 1.000000 0.086275
0.443137 1.000000 0.082353
0.670588 1.000000 0.082353
0.894118 1.000000 0.078431
1.000000 1.000000 0.070588
0.074510 0.027451 0.298039
0.219608 0.027451 0.294118
0.450980 0.027451 0.298039
0.698039 0.031373 0.262745
0.890196 0.000000 0.305882
1.000000 0.000000 0.298039
0.074510 0.192157 0.298039
0.258824 0.207843 0.250980
0.490196 0.207843 0.262745
0.670588 0.168627 0.294118
0.898039 0.156863 0.305882
1.000000 0.164706 0.301961
0.082353 0.419608 0.290196
0.266667 0.427451 0.262745
0.450980 0.392157 0.301961
0.666667 0.392157 0.301961
0.894118 0.388235 0.301961
1.000000 0.388235 0.301961
0.101961 0.643137 0.270588
0.223529 0.615686 0.298039
0.443137 0.607843 0.298039
0.670588 0.611765 0.301961
0.894118 0.611765 0.301961
1.000000 0.615686 0.298039
0.070588 0.835294 0.298039
0.223529 0.835294 0.301961
0.439216 0.839216 0.298039
0.670588 0.835294 0.301961
0.890196 0.835294 0.294118
1.000000 0.835294 0.305882
0.070588 1.000000 0.305882
0.219608 1.000000 0.301961
0.447059 1.000000 0.309804
0.670588 1.000000 0.305882
0.886275 1.000000 0.301961
1.000000 1.000000 0.305882
0.101961 0.031373 0.494118
0.254902 0.031373 0.498039
0.474510 0.035294 0.490196
0.701961 0.031373 0.486275
0.890196 0.000000 0.521569
1.000000 0.000000 0.517647
0.101961 0.200000 0.490196
0.231373 0.172549 0.517647
0.450980 0.168627 0.513725
0.674510 0.164706 0.521569
0.894118 0.164706 0.521569
1.000000 0.160784 0.529412
0.101961 0.415686 0.490196
0.231373 0.396078 0.517647
0.443137 0.396078 0.521569
0.670588 0.388235 0.529412
0.894118 0.388235 0.529412
1.000000 0.384314 0.529412
0.101961 0.635294 0.498039
0.219608 0.619608 0.521569
0.447059 0.607843 0.533333
0.666667 0.607843 0.525490
0.886275 0.611765 0.521569
1.000000 0.611765 0.525490
0.070588 0.835294 0.533333
0.215686 0.835294 0.525490
0.447059 0.835294 0.529412
0.666667 0.831373 0.521569
0.894118 0.835294 0.525490
1.000000 0.831373 0.521569
0.070588 1.000000 0.529412
0.223529 1.000000 0.521569
0.447059 1.000000 0.525490
0.662745 1.000000 0.521569
0.894118 1.000000 0.525490
1.000000 1.000000 0.517647
0.070588 0.000000 0.756863
0.219608 0.000000 0.749020
0.439216 0.000000 0.745098
0.666667 0.000000 0.749020
0.890196 0.000000 0.745098
1.000000 0.000000 0.749020
0.070588 0.160784 0.756863
0.223529 0.160784 0.749020
0.447059 0.160784 0.752941
0.670588 0.164706 0.749020
0.894118 0.160784 0.741176
1.000000 0.164706 0.749020
0.070588 0.384314 0.749020
0.211765 0.384314 0.741176
0.447059 0.388235 0.749020
0.674510 0.388235 0.749020
0.894118 0.388235 0.749020
1.000000 0.388235 0.745098
0.070588 0.611765 0.745098
0.223529 0.611765 0.752941
0.443137 0.607843 0.745098
0.662745 0.615686 0.741176
0.890196 0.603922 0.749020
1.000000 0.611765 0.752941
0.070588 0.839216 0.745098
0.223529 0.835294 0.756863
0.439216 0.835294 0.749020
0.670588 0.831373 0.756863
0.890196 0.831373 0.749020
1.000000 0.835294 0.745098
0.070588 1.000000 0.749020
0.227451 1.000000 0.756863
0.439216 1.000000 0.749020
0.670588 1.000000 0.752941
0.898039 1.000000 0.749020
1.000000 1.000000 0.752941
0.070588 0.000000 0.929412
0.215686 0.000000 0.929412
0.447059 0.000000 0.929412
0.670588 0.000000 0.929412
0.886275 0.000000 0.929412
1.000000 0.000000 0.929412
0.070588 0.168627 0.929412
0.219608 0.164706 0.929412
0.450980 0.164706 0.929412
0.662745 0.164706 0.929412
0.894118 0.160784 0.929412
1.000000 0.160784 0.929412
0.070588 0.388235 0.929412
0.219608 0.380392 0.929412
0.450980 0.388235 0.929412
0.670588 0.384314 0.929412
0.894118 0.388235 0.929412
1.000000 0.384314 0.929412
0.070588 0.607843 0.929412
0.223529 0.607843 0.929412
0.439216 0.611765 0.929412
0.666667 0.607843 0.929412
0.894118 0.607843 0.929412
1.000000 0.615686 0.929412
0.070588 0.835294 0.929412
0.215686 0.835294 0.929412
0.447059 0.835294 0.929412
0.666667 0.831373 0.929412
0.886275 0.839216 0.929412
1.000000 0.835294 0.929412
0.070588 1.000000 0.929412
0.215686 1.000000 0.929412
0.447059 1.000000 0.929412
0.666667 1.000000 0.929412
0.894118 1.000000 0.929412
1.000000 1.000000 0.929412
