public/luts/heure-doree.cube
# Studiio — look « heure-doree », genere par scripts/lut/generer-luts.mjs
# Source : les coefficients de LOOKS_RENDUS, calcules par ffmpeg lui-meme.
# Aucune LUT tierce, aucun telechargement : provenance et licence du depot.
LUT_3D_SIZE 16
DOMAIN_MIN 0.0 0.0 0.0
DOMAIN_MAX 1.0 1.0 1.0
0.000000 0.000000 0.000000
0.000000 0.000000 0.000000
0.078431 0.000000 0.000000
0.145098 0.000000 0.000000
0.223529 0.000000 0.000000
0.333333 0.015686 0.000000
0.450980 0.027451 0.000000
0.552941 0.039216 0.000000
0.639216 0.043137 0.000000
0.698039 0.031373 0.000000
0.768627 0.019608 0.000000
0.827451 0.007843 0.000000
0.898039 0.000000 0.000000
0.964706 0.000000 0.000000
1.000000 0.000000 0.000000
1.000000 0.000000 0.000000
0.000000 0.011765 0.000000
0.000000 0.015686 0.000000
0.074510 0.007843 0.000000
0.152941 0.015686 0.000000
0.243137 0.015686 0.000000
0.337255 0.027451 0.000000
0.462745 0.047059 0.000000
0.552941 0.054902 0.000000
0.631373 0.058824 0.000000
0.698039 0.047059 0.000000
0.760784 0.035294 0.000000
0.827451 0.023529 0.000000
0.894118 0.015686 0.000000
0.968627 0.011765 0.000000
1.000000 0.015686 0.000000
1.000000 0.007843 0.000000
0.000000 0.086275 0.000000
0.000000 0.090196 0.000000
0.074510 0.094118 0.000000
0.149020 0.086275 0.000000
0.235294 0.098039 0.000000
0.345098 0.101961 0.000000
0.447059 0.113725 0.000000
0.564706 0.133333 0.000000
0.635294 0.133333 0.000000
0.698039 0.117647 0.000000
0.760784 0.109804 0.000000
0.823529 0.094118 0.000000
0.894118 0.090196 0.000000
0.968627 0.086275 0.000000
1.000000 0.086275 0.000000
1.000000 0.090196 0.000000
0.000000 0.164706 0.000000
0.003922 0.160784 0.000000
0.066667 0.160784 0.000000
0.152941 0.164706 0.000000
0.231373 0.168627 0.000000
0.345098 0.176471 0.000000
0.450980 0.192157 0.000000
0.560784 0.196078 0.000000
0.643137 0.207843 0.000000
0.698039 0.196078 0.000000
0.764706 0.180392 0.000000
0.819608 0.172549 0.000000
0.890196 0.164706 0.000000
0.960784 0.160784 0.000000
1.000000 0.164706 0.000000
1.000000 0.160784 0.000000
0.011765 0.239216 0.000000
0.015686 0.243137 0.000000
0.094118 0.243137 0.000000
0.152941 0.239216 0.000000
0.243137 0.250980 0.000000
0.333333 0.254902 0.000000
0.447059 0.262745 0.000000
0.552941 0.278431 0.000000
0.639216 0.278431 0.000000
0.701961 0.270588 0.000000
0.768627 0.258824 0.000000
0.823529 0.243137 0.000000
0.901961 0.235294 0.000000
0.960784 0.239216 0.000000
1.000000 0.235294 0.000000
1.000000 0.239216 0.000000
0.047059 0.333333 0.000000
0.047059 0.325490 0.000000
0.129412 0.333333 0.000000
0.196078 0.325490 0.000000
0.278431 0.325490 0.000000
0.349020 0.333333 0.000000
0.458824 0.337255 0.000000
0.549020 0.349020 0.000000
0.635294 0.360784 0.000000
0.698039 0.341176 0.000000
0.764706 0.337255 0.000000
0.827451 0.317647 0.000000
0.890196 0.313725 0.000000
0.968627 0.309804 0.000000
1.000000 0.313725 0.000000
1.000000 0.305882 0.000000
0.082353 0.423529 0.000000
0.082353 0.419608 0.000000
0.156863 0.419608 0.000000
0.235294 0.419608 0.000000
0.305882 0.423529 0.000000
0.376471 0.415686 0.000000
0.458824 0.423529 0.000000
0.560784 0.423529 0.000000
0.631373 0.431373 0.000000
0.698039 0.415686 0.000000
0.760784 0.407843 0.000000
0.823529 0.388235 0.000000
0.894118 0.388235 0.000000
0.968627 0.384314 0.000000
1.000000 0.388235 0.000000
1.000000 0.388235 0.000000
0.113725 0.505882 0.000000
0.117647 0.501961 0.000000
0.188235 0.509804 0.000000
0.262745 0.501961 0.000000
0.337255 0.505882 0.000000
0.415686 0.501961 0.000000
0.486275 0.505882 0.000000
0.560784 0.505882 0.000000
0.639216 0.505882 0.000000
0.698039 0.490196 0.000000
0.768627 0.482353 0.000000
0.819608 0.470588 0.000000
0.890196 0.462745 0.000000
0.964706 0.462745 0.000000
1.000000 0.462745 0.000000
1.000000 0.458824 0.000000
0.113725 0.584314 0.000000
0.113725 0.580392 0.000000
0.192157 0.580392 0.000000
0.258824 0.584314 0.000000
0.337255 0.580392 0.000000
0.407843 0.576471 0.000000
0.490196 0.580392 0.000000
0.556863 0.576471 0.000000
0.639216 0.576471 0.000000
0.698039 0.568627 0.000000
0.764706 0.552941 0.000000
0.827451 0.541176 0.000000
0.898039 0.533333 0.000000
0.960784 0.533333 0.000000
1.000000 0.541176 0.000000
1.000000 0.533333 0.000000
0.101961 0.639216 0.000000
0.101961 0.643137 0.000000
0.180392 0.643137 0.000000
0.250980 0.639216 0.000000
0.333333 0.643137 0.000000
0.403922 0.639216 0.000000
0.470588 0.643137 0.000000
0.549020 0.643137 0.000000
0.615686 0.647059 0.000000
0.694118 0.639216 0.000000
0.760784 0.635294 0.000000
0.823529 0.615686 0.000000
0.894118 0.615686 0.000000
0.968627 0.607843 0.000000
1.000000 0.611765 0.000000
1.000000 0.611765 0.000000
0.086275 0.705882 0.000000
0.090196 0.701961 0.000000
0.156863 0.705882 0.000000
0.235294 0.705882 0.000000
0.309804 0.705882 0.000000
0.388235 0.705882 0.000000
0.462745 0.705882 0.000000
0.541176 0.698039 0.000000
0.607843 0.705882 0.000000
0.686275 0.701961 0.000000
0.756863 0.705882 0.000000
0.827451 0.690196 0.000000
0.890196 0.686275 0.000000
0.964706 0.678431 0.000000
1.000000 0.686275 0.000000
1.000000 0.686275 0.000000
0.074510 0.764706 0.000000
0.082353 0.764706 0.000000
0.149020 0.764706 0.000000
0.223529 0.764706 0.000000
0.298039 0.764706 0.000000
0.372549 0.764706 0.000000
0.447059 0.764706 0.000000
0.521569 0.764706 0.000000
0.600000 0.764706 0.000000
0.670588 0.764706 0.000000
0.752941 0.764706 0.000000
0.811765 0.764706 0.000000
0.894118 0.760784 0.000000
0.964706 0.764706 0.000000
1.000000 0.756863 0.000000
1.000000 0.764706 0.000000
0.070588 0.835294 0.000000
0.070588 0.835294 0.000000
0.152941 0.835294 0.000000
0.215686 0.835294 0.000000
0.294118 0.835294 0.000000
0.364706 0.835294 0.000000
0.447059 0.835294 0.000000
0.513725 0.831373 0.000000
0.596078 0.835294 0.000000
0.666667 0.831373 0.000000
0.749020 0.835294 0.000000
0.823529 0.839216 0.000000
0.898039 0.831373 0.000000
0.968627 0.839216 0.000000
1.000000 0.839216 0.000000
1.000000 0.835294 0.000000
0.070588 0.905882 0.000000
0.070588 0.909804 0.000000
0.149020 0.905882 0.000000
0.223529 0.909804 0.000000
0.301961 0.905882 0.000000
0.368627 0.905882 0.000000
0.439216 0.913725 0.000000
0.513725 0.909804 0.000000
0.588235 0.909804 0.000000
0.670588 0.913725 0.000000
0.741176 0.909804 0.000000
0.815686 0.905882 0.000000
0.894118 0.913725 0.000000
0.972549 0.909804 0.000000
1.000000 0.909804 0.000000
1.000000 0.909804 0.000000
0.070588 0.988235 0.000000
0.070588 0.980392 0.000000
0.145098 0.988235 0.000000
0.219608 0.980392 0.000000
0.294118 0.984314 0.000000
0.372549 0.980392 0.000000
0.443137 0.984314 0.000000
0.529412 0.988235 0.000000
0.588235 0.988235 0.000000
0.662745 0.980392 0.000000
0.741176 0.984314 0.000000
0.819608 0.984314 0.000000
0.890196 0.980392 0.000000
0.968627 0.988235 0.000000
1.000000 0.984314 0.000000
1.000000 0.984314 0.000000
0.070588 1.000000 0.000000
0.074510 1.000000 0.000000
0.141176 1.000000 0.000000
0.219608 1.000000 0.000000
0.294118 1.000000 0.000000
0.360784 1.000000 0.000000
0.447059 1.000000 0.000000
0.513725 1.000000 0.000000
0.592157 1.000000 0.000000
0.670588 1.000000 0.000000
0.745098 1.000000 0.000000
0.815686 1.000000 0.000000
0.890196 1.000000 0.000000
0.964706 1.000000 0.000000
1.000000 1.000000 0.000000
1.000000 1.000000 0.000000
0.000000 0.000000 0.000000
0.000000 0.000000 0.000000
0.078431 0.000000 0.000000
0.145098 0.000000 0.000000
0.235294 0.003922 0.000000
0.333333 0.015686 0.000000
0.450980 0.027451 0.000000
0.552941 0.039216 0.000000
0.643137 0.043137 0.000000
0.701961 0.031373 0.000000
0.760784 0.019608 0.000000
0.827451 0.007843 0.000000
0.886275 0.000000 0.000000
0.960784 0.000000 0.000000
1.000000 0.000000 0.000000
1.000000 0.000000 0.000000
0.000000 0.011765 0.003922
0.003922 0.015686 0.000000
0.074510 0.015686 0.000000
0.149020 0.011765 0.000000
0.231373 0.023529 0.000000
0.337255 0.027451 0.000000
0.439216 0.043137 0.000000
0.552941 0.050980 0.000000
0.635294 0.058824 0.000000
0.701961 0.043137 0.000000
0.764706 0.035294 0.000000
0.827451 0.015686 0.000000
0.894118 0.015686 0.000000
0.968627 0.007843 0.000000
1.000000 0.015686 0.000000
1.000000 0.015686 0.000000
0.000000 0.090196 0.007843
0.000000 0.086275 0.000000
0.078431 0.090196 0.007843
0.152941 0.086275 0.000000
0.231373 0.094118 0.000000
0.349020 0.101961 0.000000
0.450980 0.117647 0.000000
0.560784 0.121569 0.000000
0.635294 0.133333 0.000000
0.694118 0.121569 0.000000
0.760784 0.109804 0.000000
0.823529 0.098039 0.000000
0.894118 0.086275 0.000000
0.972549 0.094118 0.000000
1.000000 0.086275 0.000000
1.000000 0.082353 0.000000
0.000000 0.164706 0.000000
0.000000 0.164706 0.000000
0.074510 0.164706 0.000000
0.145098 0.160784 0.000000
0.239216 0.168627 0.000000
0.333333 0.176471 0.000000
0.458824 0.196078 0.000000
0.552941 0.200000 0.000000
0.639216 0.203922 0.000000
0.694118 0.200000 0.000000
0.760784 0.184314 0.000000
0.819608 0.168627 0.000000
0.894118 0.164706 0.000000
0.964706 0.160784 0.000000
1.000000 0.160784 0.000000
1.000000 0.164706 0.000000
0.015686 0.243137 0.000000
0.011765 0.239216 0.000000
0.098039 0.243137 0.000000
0.160784 0.243137 0.000000
0.235294 0.239216 0.000000
0.337255 0.254902 0.000000
0.454902 0.266667 0.000000
0.560784 0.278431 0.000000
0.643137 0.278431 0.000000
0.698039 0.262745 0.000000
0.764706 0.258824 0.000000
0.827451 0.243137 0.000000
0.886275 0.239216 0.000000
0.968627 0.243137 0.000000
1.000000 0.239216 0.000000
1.000000 0.235294 0.000000
0.047059 0.333333 0.000000
0.047059 0.333333 0.000000
0.121569 0.333333 0.000000
0.200000 0.325490 0.000000
0.270588 0.333333 0.000000
0.341176 0.325490 0.000000
0.447059 0.341176 0.000000
0.552941 0.349020 0.000000
0.631373 0.352941 0.000000
0.701961 0.341176 0.000000
0.760784 0.329412 0.000000
0.831373 0.321569 0.000000
0.894118 0.313725 0.000000
0.972549 0.309804 0.000000
1.000000 0.317647 0.000000
1.000000 0.313725 0.000000
0.082353 0.419608 0.000000
0.078431 0.415686 0.000000
0.156863 0.419608 0.000000
0.227451 0.415686 0.000000
0.309804 0.419608 0.000000
0.380392 0.415686 0.000000
0.454902 0.415686 0.000000
0.564706 0.427451 0.000000
0.635294 0.431373 0.000000
0.694118 0.419608 0.000000
0.764706 0.407843 0.000000
0.823529 0.396078 0.000000
0.890196 0.384314 0.000000
0.968627 0.392157 0.000000
1.000000 0.384314 0.000000
1.000000 0.388235 0.000000
0.113725 0.505882 0.000000
0.113725 0.505882 0.000000
0.188235 0.501961 0.000000
0.258824 0.505882 0.000000
0.337255 0.505882 0.000000
0.407843 0.501961 0.000000
0.490196 0.501961 0.000000
0.560784 0.501961 0.000000
0.643137 0.505882 0.000000
0.698039 0.498039 0.000000
0.760784 0.478431 0.000000
0.827451 0.474510 0.000000
0.894118 0.458824 0.000000
0.964706 0.462745 0.000000
1.000000 0.458824 0.000000
1.000000 0.462745 0.000000
0.113725 0.576471 0.000000
0.117647 0.580392 0.000000
0.196078 0.576471 0.000000
0.258824 0.576471 0.000000
0.341176 0.580392 0.000000
0.407843 0.580392 0.000000
0.490196 0.576471 0.000000
0.564706 0.584314 0.000000
0.635294 0.580392 0.000000
0.705882 0.572549 0.000000
0.760784 0.556863 0.000000
0.831373 0.541176 0.000000
0.890196 0.541176 0.000000
0.968627 0.537255 0.000000
1.000000 0.533333 0.000000
1.000000 0.541176 0.000000
0.098039 0.647059 0.000000
0.101961 0.639216 0.000000
0.176471 0.643137 0.000000
0.254902 0.639216 0.000000
0.321569 0.643137 0.000000
0.400000 0.647059 0.000000
0.466667 0.643137 0.000000
0.545098 0.639216 0.000000
0.623529 0.643137 0.000000
0.701961 0.643137 0.000000
0.760784 0.627451 0.000000
0.831373 0.619608 0.000000
0.894118 0.607843 0.000000
0.976471 0.611765 0.000000
1.000000 0.611765 0.000000
1.000000 0.615686 0.000000
0.086275 0.705882 0.000000
0.090196 0.701961 0.000000
0.160784 0.705882 0.000000
0.239216 0.698039 0.000000
0.313725 0.701961 0.000000
0.392157 0.701961 0.000000
0.462745 0.705882 0.000000
0.529412 0.705882 0.000000
0.603922 0.705882 0.000000
0.682353 0.705882 0.000000
0.756863 0.705882 0.000000
0.823529 0.694118 0.000000
0.894118 0.686275 0.000000
0.968627 0.686275 0.000000
1.000000 0.678431 0.000000
1.000000 0.686275 0.000000
0.074510 0.764706 0.000000
0.074510 0.764706 0.000000
0.149020 0.764706 0.000000
0.219608 0.764706 0.000000
0.298039 0.764706 0.000000
0.376471 0.768627 0.000000
0.450980 0.764706 0.000000
0.521569 0.764706 0.000000
0.603922 0.764706 0.000000
0.670588 0.768627 0.000000
0.749020 0.764706 0.000000
0.819608 0.768627 0.000000
0.890196 0.756863 0.000000
0.968627 0.764706 0.000000
1.000000 0.756863 0.000000
1.000000 0.760784 0.000000
0.070588 0.835294 0.000000
0.070588 0.831373 0.000000
0.149020 0.831373 0.000000
0.219608 0.839216 0.000000
0.294118 0.835294 0.000000
0.368627 0.835294 0.000000
0.447059 0.835294 0.000000
0.521569 0.839216 0.000000
0.588235 0.835294 0.000000
0.674510 0.835294 0.000000
0.741176 0.831373 0.000000
0.823529 0.839216 0.000000
0.886275 0.835294 0.000000
0.964706 0.835294 0.000000
1.000000 0.839216 0.000000
1.000000 0.835294 0.000000
0.070588 0.909804 0.000000
0.070588 0.901961 0.000000
0.145098 0.909804 0.000000
0.223529 0.909804 0.000000
0.290196 0.913725 0.000000
0.372549 0.909804 0.000000
0.439216 0.909804 0.000000
0.521569 0.913725 0.000000
0.592157 0.909804 0.000000
0.670588 0.909804 0.000000
0.745098 0.909804 0.000000
0.823529 0.909804 0.000000
0.890196 0.905882 0.000000
0.972549 0.909804 0.000000
1.000000 0.909804 0.000000
1.000000 0.917647 0.000000
0.070588 0.988235 0.000000
0.074510 0.984314 0.000000
0.141176 0.984314 0.000000
0.227451 0.984314 0.000000
0.294118 0.984314 0.000000
0.372549 0.980392 0.000000
0.447059 0.984314 0.000000
0.513725 0.988235 0.000000
0.592157 0.988235 0.000000
0.666667 0.988235 0.000000
0.741176 0.984314 0.000000
0.819608 0.988235 0.000000
0.894118 0.980392 0.000000
0.964706 0.984314 0.000000
1.000000 0.984314 0.000000
1.000000 0.984314 0.000000
0.070588 1.000000 0.000000
0.070588 1.000000 0.000000
0.145098 1.000000 0.000000
0.219608 1.000000 0.000000
0.298039 1.000000 0.000000
0.368627 1.000000 0.000000
0.443137 1.000000 0.000000
0.521569 1.000000 0.000000
0.596078 1.000000 0.000000
0.666667 1.000000 0.000000
0.741176 1.000000 0.000000
0.815686 1.000000 0.000000
0.894118 1.000000 0.000000
0.968627 1.000000 0.000000
1.000000 1.000000 0.000000
1.000000 1.000000 0.000000
0.000000 0.000000 0.074510
0.000000 0.000000 0.066667
0.078431 0.000000 0.074510
0.145098 0.000000 0.070588
0.231373 0.003922 0.066667
0.337255 0.015686 0.027451
0.450980 0.027451 0.003922
0.560784 0.039216 0.000000
0.635294 0.043137 0.000000
0.709804 0.031373 0.000000
0.756863 0.019608 0.000000
0.827451 0.007843 0.000000
0.890196 0.000000 0.007843
0.968627 0.000000 0.003922
1.000000 0.000000 0.000000
1.000000 0.000000 0.003922
0.000000 0.015686 0.074510
0.000000 0.007843 0.070588
0.078431 0.015686 0.074510
0.152941 0.011765 0.066667
0.231373 0.015686 0.062745
0.345098 0.035294 0.019608
0.454902 0.047059 0.000000
0.556863 0.050980 0.000000
0.639216 0.054902 0.000000
0.701961 0.043137 0.000000
0.760784 0.031373 0.000000
0.823529 0.019608 0.000000
0.894118 0.011765 0.000000
0.964706 0.019608 0.003922
1.000000 0.011765 0.007843
1.000000 0.015686 0.000000
0.000000 0.086275 0.066667
0.003922 0.086275 0.074510
0.074510 0.086275 0.074510
0.152941 0.090196 0.062745
0.266667 0.101961 0.031373
0.356863 0.109804 0.000000
0.482353 0.129412 0.000000
0.560784 0.137255 0.000000
0.623529 0.121569 0.000000
0.690196 0.113725 0.000000
0.752941 0.094118 0.000000
0.815686 0.090196 0.000000
0.894118 0.086275 0.007843
0.968627 0.090196 0.000000
1.000000 0.086275 0.003922
1.000000 0.090196 0.003922
0.000000 0.164706 0.074510
0.000000 0.160784 0.078431
0.090196 0.168627 0.058824
0.156863 0.164706 0.062745
0.278431 0.180392 0.031373
0.376471 0.196078 0.000000
0.482353 0.200000 0.000000
0.568627 0.207843 0.000000
0.631373 0.192157 0.000000
0.686275 0.184314 0.000000
0.749020 0.172549 0.000000
0.819608 0.164706 0.000000
0.886275 0.160784 0.000000
0.972549 0.164706 0.003922
1.000000 0.160784 0.003922
1.000000 0.164706 0.000000
0.015686 0.243137 0.054902
0.011765 0.239216 0.062745
0.117647 0.254902 0.027451
0.203922 0.262745 0.027451
0.266667 0.254902 0.023529
0.364706 0.258824 0.003922
0.478431 0.278431 0.000000
0.564706 0.278431 0.000000
0.627451 0.270588 0.000000
0.694118 0.258824 0.000000
0.745098 0.247059 0.000000
0.819608 0.243137 0.003922
0.890196 0.239216 0.003922
0.968627 0.239216 0.000000
1.000000 0.239216 0.003922
1.000000 0.235294 0.003922
0.047059 0.325490 0.027451
0.058824 0.333333 0.027451
0.156863 0.345098 0.000000
0.231373 0.333333 0.000000
0.305882 0.349020 0.000000
0.384314 0.345098 0.000000
0.470588 0.349020 0.000000
0.568627 0.356863 0.000000
0.623529 0.345098 0.000000
0.690196 0.329412 0.000000
0.752941 0.317647 0.000000
0.819608 0.313725 0.000000
0.898039 0.309804 0.003922
0.964706 0.317647 0.003922
1.000000 0.309804 0.000000
1.000000 0.317647 0.000000
0.082353 0.419608 0.000000
0.078431 0.407843 0.000000
0.184314 0.423529 0.000000
0.266667 0.431373 0.000000
0.337255 0.427451 0.000000
0.411765 0.435294 0.000000
0.486275 0.431373 0.000000
0.556863 0.431373 0.000000
0.627451 0.419608 0.000000
0.686275 0.407843 0.000000
0.749020 0.392157 0.000000
0.819608 0.388235 0.011765
0.894118 0.384314 0.000000
0.972549 0.392157 0.000000
1.000000 0.384314 0.003922
1.000000 0.388235 0.000000
0.113725 0.505882 0.000000
0.113725 0.509804 0.000000
0.188235 0.501961 0.000000
0.262745 0.505882 0.000000
0.341176 0.505882 0.000000
0.415686 0.505882 0.000000
0.494118 0.501961 0.000000
0.568627 0.505882 0.000000
0.631373 0.486275 0.000000
0.690196 0.486275 0.000000
0.745098 0.474510 0.000000
0.815686 0.462745 0.003922
0.890196 0.462745 0.003922
0.968627 0.458824 0.011765
1.000000 0.458824 0.000000
1.000000 0.462745 0.000000
0.113725 0.576471 0.000000
0.113725 0.580392 0.000000
0.172549 0.572549 0.000000
0.247059 0.568627 0.000000
0.321569 0.568627 0.000000
0.403922 0.568627 0.000000
0.474510 0.568627 0.000000
0.552941 0.564706 0.000000
0.623529 0.568627 0.000000
0.694118 0.552941 0.000000
0.749020 0.549020 0.000000
0.819608 0.537255 0.011765
0.886275 0.537255 0.000000
0.972549 0.537255 0.007843
1.000000 0.533333 0.003922
1.000000 0.533333 0.003922
0.101961 0.643137 0.000000
0.105882 0.639216 0.000000
0.164706 0.627451 0.000000
0.247059 0.631373 0.000000
0.309804 0.631373 0.000000
0.388235 0.627451 0.000000
0.462745 0.631373 0.000000
0.537255 0.631373 0.000000
0.611765 0.627451 0.000000
0.686275 0.627451 0.000000
0.752941 0.615686 0.000000
0.815686 0.607843 0.003922
0.894118 0.607843 0.003922
0.960784 0.611765 0.003922
1.000000 0.611765 0.000000
1.000000 0.611765 0.007843
0.090196 0.701961 0.000000
0.086275 0.705882 0.000000
0.152941 0.694118 0.000000
0.223529 0.690196 0.003922
0.301961 0.690196 0.000000
0.368627 0.694118 0.000000
0.443137 0.694118 0.000000
0.521569 0.694118 0.007843
0.600000 0.694118 0.000000
0.670588 0.690196 0.000000
0.749020 0.690196 0.000000
0.819608 0.686275 0.003922
0.894118 0.682353 0.000000
0.968627 0.686275 0.007843
1.000000 0.682353 0.000000
1.000000 0.690196 0.007843
0.074510 0.764706 0.003922
0.074510 0.768627 0.003922
0.145098 0.756863 0.007843
0.223529 0.764706 0.003922
0.298039 0.756863 0.000000
0.368627 0.756863 0.007843
0.450980 0.756863 0.000000
0.521569 0.760784 0.003922
0.588235 0.764706 0.003922
0.666667 0.764706 0.003922
0.737255 0.760784 0.000000
0.819608 0.760784 0.007843
0.886275 0.760784 0.000000
0.968627 0.756863 0.003922
1.000000 0.760784 0.000000
1.000000 0.756863 0.007843
0.070588 0.827451 0.007843
0.070588 0.839216 0.003922
0.141176 0.835294 0.007843
0.219608 0.835294 0.007843
0.294118 0.835294 0.003922
0.372549 0.835294 0.003922
0.439216 0.831373 0.000000
0.525490 0.835294 0.003922
0.592157 0.835294 0.000000
0.670588 0.831373 0.003922
0.737255 0.839216 0.000000
0.815686 0.835294 0.003922
0.890196 0.835294 0.000000
0.968627 0.835294 0.007843
1.000000 0.831373 0.000000
1.000000 0.839216 0.007843
0.070588 0.909804 0.007843
0.074510 0.909804 0.007843
0.145098 0.905882 0.000000
0.227451 0.909804 0.003922
0.290196 0.909804 0.007843
0.372549 0.913725 0.003922
0.443137 0.909804 0.003922
0.521569 0.905882 0.003922
0.592157 0.909804 0.000000
0.666667 0.909804 0.003922
0.741176 0.905882 0.000000
0.819608 0.909804 0.007843
0.894118 0.905882 0.000000
0.960784 0.909804 0.003922
1.000000 0.913725 0.003922
1.000000 0.909804 0.000000
0.070588 0.980392 0.000000
0.070588 0.988235 0.003922
0.145098 0.980392 0.007843
0.219608 0.984314 0.000000
0.298039 0.980392 0.003922
0.364706 0.988235 0.003922
0.443137 0.984314 0.011765
0.517647 0.988235 0.003922
0.592157 0.980392 0.003922
0.670588 0.988235 0.007843
0.745098 0.984314 0.000000
0.815686 0.984314 0.003922
0.898039 0.988235 0.003922
0.968627 0.984314 0.000000
1.000000 0.976471 0.000000
1.000000 0.984314 0.007843
0.070588 1.000000 0.007843
0.070588 1.000000 0.000000
0.149020 1.000000 0.003922
0.219608 1.000000 0.003922
0.294118 1.000000 0.007843
0.372549 1.000000 0.003922
0.447059 1.000000 0.003922
0.521569 1.000000 0.003922
0.588235 1.000000 0.003922
0.666667 1.000000 0.003922
0.745098 1.000000 0.011765
0.819608 1.000000 0.000000
0.886275 1.000000 0.003922
0.968627 1.000000 0.007843
1.000000 1.000000 0.000000
1.000000 1.000000 0.000000
0.000000 0.000000 0.141176
0.000000 0.000000 0.145098
0.074510 0.000000 0.145098
0.152941 0.000000 0.152941
0.223529 0.000000 0.137255
0.349020 0.015686 0.109804
0.447059 0.027451 0.070588
0.564706 0.043137 0.039216
0.639216 0.043137 0.031373
0.705882 0.031373 0.050980
0.760784 0.019608 0.050980
0.827451 0.007843 0.070588
0.890196 0.000000 0.074510
0.964706 0.000000 0.086275
1.000000 0.000000 0.070588
1.000000 0.000000 0.078431
0.000000 0.015686 0.145098
0.007843 0.011765 0.152941
0.070588 0.015686 0.141176
0.152941 0.015686 0.152941
0.235294 0.015686 0.133333
0.341176 0.031373 0.098039
0.458824 0.047059 0.062745
0.560784 0.058824 0.039216
0.635294 0.054902 0.023529
0.698039 0.047059 0.050980
0.764706 0.027451 0.054902
0.819608 0.023529 0.082353
0.890196 0.011765 0.070588
0.964706 0.015686 0.078431
1.000000 0.011765 0.078431
1.000000 0.015686 0.078431
0.000000 0.086275 0.149020
0.003922 0.094118 0.152941
0.086275 0.090196 0.137255
0.168627 0.098039 0.129412
0.282353 0.105882 0.094118
0.380392 0.121569 0.070588
0.486275 0.129412 0.023529
0.564706 0.133333 0.035294
0.627451 0.117647 0.043137
0.686275 0.105882 0.062745
0.749020 0.090196 0.066667
0.819608 0.086275 0.078431
0.894118 0.090196 0.078431
0.972549 0.086275 0.078431
1.000000 0.090196 0.070588
1.000000 0.090196 0.082353
0.000000 0.160784 0.152941
0.000000 0.164706 0.145098
0.086275 0.160784 0.137255
0.203922 0.184314 0.101961
0.290196 0.192157 0.070588
0.415686 0.207843 0.039216
0.482353 0.207843 0.031373
0.549020 0.196078 0.050980
0.611765 0.188235 0.050980
0.678431 0.172549 0.070588
0.737255 0.160784 0.074510
0.823529 0.164706 0.078431
0.890196 0.160784 0.070588
0.968627 0.160784 0.078431
1.000000 0.160784 0.070588
1.000000 0.160784 0.078431
0.015686 0.243137 0.133333
0.019608 0.247059 0.137255
0.113725 0.250980 0.109804
0.227451 0.262745 0.066667
0.305882 0.270588 0.070588
0.411765 0.278431 0.043137
0.486275 0.278431 0.023529
0.556863 0.266667 0.047059
0.611765 0.254902 0.054902
0.682353 0.247059 0.074510
0.741176 0.239216 0.070588
0.811765 0.239216 0.078431
0.890196 0.239216 0.070588
0.964706 0.239216 0.078431
1.000000 0.235294 0.070588
1.000000 0.239216 0.082353
0.047059 0.325490 0.105882
0.058824 0.329412 0.094118
0.156863 0.345098 0.070588
0.258824 0.360784 0.039216
0.329412 0.352941 0.035294
0.411765 0.360784 0.035294
0.486275 0.352941 0.039216
0.549020 0.349020 0.043137
0.615686 0.329412 0.058824
0.678431 0.321569 0.070588
0.749020 0.313725 0.070588
0.815686 0.317647 0.078431
0.890196 0.309804 0.070588
0.964706 0.313725 0.082353
1.000000 0.309804 0.070588
1.000000 0.309804 0.078431
0.078431 0.415686 0.070588
0.086275 0.419608 0.070588
0.192157 0.427451 0.031373
0.266667 0.431373 0.035294
0.341176 0.427451 0.039216
0.407843 0.431373 0.031373
0.490196 0.431373 0.035294
0.549020 0.419608 0.047059
0.611765 0.400000 0.062745
0.678431 0.396078 0.070588
0.745098 0.380392 0.078431
0.819608 0.384314 0.078431
0.890196 0.388235 0.070588
0.968627 0.384314 0.078431
