public/luts/high-contrast.cube
# Studiio — look « high-contrast », genere par scripts/lut/generer-luts.mjs
# Source : les coefficients de LOOKS_RENDUS, calcules par ffmpeg lui-meme.
# Aucune LUT tierce, aucun telechargement : provenance et licence du depot.
LUT_3D_SIZE 16
DOMAIN_MIN 0.0 0.0 0.0
DOMAIN_MAX 1.0 1.0 1.0
0.000000 0.000000 0.000000
0.000000 0.000000 0.000000
0.019608 0.000000 0.000000
0.062745 0.000000 0.000000
0.113725 0.000000 0.000000
0.164706 0.000000 0.000000
0.239216 0.000000 0.000000
0.313725 0.000000 0.000000
0.396078 0.000000 0.000000
0.466667 0.000000 0.000000
0.556863 0.000000 0.000000
0.623529 0.000000 0.000000
0.701961 0.000000 0.000000
0.784314 0.000000 0.000000
0.858824 0.000000 0.000000
0.933333 0.000000 0.000000
0.000000 0.000000 0.000000
0.000000 0.000000 0.000000
0.000000 0.000000 0.000000
0.027451 0.000000 0.000000
0.098039 0.000000 0.000000
0.172549 0.000000 0.000000
0.258824 0.000000 0.000000
0.329412 0.000000 0.000000
0.403922 0.000000 0.000000
0.486275 0.000000 0.000000
0.556863 0.000000 0.000000
0.647059 0.000000 0.000000
0.717647 0.000000 0.000000
0.792157 0.000000 0.000000
0.874510 0.000000 0.000000
0.949020 0.000000 0.000000
0.000000 0.000000 0.000000
0.000000 0.000000 0.000000
0.000000 0.000000 0.000000
0.035294 0.000000 0.000000
0.113725 0.000000 0.000000
0.192157 0.000000 0.000000
0.258824 0.000000 0.000000
0.349020 0.007843 0.000000
0.419608 0.015686 0.000000
0.501961 0.019608 0.000000
0.580392 0.031373 0.000000
0.654902 0.039216 0.000000
0.737255 0.047059 0.000000
0.811765 0.050980 0.000000
0.882353 0.058824 0.000000
0.964706 0.070588 0.000000
0.000000 0.043137 0.000000
0.000000 0.047059 0.000000
0.000000 0.050980 0.000000
0.054902 0.062745 0.000000
0.121569 0.070588 0.000000
0.211765 0.074510 0.000000
0.282353 0.086275 0.000000
0.364706 0.090196 0.000000
0.439216 0.101961 0.000000
0.513725 0.113725 0.000000
0.592157 0.109804 0.000000
0.666667 0.125490 0.000000
0.745098 0.129412 0.000000
0.823529 0.137255 0.000000
0.905882 0.145098 0.000000
0.976471 0.149020 0.000000
0.000000 0.121569 0.000000
0.000000 0.137255 0.000000
0.000000 0.137255 0.000000
0.062745 0.145098 0.000000
0.145098 0.156863 0.000000
0.215686 0.164706 0.000000
0.294118 0.164706 0.000000
0.372549 0.180392 0.000000
0.454902 0.180392 0.000000
0.529412 0.192157 0.000000
0.607843 0.200000 0.000000
0.686275 0.207843 0.000000
0.764706 0.215686 0.000000
0.831373 0.219608 0.000000
0.917647 0.223529 0.000000
0.992157 0.239216 0.000000
0.000000 0.207843 0.000000
0.000000 0.215686 0.000000
0.007843 0.227451 0.000000
0.078431 0.235294 0.000000
0.156863 0.235294 0.000000
0.235294 0.250980 0.000000
0.317647 0.250980 0.000000
0.388235 0.258824 0.000000
0.462745 0.270588 0.000000
0.545098 0.274510 0.000000
0.623529 0.290196 0.000000
0.694118 0.290196 0.000000
0.772549 0.298039 0.000000
0.854902 0.305882 0.000000
0.933333 0.313725 0.000000
1.000000 0.317647 0.000000
0.000000 0.294118 0.000000
0.000000 0.305882 0.000000
0.011765 0.305882 0.000000
0.098039 0.321569 0.000000
0.164706 0.325490 0.000000
0.250980 0.329412 0.000000
0.325490 0.341176 0.000000
0.407843 0.345098 0.000000
0.474510 0.349020 0.000000
0.556863 0.360784 0.000000
0.635294 0.368627 0.000000
0.713725 0.372549 0.000000
0.788235 0.384314 0.000000
0.870588 0.388235 0.000000
0.949020 0.403922 0.000000
1.000000 0.403922 0.000000
0.000000 0.376471 0.000000
0.000000 0.380392 0.000000
0.027451 0.396078 0.000000
0.109804 0.400000 0.000000
0.184314 0.407843 0.000000
0.270588 0.415686 0.000000
0.337255 0.419608 0.000000
0.411765 0.435294 0.000000
0.498039 0.435294 0.000000
0.568627 0.443137 0.000000
0.650980 0.454902 0.000000
0.729412 0.462745 0.000000
0.800000 0.462745 0.000000
0.882353 0.474510 0.000000
0.960784 0.482353 0.000000
1.000000 0.490196 0.000000
0.000000 0.466667 0.000000
0.000000 0.470588 0.000000
0.047059 0.478431 0.000000
0.121569 0.490196 0.000000
0.200000 0.490196 0.000000
0.270588 0.498039 0.000000
0.360784 0.505882 0.000000
0.431373 0.513725 0.000000
0.501961 0.517647 0.000000
0.592157 0.529412 0.000000
0.662745 0.533333 0.000000
0.737255 0.545098 0.000000
0.823529 0.549020 0.000000
0.894118 0.560784 0.000000
0.976471 0.568627 0.000000
1.000000 0.568627 0.000000
0.000000 0.545098 0.000000
0.000000 0.560784 0.000000
0.062745 0.560784 0.000000
0.133333 0.568627 0.000000
0.223529 0.576471 0.000000
0.294118 0.584314 0.000000
0.360784 0.592157 0.000000
0.450980 0.600000 0.000000
0.517647 0.607843 0.000000
0.596078 0.611765 0.000000
0.678431 0.623529 0.000000
0.756863 0.627451 0.000000
0.839216 0.639216 0.000000
0.909804 0.639216 0.000000
0.984314 0.650980 0.003922
1.000000 0.654902 0.019608
0.000000 0.631373 0.000000
0.000000 0.639216 0.000000
0.066667 0.647059 0.000000
0.156863 0.654902 0.000000
0.223529 0.658824 0.000000
0.313725 0.670588 0.000000
0.380392 0.678431 0.000000
0.458824 0.682353 0.000000
0.541176 0.694118 0.000000
0.619608 0.698039 0.000000
0.686275 0.705882 0.000000
0.772549 0.709804 0.000000
0.843137 0.721569 0.003922
0.929412 0.721569 0.015686
1.000000 0.737255 0.023529
1.000000 0.745098 0.035294
0.000000 0.717647 0.000000
0.019608 0.725490 0.000000
0.086275 0.729412 0.000000
0.168627 0.733333 0.000000
0.243137 0.745098 0.000000
0.321569 0.752941 0.000000
0.400000 0.760784 0.000000
0.474510 0.772549 0.000000
0.549020 0.772549 0.000000
0.631373 0.784314 0.000000
0.705882 0.792157 0.003922
0.784314 0.796078 0.015686
0.866667 0.807843 0.023529
0.937255 0.815686 0.035294
1.000000 0.815686 0.027451
1.000000 0.827451 0.043137
0.000000 0.800000 0.000000
0.019608 0.807843 0.000000
0.105882 0.815686 0.000000
0.176471 0.823529 0.000000
0.262745 0.827451 0.000000
0.337255 0.843137 0.000000
0.411765 0.843137 0.000000
0.486275 0.850980 0.000000
0.568627 0.858824 0.003922
0.639216 0.870588 0.015686
0.729412 0.878431 0.023529
0.800000 0.886275 0.035294
0.878431 0.886275 0.027451
0.956863 0.898039 0.043137
1.000000 0.905882 0.047059
1.000000 0.909804 0.058824
0.000000 0.882353 0.000000
0.039216 0.894118 0.000000
0.121569 0.898039 0.000000
0.200000 0.913725 0.000000
0.270588 0.913725 0.000000
0.349020 0.921569 0.000000
0.423529 0.933333 0.011765
0.501961 0.937255 0.015686
0.580392 0.945098 0.027451
0.662745 0.956863 0.035294
0.737255 0.956863 0.035294
0.811765 0.964706 0.039216
0.890196 0.976471 0.047059
0.972549 0.980392 0.058824
1.000000 0.992157 0.066667
1.000000 1.000000 0.078431
0.000000 0.976471 0.000000
0.050980 0.972549 0.000000
0.129412 0.988235 0.000000
0.211765 0.988235 0.000000
0.282353 0.996078 0.007843
0.364706 1.000000 0.015686
0.443137 1.000000 0.027451
0.525490 1.000000 0.035294
0.592157 1.000000 0.035294
0.674510 1.000000 0.039216
0.749020 1.000000 0.054902
0.835294 1.000000 0.058824
0.901961 1.000000 0.062745
0.980392 1.000000 0.078431
1.000000 1.000000 0.074510
1.000000 1.000000 0.086275
0.000000 1.000000 0.000000
0.074510 1.000000 0.000000
0.145098 1.000000 0.007843
0.227451 1.000000 0.015686
0.305882 1.000000 0.027451
0.372549 1.000000 0.027451
0.454902 1.000000 0.035294
0.529412 1.000000 0.039216
0.607843 1.000000 0.050980
0.690196 1.000000 0.058824
0.764706 1.000000 0.062745
0.843137 1.000000 0.078431
0.921569 1.000000 0.082353
0.996078 1.000000 0.086275
1.000000 1.000000 0.098039
1.000000 1.000000 0.098039
0.000000 0.000000 0.000000
0.000000 0.000000 0.000000
0.015686 0.000000 0.000000
0.058824 0.000000 0.000000
0.109804 0.000000 0.000000
0.164706 0.000000 0.000000
0.247059 0.000000 0.000000
0.317647 0.000000 0.000000
0.403922 0.000000 0.000000
0.470588 0.000000 0.000000
0.549020 0.000000 0.000000
0.631373 0.000000 0.000000
0.701961 0.000000 0.000000
0.784314 0.000000 0.000000
0.862745 0.000000 0.000000
0.933333 0.000000 0.000000
0.000000 0.000000 0.000000
0.000000 0.000000 0.000000
0.000000 0.000000 0.000000
0.023529 0.000000 0.000000
0.101961 0.000000 0.000000
0.180392 0.000000 0.000000
0.250980 0.000000 0.000000
0.333333 0.000000 0.000000
0.403922 0.000000 0.000000
0.494118 0.000000 0.000000
0.564706 0.000000 0.000000
0.647059 0.000000 0.000000
0.725490 0.000000 0.000000
0.796078 0.000000 0.000000
0.874510 0.000000 0.000000
0.956863 0.000000 0.000000
0.000000 0.000000 0.000000
0.000000 0.000000 0.000000
0.000000 0.000000 0.000000
0.039216 0.000000 0.000000
0.113725 0.000000 0.000000
0.196078 0.000000 0.000000
0.266667 0.003922 0.000000
0.349020 0.007843 0.000000
0.427451 0.019608 0.000000
0.505882 0.027451 0.000000
0.576471 0.031373 0.000000
0.650980 0.043137 0.000000
0.737255 0.047059 0.000000
0.811765 0.058824 0.000000
0.890196 0.062745 0.000000
0.960784 0.066667 0.000000
0.000000 0.043137 0.000000
0.000000 0.058824 0.000000
0.000000 0.054902 0.000000
0.047059 0.062745 0.000000
0.129412 0.074510 0.000000
0.207843 0.078431 0.000000
0.290196 0.090196 0.000000
0.360784 0.098039 0.000000
0.439216 0.098039 0.000000
0.513725 0.113725 0.000000
0.600000 0.113725 0.000000
0.670588 0.125490 0.000000
0.752941 0.133333 0.000000
0.823529 0.133333 0.000000
0.901961 0.141176 0.000000
0.976471 0.152941 0.003922
0.000000 0.125490 0.000000
0.000000 0.133333 0.000000
0.000000 0.145098 0.000000
0.070588 0.149020 0.000000
0.141176 0.149020 0.000000
0.223529 0.168627 0.000000
0.301961 0.164706 0.000000
0.376471 0.184314 0.000000
0.462745 0.184314 0.000000
0.533333 0.192157 0.000000
0.607843 0.207843 0.000000
0.686275 0.203922 0.000000
0.756863 0.215686 0.000000
0.839216 0.223529 0.003922
0.917647 0.231373 0.000000
0.996078 0.239216 0.011765
0.000000 0.215686 0.000000
0.000000 0.219608 0.000000
0.000000 0.223529 0.000000
0.086275 0.239216 0.000000
0.156863 0.239216 0.000000
0.235294 0.247059 0.000000
0.309804 0.258824 0.000000
0.396078 0.262745 0.000000
0.462745 0.266667 0.000000
0.549020 0.274510 0.000000
0.619608 0.282353 0.000000
0.701961 0.294118 0.003922
0.780392 0.301961 0.000000
0.858824 0.305882 0.011765
0.933333 0.321569 0.019608
1.000000 0.317647 0.027451
0.000000 0.294118 0.000000
0.000000 0.301961 0.000000
0.019608 0.309804 0.000000
0.098039 0.317647 0.000000
0.172549 0.329412 0.000000
0.258824 0.333333 0.000000
0.325490 0.337255 0.000000
0.411765 0.345098 0.000000
0.482353 0.352941 0.000000
0.552941 0.364706 0.000000
0.643137 0.368627 0.015686
0.713725 0.380392 0.011765
0.788235 0.380392 0.019608
0.870588 0.392157 0.027451
0.945098 0.400000 0.031373
1.000000 0.407843 0.047059
0.000000 0.380392 0.000000
0.000000 0.392157 0.000000
0.031373 0.396078 0.000000
0.113725 0.407843 0.000000
0.184314 0.407843 0.000000
0.258824 0.415686 0.000000
0.345098 0.423529 0.000000
0.415686 0.435294 0.000000
0.505882 0.439216 0.015686
0.576471 0.450980 0.011765
0.647059 0.450980 0.019608
0.729412 0.462745 0.027451
0.807843 0.466667 0.039216
0.878431 0.478431 0.043137
0.968627 0.482353 0.058824
1.000000 0.494118 0.062745
0.000000 0.466667 0.000000
0.000000 0.478431 0.000000
0.047059 0.478431 0.000000
0.117647 0.486275 0.000000
0.207843 0.494118 0.000000
0.278431 0.501961 0.000000
0.360784 0.505882 0.011765
0.439216 0.521569 0.011765
0.505882 0.525490 0.019608
0.592157 0.533333 0.027451
0.662745 0.541176 0.039216
0.741176 0.549020 0.043137
0.823529 0.556863 0.058824
0.901961 0.564706 0.062745
0.972549 0.564706 0.066667
1.000000 0.576471 0.070588
0.000000 0.552941 0.000000
0.000000 0.556863 0.000000
0.062745 0.568627 0.000000
0.141176 0.572549 0.000000
0.211765 0.580392 0.011765
0.301961 0.592157 0.011765
0.368627 0.596078 0.019608
0.450980 0.600000 0.023529
0.525490 0.611765 0.039216
0.603922 0.615686 0.043137
0.678431 0.619608 0.047059
0.764706 0.635294 0.062745
0.831373 0.635294 0.066667
0.917647 0.647059 0.070588
0.988235 0.654902 0.082353
1.000000 0.662745 0.082353
0.000000 0.631373 0.000000
0.003922 0.643137 0.007843
0.074510 0.650980 0.011765
0.152941 0.650980 0.003922
0.231373 0.666667 0.019608
0.313725 0.666667 0.023529
0.388235 0.682353 0.039216
0.458824 0.690196 0.043137
0.541176 0.686275 0.047059
0.619608 0.705882 0.062745
0.694118 0.705882 0.066667
0.768627 0.713725 0.062745
0.850980 0.725490 0.082353
0.929412 0.733333 0.082353
1.000000 0.733333 0.090196
1.000000 0.745098 0.098039
0.000000 0.721569 0.011765
0.011765 0.725490 0.011765
0.090196 0.737255 0.019608
0.164706 0.745098 0.031373
0.247059 0.745098 0.035294
0.321569 0.760784 0.043137
0.400000 0.756863 0.047059
0.474510 0.768627 0.050980
0.556863 0.776471 0.066667
0.631373 0.784314 0.062745
0.713725 0.796078 0.082353
0.784314 0.803922 0.082353
0.866667 0.800000 0.090196
0.941176 0.815686 0.098039
1.000000 0.819608 0.109804
1.000000 0.827451 0.113725
0.000000 0.803922 0.019608
0.023529 0.811765 0.031373
0.109804 0.815686 0.035294
0.184314 0.831373 0.050980
0.262745 0.827451 0.047059
0.337255 0.835294 0.058824
0.415686 0.847059 0.066667
0.494118 0.854902 0.062745
0.564706 0.862745 0.074510
0.647059 0.874510 0.082353
0.721569 0.874510 0.090196
0.803922 0.886275 0.098039
0.882353 0.890196 0.109804
0.956863 0.898039 0.113725
1.000000 0.909804 0.129412
1.000000 0.913725 0.125490
0.000000 0.890196 0.035294
0.039216 0.890196 0.039216
0.113725 0.905882 0.047059
0.196078 0.905882 0.058824
0.274510 0.921569 0.066667
0.356863 0.925490 0.070588
0.427451 0.933333 0.074510
0.509804 0.945098 0.090196
0.584314 0.945098 0.090196
0.658824 0.952941 0.094118
0.737255 0.964706 0.109804
0.819608 0.968627 0.113725
0.890196 0.976471 0.125490
0.980392 0.984314 0.125490
1.000000 0.988235 0.133333
1.000000 1.000000 0.141176
0.000000 0.976471 0.047059
0.058824 0.976471 0.058824
0.129412 0.988235 0.062745
0.219608 0.996078 0.070588
0.290196 1.000000 0.074510
0.364706 1.000000 0.082353
0.447059 1.000000 0.090196
0.517647 1.000000 0.101961
0.600000 1.000000 0.109804
0.674510 1.000000 0.121569
0.752941 1.000000 0.125490
0.835294 1.000000 0.133333
0.909804 1.000000 0.133333
0.980392 1.000000 0.137255
1.000000 1.000000 0.152941
1.000000 1.000000 0.156863
0.000000 1.000000 0.062745
0.070588 1.000000 0.070588
0.152941 1.000000 0.074510
0.219608 1.000000 0.082353
0.309804 1.000000 0.090196
0.380392 1.000000 0.101961
0.454902 1.000000 0.105882
0.537255 1.000000 0.121569
0.615686 1.000000 0.125490
0.690196 1.000000 0.133333
0.772549 1.000000 0.133333
0.843137 1.000000 0.145098
0.929412 1.000000 0.152941
1.000000 1.000000 0.164706
1.000000 1.000000 0.164706
1.000000 1.000000 0.176471
0.000000 0.000000 0.047059
0.000000 0.000000 0.015686
0.007843 0.000000 0.000000
0.050980 0.000000 0.000000
0.094118 0.000000 0.000000
0.168627 0.000000 0.000000
0.247059 0.000000 0.000000
0.317647 0.000000 0.000000
0.396078 0.000000 0.000000
0.478431 0.000000 0.000000
0.549020 0.000000 0.000000
0.635294 0.000000 0.000000
0.709804 0.000000 0.011765
0.788235 0.000000 0.011765
0.858824 0.000000 0.023529
0.941176 0.000000 0.031373
0.000000 0.000000 0.000000
0.000000 0.000000 0.000000
0.000000 0.000000 0.000000
0.031373 0.000000 0.000000
0.098039 0.000000 0.000000
0.180392 0.000000 0.000000
0.258824 0.000000 0.000000
0.337255 0.000000 0.000000
0.411765 0.000000 0.000000
0.494118 0.000000 0.000000
0.572549 0.000000 0.011765
0.643137 0.000000 0.011765
0.721569 0.000000 0.023529
0.796078 0.000000 0.031373
0.882353 0.000000 0.043137
0.952941 0.000000 0.039216
0.000000 0.000000 0.000000
0.000000 0.000000 0.000000
0.000000 0.000000 0.000000
0.039216 0.000000 0.000000
0.121569 0.000000 0.000000
0.192157 0.000000 0.000000
0.274510 0.007843 0.000000
0.352941 0.015686 0.000000
0.423529 0.015686 0.003922
0.501961 0.031373 0.011765
0.584314 0.031373 0.023529
0.654902 0.043137 0.027451
0.745098 0.047059 0.043137
0.815686 0.058824 0.039216
0.898039 0.070588 0.054902
0.968627 0.070588 0.054902
0.000000 0.043137 0.000000
0.000000 0.050980 0.000000
0.000000 0.058824 0.000000
0.054902 0.066667 0.000000
0.137255 0.078431 0.000000
0.215686 0.086275 0.000000
0.286275 0.086275 0.003922
0.364706 0.101961 0.011765
0.447059 0.101961 0.023529
0.517647 0.113725 0.027451
0.600000 0.121569 0.043137
0.678431 0.129412 0.039216
0.745098 0.133333 0.043137
0.831373 0.141176 0.054902
0.901961 0.149020 0.066667
0.984314 0.160784 0.074510
0.000000 0.129412 0.000000
0.000000 0.137255 0.000000
0.000000 0.149020 0.000000
0.078431 0.152941 0.003922
0.145098 0.160784 0.003922
0.219608 0.164706 0.015686
0.301961 0.176471 0.023529
0.380392 0.180392 0.035294
0.454902 0.196078 0.043137
0.541176 0.200000 0.039216
0.607843 0.203922 0.043137
0.694118 0.211765 0.054902
0.764706 0.219608 0.066667
0.843137 0.227451 0.066667
0.925490 0.235294 0.086275
1.000000 0.239216 0.082353
0.000000 0.219608 0.000000
0.000000 0.223529 0.003922
0.003922 0.231373 0.003922
0.082353 0.235294 0.015686
0.164706 0.247059 0.023529
0.243137 0.250980 0.035294
0.309804 0.254902 0.031373
0.403922 0.266667 0.054902
0.470588 0.274510 0.043137
0.552941 0.274510 0.054902
0.627451 0.290196 0.066667
0.698039 0.298039 0.066667
0.788235 0.305882 0.086275
0.854902 0.309804 0.082353
0.933333 0.317647 0.094118
1.000000 0.329412 0.094118
0.000000 0.301961 0.003922
0.000000 0.305882 0.015686
0.023529 0.309804 0.019608
0.098039 0.325490 0.035294
0.172549 0.325490 0.031373
0.258824 0.341176 0.054902
0.329412 0.345098 0.043137
0.403922 0.352941 0.054902
0.490196 0.360784 0.066667
0.560784 0.368627 0.074510
0.639216 0.368627 0.074510
0.717647 0.380392 0.090196
0.796078 0.384314 0.094118
0.874510 0.400000 0.094118
0.952941 0.403922 0.105882
1.000000 0.411765 0.109804
0.000000 0.380392 0.019608
0.000000 0.396078 0.035294
0.035294 0.396078 0.031373
0.109804 0.400000 0.043137
0.192157 0.415686 0.043137
0.262745 0.423529 0.054902
0.352941 0.431373 0.066667
0.423529 0.439216 0.074510
0.501961 0.435294 0.074510
0.580392 0.450980 0.090196
0.650980 0.458824 0.094118
0.733333 0.462745 0.105882
0.807843 0.478431 0.105882
0.886275 0.482353 0.117647
0.960784 0.482353 0.117647
1.000000 0.494118 0.125490
0.000000 0.466667 0.031373
0.000000 0.470588 0.043137
0.050980 0.486275 0.043137
0.125490 0.494118 0.054902
0.203922 0.498039 0.058824
0.286275 0.509804 0.074510
0.352941 0.513725 0.074510
0.435294 0.513725 0.086275
0.513725 0.529412 0.094118
0.596078 0.529412 0.105882
0.670588 0.549020 0.105882
0.749020 0.552941 0.117647
0.823529 0.552941 0.117647
0.905882 0.564706 0.133333
0.976471 0.572549 0.137255
1.000000 0.576471 0.149020
0.000000 0.552941 0.039216
0.000000 0.560784 0.054902
0.066667 0.568627 0.058824
0.149020 0.580392 0.074510
0.215686 0.584314 0.074510
0.298039 0.584314 0.086275
0.376471 0.600000 0.094118
0.458824 0.600000 0.105882
0.529412 0.611765 0.101961
0.603922 0.623529 0.117647
0.686275 0.623529 0.117647
0.756863 0.631373 0.129412
0.839216 0.643137 0.137255
0.913725 0.647059 0.149020
0.996078 0.658824 0.156863
1.000000 0.662745 0.168627
0.000000 0.639216 0.066667
0.000000 0.643137 0.066667
0.078431 0.654902 0.074510
0.156863 0.658824 0.086275
0.231373 0.666667 0.090196
0.309804 0.678431 0.105882
0.392157 0.682353 0.101961
0.466667 0.694118 0.117647
0.545098 0.694118 0.117647
0.619608 0.701961 0.129412
0.701961 0.713725 0.137255
0.776471 0.717647 0.149020
0.850980 0.721569 0.149020
0.929412 0.737255 0.168627
1.000000 0.737255 0.160784
1.000000 0.749020 0.176471
0.000000 0.721569 0.082353
0.015686 0.729412 0.086275
0.094118 0.733333 0.098039
0.168627 0.749020 0.105882
0.254902 0.752941 0.101961
0.321569 0.756863 0.109804
0.407843 0.764706 0.117647
0.482353 0.772549 0.129412
0.556863 0.788235 0.137255
0.639216 0.788235 0.149020
0.705882 0.792157 0.149020
0.792157 0.807843 0.168627
0.866667 0.811765 0.160784
0.945098 0.815686 0.172549
1.000000 0.827451 0.180392
1.000000 0.831373 0.192157
0.000000 0.803922 0.098039
0.031373 0.819608 0.105882
0.109804 0.823529 0.109804
0.184314 0.827451 0.109804
0.258824 0.839216 0.125490
0.341176 0.843137 0.129412
0.415686 0.850980 0.133333
0.501961 0.858824 0.149020
0.568627 0.862745 0.149020
0.647059 0.870588 0.160784
0.729412 0.882353 0.160784
0.807843 0.886275 0.172549
0.882353 0.901961 0.180392
0.964706 0.901961 0.192157
1.000000 0.905882 0.192157
1.000000 0.917647 0.207843
0.000000 0.894118 0.109804
0.047059 0.898039 0.109804
0.117647 0.905882 0.121569
0.203922 0.913725 0.129412
0.274510 0.921569 0.141176
0.364706 0.929412 0.149020
0.431373 0.933333 0.156863
0.509804 0.937255 0.160784
0.592157 0.952941 0.160784
0.662745 0.960784 0.172549
0.741176 0.964706 0.176471
0.819608 0.976471 0.192157
0.894118 0.976471 0.192157
0.972549 0.984314 0.203922
1.000000 0.992157 0.211765
1.000000 1.000000 0.223529
0.000000 0.976471 0.121569
0.062745 0.984314 0.129412
0.137255 0.992157 0.141176
0.203922 0.996078 0.141176
0.294118 1.000000 0.156863
0.364706 1.000000 0.160784
0.454902 1.000000 0.168627
0.525490 1.000000 0.172549
0.600000 1.000000 0.184314
0.682353 1.000000 0.192157
0.756863 1.000000 0.192157
0.827451 1.000000 0.203922
0.917647 1.000000 0.211765
0.988235 1.000000 0.223529
1.000000 1.000000 0.211765
1.000000 1.000000 0.235294
0.000000 1.000000 0.141176
0.066667 1.000000 0.141176
0.156863 1.000000 0.156863
0.227451 1.000000 0.160784
0.309804 1.000000 0.164706
0.388235 1.000000 0.172549
0.462745 1.000000 0.184314
0.537255 1.000000 0.184314
0.611765 1.000000 0.200000
0.690196 1.000000 0.203922
0.772549 1.000000 0.219608
0.850980 1.000000 0.223529
0.921569 1.000000 0.219608
1.000000 1.000000 0.235294
1.000000 1.000000 0.231373
1.000000 1.000000 0.243137
0.000000 0.000000 0.101961
0.000000 0.000000 0.086275
0.000000 0.000000 0.062745
0.047059 0.000000 0.047059
0.090196 0.000000 0.015686
0.176471 0.000000 0.031373
0.243137 0.000000 0.027451
0.325490 0.000000 0.047059
0.403922 0.000000 0.047059
0.482353 0.000000 0.058824
0.556863 0.000000 0.070588
0.635294 0.000000 0.074510
0.705882 0.000000 0.070588
0.788235 0.000000 0.086275
0.866667 0.000000 0.090196
0.937255 0.000000 0.101961
0.000000 0.000000 0.062745
0.000000 0.000000 0.047059
0.000000 0.000000 0.015686
0.039216 0.000000 0.031373
0.105882 0.000000 0.027451
0.176471 0.000000 0.039216
0.266667 0.000000 0.047059
0.337255 0.000000 0.058824
0.411765 0.000000 0.058824
0.494118 0.000000 0.074510
0.568627 0.000000 0.070588
0.647059 0.000000 0.086275
0.729412 0.000000 0.090196
0.800000 0.000000 0.101961
0.890196 0.000000 0.109804
0.956863 0.000000 0.117647
0.000000 0.000000 0.031373
0.000000 0.000000 0.031373
0.000000 0.000000 0.027451
0.039216 0.000000 0.039216
0.129412 0.000000 0.047059
0.200000 0.003922 0.058824
0.274510 0.003922 0.058824
0.352941 0.015686 0.074510
0.431373 0.023529 0.070588
0.501961 0.031373 0.082353
0.592157 0.039216 0.090196
0.662745 0.047059 0.101961
0.745098 0.058824 0.109804
0.819608 0.058824 0.117647
0.890196 0.066667 0.121569
0.976471 0.074510 0.137255
0.000000 0.047059 0.035294
0.000000 0.058824 0.039216
0.000000 0.058824 0.050980
0.062745 0.074510 0.058824
0.129412 0.078431 0.058824
0.215686 0.086275 0.074510
0.290196 0.094118 0.070588
0.364706 0.101961 0.082353
0.447059 0.113725 0.090196
0.525490 0.117647 0.101961
0.592157 0.121569 0.101961
0.678431 0.129412 0.117647
0.752941 0.137255 0.121569
0.835294 0.141176 0.133333
0.909804 0.156863 0.133333
0.988235 0.160784 0.145098
0.000000 0.137255 0.050980
0.000000 0.145098 0.058824
0.000000 0.145098 0.066667
0.074510 0.149020 0.070588
0.149020 0.164706 0.086275
0.227451 0.172549 0.082353
0.305882 0.176471 0.086275
0.388235 0.188235 0.101961
0.454902 0.192157 0.101961
0.541176 0.200000 0.117647
0.615686 0.207843 0.121569
0.690196 0.211765 0.133333
0.772549 0.227451 0.133333
0.843137 0.235294 0.145098
0.925490 0.231373 0.145098
1.000000 0.247059 0.160784
0.000000 0.215686 0.066667
0.000000 0.219608 0.070588
0.011765 0.231373 0.086275
0.082353 0.243137 0.082353
0.168627 0.247059 0.094118
0.243137 0.258824 0.101961
0.317647 0.258824 0.109804
0.392157 0.266667 0.113725
0.474510 0.278431 0.129412
0.549020 0.286275 0.133333
0.635294 0.294118 0.133333
0.705882 0.305882 0.145098
0.784314 0.301961 0.145098
0.862745 0.313725 0.160784
0.941176 0.321569 0.164706
1.000000 0.325490 0.176471
0.000000 0.298039 0.082353
0.000000 0.313725 0.082353
0.031373 0.317647 0.094118
0.105882 0.329412 0.101961
0.180392 0.329412 0.109804
0.254902 0.337255 0.113725
0.337255 0.345098 0.129412
0.407843 0.356863 0.133333
0.490196 0.352941 0.141176
0.568627 0.372549 0.145098
0.647059 0.372549 0.152941
0.717647 0.380392 0.156863
0.796078 0.396078 0.164706
0.878431 0.396078 0.176471
