public/luts/high-contrast.cube
# Studiio — look « high-contrast », genere par scripts/lut/generer-luts.mjs
# Source : les coefficients de LOOKS_RENDUS, calcules par ffmpeg lui-meme.
# Aucune LUT tierce, aucun telechargement : provenance et licence du depot.
LUT_3D_SIZE 6
DOMAIN_MIN 0.0 0.0 0.0
DOMAIN_MAX 1.0 1.0 1.0
0.000000 0.000000 0.000000
0.062745 0.000000 0.000000
0.239216 0.000000 0.000000
0.466667 0.000000 0.000000
0.701961 0.000000 0.000000
0.933333 0.000000 0.000000
0.000000 0.043137 0.000000
0.054902 0.062745 0.000000
0.282353 0.086275 0.000000
0.513725 0.113725 0.000000
0.745098 0.129412 0.000000
0.976471 0.149020 0.000000
0.000000 0.294118 0.000000
0.098039 0.321569 0.000000
0.325490 0.341176 0.000000
0.556863 0.360784 0.000000
0.788235 0.384314 0.000000
1.000000 0.403922 0.000000
0.000000 0.545098 0.000000
0.133333 0.568627 0.000000
0.360784 0.592157 0.000000
0.596078 0.611765 0.000000
0.839216 0.639216 0.000000
1.000000 0.654902 0.019608
0.000000 0.800000 0.000000
0.176471 0.823529 0.000000
0.411765 0.843137 0.000000
0.639216 0.870588 0.015686
0.878431 0.886275 0.027451
1.000000 0.909804 0.058824
0.000000 1.000000 0.000000
0.227451 1.000000 0.015686
0.454902 1.000000 0.035294
0.690196 1.000000 0.058824
0.921569 1.000000 0.082353
1.000000 1.000000 0.098039
0.000000 0.000000 0.101961
0.047059 0.000000 0.047059
0.243137 0.000000 0.027451
0.482353 0.000000 0.058824
0.705882 0.000000 0.070588
0.937255 0.000000 0.101961
0.000000 0.047059 0.035294
0.062745 0.074510 0.058824
0.290196 0.094118 0.070588
0.525490 0.117647 0.101961
0.752941 0.137255 0.121569
0.988235 0.160784 0.145098
0.000000 0.298039 0.082353
0.105882 0.329412 0.101961
0.337255 0.345098 0.129412
0.568627 0.372549 0.145098
0.796078 0.396078 0.164706
1.000000 0.411765 0.192157
0.000000 0.556863 0.125490
0.141176 0.580392 0.137255
0.376471 0.600000 0.168627
0.603922 0.619608 0.188235
0.847059 0.647059 0.215686
1.000000 0.670588 0.235294
0.000000 0.811765 0.168627
0.192157 0.831373 0.196078
0.415686 0.850980 0.203922
0.647059 0.878431 0.227451
0.878431 0.894118 0.254902
1.000000 0.917647 0.270588
0.003922 1.000000 0.203922
0.235294 1.000000 0.235294
0.458824 1.000000 0.254902
0.698039 1.000000 0.278431
0.925490 1.000000 0.298039
1.000000 1.000000 0.313725
0.000000 0.000000 0.290196
0.023529 0.000000 0.231373
0.258824 0.000000 0.250980
0.490196 0.000000 0.274510
0.713725 0.000000 0.301961
0.952941 0.000000 0.317647
0.000000 0.058824 0.250980
0.070588 0.082353 0.274510
0.301961 0.098039 0.301961
0.533333 0.125490 0.317647
0.764706 0.141176 0.345098
0.996078 0.168627 0.360784
0.000000 0.309804 0.298039
0.117647 0.333333 0.325490
0.345098 0.356863 0.345098
0.576471 0.384314 0.360784
0.807843 0.400000 0.384314
1.000000 0.427451 0.407843
0.000000 0.564706 0.337255
0.152941 0.580392 0.364706
0.384314 0.607843 0.380392
0.615686 0.627451 0.407843
0.850980 0.658824 0.427451
1.000000 0.678431 0.447059
0.000000 0.819608 0.380392
0.196078 0.839216 0.407843
0.427451 0.866667 0.423529
0.658824 0.882353 0.450980
0.890196 0.909804 0.474510
1.000000 0.925490 0.494118
0.015686 1.000000 0.431373
0.243137 1.000000 0.450980
0.478431 1.000000 0.482353
0.705882 1.000000 0.494118
0.929412 1.000000 0.513725
1.000000 1.000000 0.529412
0.000000 0.000000 0.474510
0.031373 0.000000 0.454902
0.266667 0.000000 0.466667
0.494118 0.000000 0.490196
0.729412 0.000000 0.513725
0.956863 0.000000 0.529412
0.000000 0.070588 0.466667
0.082353 0.086275 0.498039
0.309804 0.109804 0.513725
0.545098 0.129412 0.537255
0.772549 0.152941 0.556863
1.000000 0.176471 0.588235
0.000000 0.317647 0.517647
0.125490 0.345098 0.537255
0.352941 0.364706 0.556863
0.588235 0.388235 0.588235
0.815686 0.407843 0.600000
1.000000 0.431373 0.631373
0.000000 0.568627 0.560784
0.160784 0.592157 0.580392
0.396078 0.615686 0.603922
0.623529 0.635294 0.623529
0.854902 0.662745 0.639216
1.000000 0.686275 0.674510
0.000000 0.827451 0.603922
0.203922 0.847059 0.623529
0.443137 0.870588 0.654902
0.666667 0.894118 0.662745
0.905882 0.913725 0.694118
1.000000 0.937255 0.705882
0.023529 1.000000 0.654902
0.254902 1.000000 0.662745
0.486275 1.000000 0.694118
0.709804 1.000000 0.705882
0.949020 1.000000 0.737255
1.000000 1.000000 0.709804
0.000000 0.000000 0.662745
0.039216 0.000000 0.666667
0.270588 0.000000 0.690196
0.509804 0.000000 0.709804
0.733333 0.000000 0.729412
0.964706 0.000000 0.752941
0.000000 0.078431 0.698039
0.082353 0.098039 0.709804
0.313725 0.117647 0.737255
0.552941 0.141176 0.752941
0.780392 0.160784 0.772549
1.000000 0.184314 0.803922
0.000000 0.325490 0.733333
0.117647 0.349020 0.745098
0.364706 0.368627 0.780392
0.596078 0.396078 0.803922
0.827451 0.415686 0.823529
1.000000 0.439216 0.847059
0.000000 0.584314 0.776471
0.168627 0.600000 0.800000
0.403922 0.623529 0.815686
0.631373 0.643137 0.835294
0.866667 0.666667 0.866667
1.000000 0.698039 0.886275
0.000000 0.839216 0.815686
0.219608 0.854902 0.843137
0.447059 0.878431 0.866667
0.682353 0.898039 0.886275
0.909804 0.921569 0.909804
1.000000 0.945098 0.921569
0.027451 1.000000 0.866667
0.262745 1.000000 0.886275
0.494118 1.000000 0.909804
0.725490 1.000000 0.937255
0.956863 1.000000 0.952941
1.000000 1.000000 0.901961
0.000000 0.000000 0.862745
0.047059 0.000000 0.882353
0.282353 0.000000 0.913725
0.509804 0.000000 0.925490
0.741176 0.000000 0.956863
0.980392 0.000000 0.972549
0.000000 0.086275 0.913725
0.090196 0.105882 0.933333
0.325490 0.129412 0.956863
0.552941 0.152941 0.972549
0.792157 0.164706 0.992157
1.000000 0.192157 1.000000
0.000000 0.333333 0.945098
0.137255 0.356863 0.976471
0.364706 0.384314 0.992157
0.603922 0.403922 1.000000
0.835294 0.423529 1.000000
1.000000 0.450980 1.000000
0.000000 0.588235 0.996078
0.180392 0.611765 1.000000
0.403922 0.635294 1.000000
0.643137 0.647059 1.000000
0.874510 0.674510 1.000000
1.000000 0.701961 1.000000
0.000000 0.843137 1.000000
0.219608 0.866667 1.000000
0.454902 0.886275 1.000000
0.686275 0.905882 1.000000
0.917647 0.933333 1.000000
1.000000 0.949020 1.000000
0.035294 1.000000 1.000000
0.262745 1.000000 1.000000
0.505882 1.000000 1.000000
0.733333 1.000000 1.000000
0.941176 1.000000 1.000000
1.000000 1.000000 1.000000
