public/luts/lifestyle.cube
# Studiio — look « lifestyle », genere par scripts/lut/generer-luts.mjs
# Source : les coefficients de LOOKS_RENDUS, calcules par ffmpeg lui-meme.
# Aucune LUT tierce, aucun telechargement : provenance et licence du depot.
LUT_3D_SIZE 6
DOMAIN_MIN 0.0 0.0 0.0
DOMAIN_MAX 1.0 1.0 1.0
0.113725 0.098039 0.054902
0.305882 0.090196 0.031373
0.505882 0.066667 0.011765
0.678431 0.058824 0.043137
0.874510 0.054902 0.062745
1.000000 0.050980 0.058824
0.101961 0.290196 0.031373
0.305882 0.282353 0.031373
0.501961 0.262745 0.000000
0.678431 0.262745 0.035294
0.866667 0.258824 0.062745
1.000000 0.254902 0.047059
0.078431 0.474510 0.000000
0.294118 0.470588 0.003922
0.498039 0.470588 0.000000
0.674510 0.458824 0.039216
0.862745 0.458824 0.050980
1.000000 0.458824 0.047059
0.050980 0.674510 0.047059
0.250980 0.666667 0.035294
0.458824 0.666667 0.019608
0.666667 0.662745 0.023529
0.854902 0.662745 0.050980
1.000000 0.654902 0.043137
0.031373 0.874510 0.054902
0.227451 0.874510 0.050980
0.439216 0.870588 0.054902
0.635294 0.862745 0.039216
0.847059 0.858824 0.035294
1.000000 0.854902 0.039216
0.023529 1.000000 0.054902
0.227451 1.000000 0.039216
0.431373 1.000000 0.043137
0.635294 1.000000 0.039216
0.839216 1.000000 0.035294
1.000000 1.000000 0.027451
0.101961 0.090196 0.239216
0.309804 0.082353 0.243137
0.505882 0.066667 0.219608
0.678431 0.054902 0.262745
0.870588 0.054902 0.266667
1.000000 0.050980 0.270588
0.105882 0.286275 0.247059
0.298039 0.266667 0.215686
0.466667 0.266667 0.243137
0.658824 0.262745 0.270588
0.862745 0.258824 0.266667
1.000000 0.250980 0.258824
0.082353 0.470588 0.207843
0.258824 0.470588 0.250980
0.470588 0.466667 0.254902
0.654902 0.462745 0.258824
0.858824 0.458824 0.254902
1.000000 0.454902 0.258824
0.047059 0.674510 0.250980
0.231373 0.670588 0.254902
0.443137 0.662745 0.258824
0.643137 0.662745 0.254902
0.854902 0.654902 0.258824
1.000000 0.654902 0.247059
0.023529 0.878431 0.258824
0.231373 0.870588 0.262745
0.431373 0.862745 0.254902
0.635294 0.862745 0.243137
0.843137 0.858824 0.247059
1.000000 0.854902 0.243137
0.023529 1.000000 0.254902
0.227451 1.000000 0.250980
0.423529 1.000000 0.247059
0.635294 1.000000 0.250980
0.831373 1.000000 0.235294
1.000000 1.000000 0.231373
0.098039 0.070588 0.431373
0.298039 0.066667 0.427451
0.505882 0.054902 0.427451
0.678431 0.054902 0.462745
0.866667 0.054902 0.482353
1.000000 0.047059 0.478431
0.090196 0.266667 0.427451
0.262745 0.270588 0.454902
0.466667 0.262745 0.462745
0.658824 0.262745 0.478431
0.862745 0.250980 0.474510
1.000000 0.250980 0.462745
0.082353 0.470588 0.411765
0.262745 0.466667 0.466667
0.450980 0.462745 0.474510
0.647059 0.462745 0.462745
0.858824 0.458824 0.466667
1.000000 0.454902 0.462745
0.043137 0.670588 0.447059
0.235294 0.666667 0.466667
0.439216 0.662745 0.462745
0.647059 0.658824 0.466667
0.850980 0.658824 0.454902
1.000000 0.654902 0.450980
0.027451 0.874510 0.462745
0.231373 0.870588 0.466667
0.427451 0.866667 0.450980
0.639216 0.858824 0.454902
0.843137 0.858824 0.450980
1.000000 0.850980 0.454902
0.019608 1.000000 0.458824
0.219608 1.000000 0.454902
0.427451 1.000000 0.458824
0.631373 1.000000 0.454902
0.831373 1.000000 0.439216
1.000000 1.000000 0.443137
0.062745 0.070588 0.682353
0.266667 0.062745 0.690196
0.470588 0.054902 0.678431
0.674510 0.054902 0.662745
0.870588 0.050980 0.686275
1.000000 0.047059 0.682353
0.054902 0.270588 0.674510
0.250980 0.266667 0.690196
0.450980 0.262745 0.686275
0.662745 0.258824 0.690196
0.862745 0.250980 0.674510
1.000000 0.250980 0.678431
0.058824 0.466667 0.670588
0.250980 0.466667 0.690196
0.443137 0.466667 0.674510
0.650980 0.458824 0.678431
0.854902 0.458824 0.674510
1.000000 0.450980 0.678431
0.047059 0.666667 0.658824
0.235294 0.666667 0.670588
0.443137 0.658824 0.674510
0.647059 0.658824 0.670588
0.839216 0.654902 0.654902
1.000000 0.654902 0.662745
0.023529 0.874510 0.674510
0.227451 0.870588 0.670588
0.431373 0.862745 0.662745
0.635294 0.858824 0.658824
0.847059 0.854902 0.662745
1.000000 0.854902 0.650980
0.011765 1.000000 0.662745
0.223529 1.000000 0.658824
0.427451 1.000000 0.662745
0.627451 1.000000 0.650980
0.835294 1.000000 0.650980
1.000000 1.000000 0.647059
0.047059 0.066667 0.909804
0.258824 0.062745 0.905882
0.458824 0.058824 0.898039
0.666667 0.050980 0.894118
0.870588 0.050980 0.890196
1.000000 0.047059 0.890196
0.043137 0.266667 0.905882
0.247059 0.266667 0.894118
0.458824 0.258824 0.898039
0.654902 0.254902 0.890196
0.858824 0.254902 0.878431
1.000000 0.247059 0.882353
0.039216 0.466667 0.894118
0.231373 0.462745 0.886275
0.447059 0.462745 0.886275
0.650980 0.458824 0.882353
0.858824 0.454902 0.886275
1.000000 0.450980 0.870588
0.027451 0.666667 0.882353
0.239216 0.662745 0.886275
0.443137 0.658824 0.882353
0.635294 0.658824 0.866667
0.843137 0.650980 0.870588
1.000000 0.654902 0.870588
0.023529 0.874510 0.882353
0.227451 0.862745 0.882353
0.431373 0.862745 0.870588
0.639216 0.854902 0.874510
0.843137 0.854902 0.870588
1.000000 0.850980 0.850980
0.015686 1.000000 0.870588
0.219608 1.000000 0.874510
0.423529 1.000000 0.870588
0.627451 1.000000 0.858824
0.831373 1.000000 0.854902
1.000000 1.000000 0.858824
0.050980 0.066667 1.000000
0.250980 0.058824 1.000000
0.462745 0.054902 1.000000
0.662745 0.050980 1.000000
0.862745 0.050980 1.000000
1.000000 0.043137 1.000000
0.043137 0.266667 1.000000
0.247059 0.262745 1.000000
0.454902 0.258824 1.000000
0.654902 0.254902 1.000000
0.862745 0.247059 1.000000
1.000000 0.247059 1.000000
0.031373 0.470588 1.000000
0.235294 0.458824 1.000000
0.443137 0.462745 1.000000
0.654902 0.454902 1.000000
0.854902 0.454902 1.000000
1.000000 0.450980 1.000000
0.031373 0.662745 1.000000
0.235294 0.662745 1.000000
0.431373 0.662745 1.000000
0.639216 0.654902 1.000000
0.839216 0.650980 1.000000
1.000000 0.650980 1.000000
0.027451 0.870588 1.000000
0.223529 0.862745 1.000000
0.435294 0.858824 1.000000
0.639216 0.854902 1.000000
0.835294 0.858824 1.000000
1.000000 0.847059 1.000000
0.015686 1.000000 1.000000
0.219608 1.000000 1.000000
0.427451 1.000000 1.000000
0.627451 1.000000 1.000000
0.835294 1.000000 1.000000
1.000000 1.000000 1.000000
