public/luts/lifestyle.cube
# Studiio — look « lifestyle », genere par scripts/lut/generer-luts.mjs
# Source : les coefficients de LOOKS_RENDUS, calcules par ffmpeg lui-meme.
# Aucune LUT tierce, aucun telechargement : provenance et licence du depot.
LUT_3D_SIZE 16
DOMAIN_MIN 0.0 0.0 0.0
DOMAIN_MAX 1.0 1.0 1.0
0.113725 0.098039 0.054902
0.176471 0.098039 0.043137
0.247059 0.094118 0.047059
0.305882 0.090196 0.031373
0.376471 0.070588 0.023529
0.439216 0.070588 0.015686
0.505882 0.066667 0.011765
0.572549 0.066667 0.023529
0.623529 0.058824 0.039216
0.678431 0.058824 0.043137
0.741176 0.054902 0.074510
0.803922 0.058824 0.058824
0.874510 0.054902 0.062745
0.941176 0.058824 0.062745
1.000000 0.050980 0.066667
1.000000 0.050980 0.058824
0.109804 0.168627 0.050980
0.176471 0.164706 0.050980
0.247059 0.156863 0.043137
0.309804 0.156863 0.035294
0.380392 0.141176 0.023529
0.439216 0.137255 0.011765
0.505882 0.129412 0.011765
0.564706 0.129412 0.011765
0.619608 0.125490 0.031373
0.682353 0.129412 0.035294
0.733333 0.129412 0.054902
0.807843 0.125490 0.062745
0.870588 0.125490 0.066667
0.937255 0.121569 0.058824
1.000000 0.125490 0.066667
1.000000 0.121569 0.062745
0.101961 0.231373 0.039216
0.172549 0.231373 0.047059
0.243137 0.227451 0.039216
0.309804 0.215686 0.035294
0.364706 0.215686 0.023529
0.435294 0.200000 0.015686
0.498039 0.196078 0.007843
0.568627 0.200000 0.000000
0.619608 0.196078 0.023529
0.682353 0.192157 0.035294
0.737255 0.196078 0.062745
0.800000 0.192157 0.058824
0.874510 0.192157 0.066667
0.941176 0.192157 0.062745
1.000000 0.188235 0.062745
1.000000 0.192157 0.062745
0.101961 0.290196 0.031373
0.168627 0.286275 0.035294
0.227451 0.282353 0.027451
0.305882 0.282353 0.031373
0.364706 0.278431 0.023529
0.435294 0.266667 0.019608
0.501961 0.262745 0.000000
0.568627 0.258824 0.011765
0.623529 0.266667 0.027451
0.678431 0.262745 0.035294
0.733333 0.258824 0.054902
0.796078 0.262745 0.062745
0.866667 0.258824 0.062745
0.933333 0.258824 0.058824
1.000000 0.250980 0.058824
1.000000 0.254902 0.047059
0.094118 0.341176 0.015686
0.160784 0.345098 0.023529
0.227451 0.345098 0.019608
0.290196 0.341176 0.019608
0.368627 0.345098 0.011765
0.427451 0.337255 0.007843
0.494118 0.329412 0.000000
0.564706 0.333333 0.011765
0.619608 0.329412 0.023529
0.674510 0.333333 0.047059
0.737255 0.325490 0.058824
0.796078 0.325490 0.058824
0.866667 0.321569 0.058824
0.925490 0.325490 0.047059
1.000000 0.317647 0.050980
1.000000 0.321569 0.047059
0.086275 0.403922 0.007843
0.152941 0.400000 0.011765
0.227451 0.407843 0.003922
0.290196 0.403922 0.007843
0.364706 0.403922 0.000000
0.431373 0.403922 0.007843
0.498039 0.400000 0.000000
0.556863 0.400000 0.003922
0.619608 0.400000 0.023529
0.674510 0.396078 0.043137
0.729412 0.396078 0.050980
0.796078 0.388235 0.062745
0.858824 0.392157 0.050980
0.929412 0.392157 0.047059
0.992157 0.392157 0.050980
1.000000 0.384314 0.047059
0.078431 0.474510 0.000000
0.152941 0.474510 0.003922
0.219608 0.470588 0.000000
0.294118 0.470588 0.003922
0.356863 0.470588 0.000000
0.431373 0.466667 0.000000
0.498039 0.470588 0.000000
0.560784 0.466667 0.007843
0.611765 0.462745 0.007843
0.674510 0.458824 0.039216
0.729412 0.462745 0.039216
0.788235 0.458824 0.050980
0.862745 0.458824 0.050980
0.929412 0.454902 0.054902
0.996078 0.458824 0.050980
1.000000 0.458824 0.047059
0.074510 0.541176 0.003922
0.141176 0.537255 0.007843
0.207843 0.541176 0.007843
0.286275 0.533333 0.007843
0.349020 0.537255 0.003922
0.419608 0.537255 0.011765
0.486275 0.529412 0.000000
0.552941 0.533333 0.007843
0.615686 0.533333 0.003922
0.670588 0.525490 0.023529
0.733333 0.529412 0.039216
0.784314 0.529412 0.054902
0.854902 0.525490 0.047059
0.925490 0.525490 0.054902
0.996078 0.521569 0.050980
1.000000 0.521569 0.050980
0.066667 0.607843 0.027451
0.129412 0.607843 0.027451
0.200000 0.603922 0.019608
0.262745 0.607843 0.031373
0.337255 0.600000 0.015686
0.400000 0.600000 0.019608
0.470588 0.600000 0.007843
0.541176 0.596078 0.007843
0.611765 0.596078 0.003922
0.666667 0.600000 0.027451
0.729412 0.592157 0.035294
0.788235 0.596078 0.054902
0.858824 0.592157 0.050980
0.921569 0.592157 0.050980
0.992157 0.596078 0.050980
1.000000 0.584314 0.047059
0.050980 0.674510 0.047059
0.121569 0.674510 0.047059
0.188235 0.670588 0.031373
0.250980 0.666667 0.035294
0.329412 0.666667 0.027451
0.392157 0.666667 0.027451
0.458824 0.666667 0.019608
0.525490 0.666667 0.031373
0.600000 0.666667 0.019608
0.666667 0.662745 0.023529
0.721569 0.666667 0.039216
0.788235 0.658824 0.050980
0.854902 0.662745 0.050980
0.917647 0.654902 0.047059
0.988235 0.654902 0.035294
1.000000 0.654902 0.043137
0.031373 0.741176 0.058824
0.101961 0.737255 0.054902
0.168627 0.737255 0.043137
0.243137 0.737255 0.043137
0.305882 0.737255 0.039216
0.384314 0.737255 0.047059
0.447059 0.737255 0.039216
0.517647 0.733333 0.043137
0.580392 0.737255 0.043137
0.658824 0.729412 0.043137
0.721569 0.729412 0.035294
0.780392 0.725490 0.047059
0.850980 0.725490 0.035294
0.917647 0.721569 0.039216
0.984314 0.725490 0.035294
1.000000 0.721569 0.039216
0.027451 0.803922 0.050980
0.101961 0.807843 0.050980
0.160784 0.807843 0.054902
0.235294 0.800000 0.047059
0.301961 0.803922 0.054902
0.372549 0.803922 0.050980
0.439216 0.800000 0.043137
0.505882 0.803922 0.050980
0.576471 0.800000 0.047059
0.643137 0.796078 0.047059
0.709804 0.796078 0.035294
0.772549 0.792157 0.039216
0.847059 0.796078 0.035294
0.913725 0.792157 0.039216
0.984314 0.788235 0.035294
1.000000 0.792157 0.039216
0.031373 0.874510 0.054902
0.094118 0.874510 0.047059
0.164706 0.874510 0.054902
0.227451 0.874510 0.050980
0.301961 0.866667 0.050980
0.368627 0.874510 0.050980
0.439216 0.870588 0.054902
0.505882 0.866667 0.047059
0.572549 0.866667 0.035294
0.635294 0.862745 0.039216
0.713725 0.862745 0.035294
0.776471 0.862745 0.039216
0.847059 0.858824 0.035294
0.913725 0.862745 0.039216
0.980392 0.858824 0.035294
1.000000 0.854902 0.039216
0.023529 0.941176 0.050980
0.098039 0.941176 0.050980
0.164706 0.937255 0.050980
0.231373 0.945098 0.050980
0.305882 0.937255 0.054902
0.368627 0.937255 0.047059
0.431373 0.937255 0.043137
0.498039 0.933333 0.039216
0.568627 0.929412 0.039216
0.639216 0.933333 0.039216
0.701961 0.929412 0.043137
0.776471 0.925490 0.035294
0.843137 0.929412 0.035294
0.909804 0.925490 0.039216
0.984314 0.929412 0.035294
1.000000 0.925490 0.039216
0.019608 1.000000 0.050980
0.090196 1.000000 0.047059
0.160784 1.000000 0.054902
0.231373 1.000000 0.047059
0.286275 1.000000 0.039216
0.368627 1.000000 0.039216
0.427451 1.000000 0.039216
0.501961 1.000000 0.039216
0.564706 1.000000 0.043137
0.639216 0.996078 0.035294
0.705882 1.000000 0.043137
0.772549 0.996078 0.039216
0.843137 0.992157 0.039216
0.909804 0.996078 0.039216
0.976471 0.996078 0.027451
1.000000 0.988235 0.027451
0.023529 1.000000 0.054902
0.094118 1.000000 0.047059
0.149020 1.000000 0.039216
0.227451 1.000000 0.039216
0.290196 1.000000 0.039216
0.352941 1.000000 0.035294
0.431373 1.000000 0.043137
0.494118 1.000000 0.035294
0.564706 1.000000 0.039216
0.635294 1.000000 0.039216
0.705882 1.000000 0.039216
0.772549 1.000000 0.039216
0.839216 1.000000 0.035294
0.901961 1.000000 0.027451
0.976471 1.000000 0.031373
1.000000 1.000000 0.027451
0.113725 0.098039 0.121569
0.176471 0.098039 0.121569
0.247059 0.090196 0.109804
0.309804 0.086275 0.109804
0.380392 0.074510 0.082353
0.439216 0.066667 0.078431
0.509804 0.066667 0.078431
0.568627 0.062745 0.094118
0.627451 0.058824 0.105882
0.678431 0.058824 0.125490
0.729412 0.058824 0.133333
0.807843 0.054902 0.141176
0.870588 0.058824 0.137255
0.937255 0.054902 0.137255
1.000000 0.054902 0.129412
1.000000 0.050980 0.133333
0.109804 0.160784 0.125490
0.176471 0.160784 0.117647
0.239216 0.160784 0.098039
0.301961 0.145098 0.090196
0.364706 0.145098 0.082353
0.439216 0.133333 0.078431
0.494118 0.129412 0.074510
0.552941 0.129412 0.105882
0.611765 0.125490 0.109804
0.670588 0.125490 0.141176
0.733333 0.129412 0.137255
0.807843 0.121569 0.137255
0.874510 0.125490 0.129412
0.941176 0.121569 0.133333
1.000000 0.121569 0.125490
1.000000 0.121569 0.133333
0.105882 0.231373 0.117647
0.168627 0.219608 0.098039
0.243137 0.219608 0.105882
0.305882 0.211765 0.090196
0.360784 0.203922 0.074510
0.439216 0.196078 0.078431
0.498039 0.196078 0.078431
0.552941 0.192157 0.098039
0.607843 0.196078 0.113725
0.666667 0.192157 0.133333
0.729412 0.192157 0.125490
0.796078 0.196078 0.133333
0.870588 0.192157 0.125490
0.937255 0.192157 0.133333
1.000000 0.192157 0.129412
1.000000 0.184314 0.125490
0.101961 0.286275 0.101961
0.164706 0.282353 0.090196
0.227451 0.274510 0.090196
0.294118 0.274510 0.082353
0.364706 0.270588 0.082353
0.427451 0.266667 0.074510
0.498039 0.262745 0.094118
0.552941 0.262745 0.098039
0.607843 0.262745 0.101961
0.662745 0.266667 0.125490
0.733333 0.258824 0.125490
0.796078 0.258824 0.129412
0.870588 0.262745 0.129412
0.933333 0.250980 0.125490
1.000000 0.250980 0.121569
1.000000 0.254902 0.125490
0.094118 0.341176 0.090196
0.152941 0.337255 0.074510
0.227451 0.337255 0.078431
0.290196 0.337255 0.074510
0.364706 0.333333 0.078431
0.431373 0.333333 0.074510
0.494118 0.329412 0.086275
0.556863 0.333333 0.094118
0.611765 0.329412 0.109804
0.662745 0.329412 0.121569
0.729412 0.333333 0.129412
0.796078 0.321569 0.125490
0.858824 0.321569 0.121569
0.929412 0.325490 0.125490
1.000000 0.321569 0.121569
1.000000 0.317647 0.125490
0.090196 0.403922 0.078431
0.156863 0.403922 0.074510
0.219608 0.403922 0.074510
0.294118 0.403922 0.074510
0.352941 0.403922 0.078431
0.427451 0.400000 0.062745
0.490196 0.403922 0.074510
0.549020 0.400000 0.086275
0.603922 0.396078 0.105882
0.666667 0.392157 0.117647
0.717647 0.392157 0.129412
0.800000 0.392157 0.125490
0.858824 0.392157 0.121569
0.929412 0.388235 0.125490
0.996078 0.392157 0.113725
1.000000 0.388235 0.117647
0.082353 0.470588 0.074510
0.141176 0.470588 0.078431
0.215686 0.470588 0.090196
0.286275 0.470588 0.070588
0.349020 0.470588 0.078431
0.427451 0.466667 0.074510
0.490196 0.466667 0.074510
0.549020 0.462745 0.082353
0.600000 0.462745 0.101961
0.658824 0.458824 0.109804
0.721569 0.458824 0.129412
0.784314 0.458824 0.125490
0.858824 0.454902 0.125490
0.925490 0.458824 0.117647
0.996078 0.458824 0.113725
1.000000 0.458824 0.117647
0.078431 0.541176 0.090196
0.133333 0.541176 0.086275
0.200000 0.537255 0.090196
0.270588 0.541176 0.094118
0.341176 0.537255 0.090196
0.403922 0.537255 0.086275
0.478431 0.529412 0.090196
0.541176 0.529412 0.078431
0.603922 0.529412 0.101961
0.654902 0.529412 0.113725
0.721569 0.521569 0.125490
0.788235 0.529412 0.117647
0.858824 0.525490 0.121569
0.925490 0.521569 0.113725
1.000000 0.521569 0.121569
1.000000 0.525490 0.117647
0.062745 0.603922 0.094118
0.117647 0.611765 0.109804
0.192157 0.607843 0.109804
0.254902 0.607843 0.105882
0.329412 0.600000 0.105882
0.392157 0.600000 0.098039
0.458824 0.596078 0.101961
0.533333 0.596078 0.101961
0.592157 0.596078 0.101961
0.658824 0.600000 0.105882
0.717647 0.596078 0.121569
0.788235 0.592157 0.113725
0.854902 0.596078 0.121569
0.921569 0.592157 0.117647
0.992157 0.588235 0.117647
1.000000 0.588235 0.113725
0.047059 0.678431 0.109804
0.109804 0.674510 0.121569
0.172549 0.670588 0.125490
0.239216 0.670588 0.113725
0.301961 0.670588 0.121569
0.380392 0.666667 0.117647
0.443137 0.666667 0.117647
0.517647 0.666667 0.105882
0.584314 0.666667 0.113725
0.658824 0.662745 0.101961
0.713725 0.662745 0.117647
0.792157 0.662745 0.117647
0.854902 0.658824 0.117647
0.921569 0.658824 0.113725
0.984314 0.654902 0.117647
1.000000 0.654902 0.109804
0.031373 0.737255 0.117647
0.098039 0.737255 0.129412
0.168627 0.737255 0.125490
0.235294 0.733333 0.121569
0.301961 0.737255 0.125490
0.376471 0.733333 0.113725
0.443137 0.737255 0.121569
0.505882 0.737255 0.113725
0.572549 0.733333 0.117647
0.647059 0.733333 0.117647
0.713725 0.729412 0.117647
0.772549 0.725490 0.109804
0.850980 0.721569 0.117647
0.913725 0.725490 0.109804
0.984314 0.721569 0.113725
1.000000 0.721569 0.105882
0.031373 0.807843 0.125490
0.090196 0.803922 0.129412
0.164706 0.807843 0.125490
0.231373 0.803922 0.121569
0.301961 0.800000 0.117647
0.368627 0.807843 0.113725
0.443137 0.800000 0.117647
0.505882 0.800000 0.113725
0.576471 0.800000 0.117647
0.635294 0.796078 0.109804
0.713725 0.792157 0.117647
0.776471 0.792157 0.109804
0.843137 0.788235 0.113725
0.917647 0.792157 0.105882
0.984314 0.788235 0.105882
1.000000 0.788235 0.101961
0.035294 0.874510 0.125490
0.094118 0.874510 0.121569
0.164706 0.870588 0.117647
0.231373 0.874510 0.121569
0.305882 0.870588 0.117647
0.368627 0.866667 0.121569
0.439216 0.870588 0.117647
0.505882 0.862745 0.109804
0.564706 0.862745 0.109804
0.639216 0.862745 0.109804
0.705882 0.858824 0.113725
0.780392 0.862745 0.105882
0.843137 0.862745 0.105882
0.909804 0.858824 0.101961
0.984314 0.858824 0.109804
1.000000 0.858824 0.101961
0.019608 0.945098 0.117647
0.094118 0.937255 0.117647
0.160784 0.941176 0.117647
0.231373 0.937255 0.121569
0.298039 0.945098 0.117647
0.364706 0.933333 0.117647
0.427451 0.933333 0.109804
0.501961 0.933333 0.117647
0.568627 0.929412 0.113725
0.639216 0.929412 0.098039
0.705882 0.933333 0.105882
0.780392 0.925490 0.101961
0.843137 0.925490 0.101961
0.913725 0.929412 0.101961
0.976471 0.925490 0.105882
1.000000 0.929412 0.105882
0.023529 1.000000 0.117647
0.090196 1.000000 0.121569
0.160784 1.000000 0.113725
0.227451 1.000000 0.117647
0.290196 1.000000 0.109804
0.364706 0.996078 0.113725
0.431373 1.000000 0.113725
0.494118 1.000000 0.105882
0.568627 1.000000 0.105882
0.635294 1.000000 0.109804
0.701961 0.996078 0.101961
0.768627 1.000000 0.109804
0.843137 0.992157 0.105882
0.905882 0.996078 0.098039
0.980392 0.996078 0.105882
1.000000 0.988235 0.098039
0.023529 1.000000 0.113725
0.086275 1.000000 0.117647
0.152941 1.000000 0.109804
0.219608 1.000000 0.113725
0.294118 1.000000 0.113725
0.356863 1.000000 0.105882
0.431373 1.000000 0.101961
0.498039 1.000000 0.109804
0.564706 1.000000 0.101961
0.631373 1.000000 0.109804
0.705882 1.000000 0.105882
0.768627 1.000000 0.105882
0.843137 1.000000 0.105882
0.905882 1.000000 0.105882
0.968627 1.000000 0.098039
1.000000 1.000000 0.090196
0.113725 0.090196 0.184314
0.180392 0.094118 0.180392
0.247059 0.090196 0.180392
0.305882 0.082353 0.168627
0.376471 0.074510 0.164706
0.439216 0.066667 0.149020
0.505882 0.066667 0.156863
0.568627 0.058824 0.152941
0.619608 0.058824 0.168627
0.682353 0.058824 0.188235
0.729412 0.058824 0.207843
0.803922 0.054902 0.200000
0.870588 0.058824 0.207843
0.941176 0.054902 0.203922
1.000000 0.050980 0.203922
1.000000 0.050980 0.203922
0.105882 0.164706 0.184314
0.176471 0.149020 0.168627
0.243137 0.152941 0.176471
0.305882 0.141176 0.156863
0.364706 0.133333 0.152941
0.439216 0.129412 0.141176
0.494118 0.129412 0.152941
0.549020 0.125490 0.164706
0.611765 0.125490 0.192157
0.666667 0.125490 0.200000
0.733333 0.129412 0.207843
0.796078 0.129412 0.203922
0.870588 0.121569 0.203922
0.937255 0.125490 0.203922
1.000000 0.121569 0.207843
1.000000 0.121569 0.192157
0.101961 0.227451 0.180392
0.172549 0.219608 0.176471
0.235294 0.207843 0.164706
0.294118 0.207843 0.145098
0.364706 0.200000 0.141176
0.423529 0.200000 0.141176
0.486275 0.196078 0.172549
0.541176 0.196078 0.176471
0.596078 0.192157 0.200000
0.666667 0.196078 0.203922
0.733333 0.192157 0.203922
0.796078 0.192157 0.200000
0.874510 0.188235 0.207843
0.937255 0.192157 0.192157
1.000000 0.192157 0.200000
1.000000 0.188235 0.188235
0.101961 0.286275 0.172549
0.160784 0.278431 0.168627
0.227451 0.270588 0.141176
0.294118 0.266667 0.145098
0.368627 0.266667 0.145098
0.423529 0.266667 0.141176
0.486275 0.258824 0.164706
0.541176 0.266667 0.180392
0.600000 0.262745 0.200000
0.658824 0.262745 0.200000
0.729412 0.262745 0.207843
0.800000 0.262745 0.192157
0.862745 0.258824 0.196078
0.937255 0.254902 0.188235
0.996078 0.254902 0.192157
1.000000 0.254902 0.192157
0.098039 0.345098 0.152941
0.156863 0.333333 0.145098
0.219608 0.337255 0.137255
0.290196 0.337255 0.145098
0.360784 0.333333 0.141176
0.423529 0.329412 0.152941
0.478431 0.333333 0.164706
0.541176 0.325490 0.188235
0.596078 0.333333 0.203922
0.662745 0.329412 0.192157
0.721569 0.329412 0.196078
0.796078 0.325490 0.188235
0.858824 0.321569 0.192157
0.929412 0.321569 0.188235
1.000000 0.321569 0.196078
1.000000 0.317647 0.188235
0.082353 0.403922 0.141176
0.160784 0.403922 0.145098
0.215686 0.403922 0.152941
0.282353 0.400000 0.156863
0.349020 0.403922 0.152941
0.423529 0.396078 0.152941
0.478431 0.396078 0.164706
0.541176 0.400000 0.188235
0.596078 0.396078 0.188235
0.654902 0.388235 0.192157
0.721569 0.392157 0.192157
0.792157 0.392157 0.188235
0.862745 0.392157 0.196078
0.925490 0.392157 0.188235
0.992157 0.388235 0.192157
1.000000 0.388235 0.192157
0.086275 0.474510 0.141176
0.145098 0.470588 0.156863
0.203922 0.466667 0.160784
0.266667 0.470588 0.172549
0.337255 0.466667 0.168627
0.403922 0.470588 0.172549
0.482353 0.466667 0.156863
0.533333 0.462745 0.164706
0.592157 0.462745 0.180392
0.654902 0.458824 0.196078
0.721569 0.454902 0.188235
0.788235 0.458824 0.196078
0.862745 0.454902 0.192157
0.929412 0.458824 0.192157
0.996078 0.454902 0.192157
1.000000 0.458824 0.180392
0.074510 0.537255 0.145098
0.129412 0.541176 0.172549
0.188235 0.537255 0.184314
0.258824 0.533333 0.184314
0.333333 0.537255 0.176471
0.388235 0.533333 0.168627
0.470588 0.529412 0.168627
0.529412 0.529412 0.172549
0.592157 0.525490 0.176471
0.650980 0.529412 0.196078
0.717647 0.529412 0.192157
0.788235 0.525490 0.192157
0.854902 0.529412 0.192157
0.929412 0.521569 0.196078
0.992157 0.525490 0.180392
1.000000 0.525490 0.180392
0.066667 0.603922 0.168627
0.121569 0.603922 0.184314
0.172549 0.611765 0.192157
0.239216 0.600000 0.184314
0.309804 0.600000 0.180392
0.380392 0.600000 0.192157
0.443137 0.600000 0.180392
0.521569 0.592157 0.184314
0.584314 0.596078 0.184314
0.650980 0.592157 0.192157
0.717647 0.600000 0.192157
0.792157 0.592157 0.196078
0.850980 0.592157 0.180392
0.925490 0.592157 0.188235
0.992157 0.592157 0.184314
1.000000 0.584314 0.180392
0.047059 0.674510 0.172549
0.109804 0.670588 0.188235
0.168627 0.670588 0.188235
0.239216 0.670588 0.196078
0.301961 0.670588 0.188235
0.376471 0.662745 0.192157
0.443137 0.666667 0.192157
0.509804 0.662745 0.192157
0.580392 0.662745 0.188235
0.647059 0.666667 0.196078
0.713725 0.662745 0.180392
0.784314 0.658824 0.184314
0.854902 0.662745 0.184314
0.913725 0.654902 0.180392
0.988235 0.658824 0.180392
1.000000 0.654902 0.184314
0.031373 0.737255 0.188235
0.090196 0.737255 0.192157
0.168627 0.737255 0.188235
0.231373 0.737255 0.192157
0.301961 0.733333 0.188235
0.368627 0.737255 0.192157
0.443137 0.733333 0.188235
0.509804 0.733333 0.196078
0.576471 0.733333 0.180392
0.647059 0.729412 0.184314
0.717647 0.733333 0.184314
0.776471 0.725490 0.180392
0.850980 0.721569 0.176471
0.917647 0.725490 0.184314
0.984314 0.721569 0.176471
1.000000 0.725490 0.184314
0.031373 0.807843 0.196078
0.094118 0.807843 0.192157
0.164706 0.803922 0.196078
0.235294 0.803922 0.192157
0.305882 0.800000 0.188235
0.364706 0.800000 0.192157
0.447059 0.800000 0.180392
0.509804 0.800000 0.184314
0.572549 0.803922 0.184314
0.639216 0.796078 0.180392
0.705882 0.792157 0.176471
0.780392 0.792157 0.184314
0.843137 0.796078 0.176471
0.917647 0.788235 0.180392
0.984314 0.792157 0.180392
1.000000 0.788235 0.180392
0.031373 0.870588 0.196078
0.098039 0.874510 0.192157
0.160784 0.874510 0.196078
0.227451 0.870588 0.192157
0.301961 0.874510 0.188235
0.368627 0.870588 0.184314
0.431373 0.870588 0.180392
0.505882 0.862745 0.180392
0.568627 0.862745 0.176471
0.635294 0.858824 0.176471
0.701961 0.866667 0.176471
0.780392 0.858824 0.180392
0.847059 0.862745 0.180392
0.913725 0.858824 0.180392
0.980392 0.858824 0.168627
1.000000 0.862745 0.176471
0.023529 0.945098 0.196078
0.098039 0.937255 0.192157
0.160784 0.937255 0.184314
0.231373 0.941176 0.184314
0.294118 0.941176 0.188235
0.368627 0.933333 0.180392
0.431373 0.933333 0.184314
0.498039 0.929412 0.176471
0.572549 0.933333 0.176471
0.635294 0.929412 0.180392
0.701961 0.929412 0.172549
0.776471 0.929412 0.180392
0.843137 0.925490 0.168627
0.905882 0.925490 0.168627
0.980392 0.929412 0.168627
1.000000 0.925490 0.172549
0.023529 1.000000 0.184314
0.090196 1.000000 0.184314
0.164706 1.000000 0.188235
0.219608 1.000000 0.176471
0.294118 1.000000 0.184314
0.356863 1.000000 0.176471
0.435294 1.000000 0.184314
0.498039 1.000000 0.180392
0.564706 0.996078 0.180392
0.639216 1.000000 0.180392
0.705882 0.996078 0.168627
0.768627 0.996078 0.168627
0.847059 0.996078 0.168627
0.909804 0.996078 0.172549
0.972549 0.988235 0.160784
1.000000 0.992157 0.168627
0.023529 1.000000 0.188235
0.082353 1.000000 0.176471
0.156863 1.000000 0.184314
0.223529 1.000000 0.176471
0.294118 1.000000 0.180392
0.360784 1.000000 0.180392
0.435294 1.000000 0.180392
0.494118 1.000000 0.176471
0.560784 1.000000 0.176471
0.631373 1.000000 0.168627
0.701961 1.000000 0.176471
0.772549 1.000000 0.172549
0.831373 1.000000 0.168627
0.909804 1.000000 0.168627
0.972549 1.000000 0.164706
1.000000 1.000000 0.164706
0.101961 0.090196 0.239216
0.176471 0.082353 0.239216
0.243137 0.086275 0.239216
0.309804 0.082353 0.243137
0.372549 0.070588 0.227451
0.443137 0.066667 0.223529
0.505882 0.066667 0.219608
0.568627 0.058824 0.235294
0.623529 0.058824 0.247059
0.678431 0.054902 0.262745
0.733333 0.062745 0.270588
0.807843 0.054902 0.274510
0.870588 0.054902 0.266667
0.937255 0.058824 0.274510
1.000000 0.050980 0.270588
1.000000 0.050980 0.270588
0.101961 0.156863 0.243137
0.172549 0.141176 0.235294
0.235294 0.141176 0.227451
0.309804 0.141176 0.231373
0.368627 0.137255 0.219608
0.431373 0.125490 0.215686
0.498039 0.129412 0.227451
0.545098 0.129412 0.243137
0.607843 0.125490 0.250980
0.662745 0.125490 0.274510
0.733333 0.125490 0.266667
0.800000 0.129412 0.274510
0.874510 0.121569 0.270588
0.937255 0.121569 0.270588
1.000000 0.121569 0.270588
1.000000 0.117647 0.274510
0.101961 0.219608 0.243137
0.164706 0.215686 0.235294
0.235294 0.203922 0.219608
0.294118 0.196078 0.215686
0.364706 0.200000 0.215686
0.419608 0.200000 0.227451
0.482353 0.192157 0.231373
0.537255 0.196078 0.258824
0.596078 0.196078 0.266667
0.662745 0.192157 0.270588
0.737255 0.192157 0.270588
0.800000 0.192157 0.270588
0.866667 0.196078 0.270588
0.941176 0.188235 0.274510
1.000000 0.188235 0.266667
1.000000 0.184314 0.270588
0.105882 0.286275 0.247059
0.160784 0.274510 0.227451
0.223529 0.262745 0.223529
0.298039 0.266667 0.215686
0.356863 0.266667 0.207843
0.415686 0.266667 0.235294
0.466667 0.266667 0.243137
0.529412 0.258824 0.266667
0.592157 0.266667 0.270588
0.658824 0.262745 0.270588
0.729412 0.258824 0.266667
0.800000 0.258824 0.274510
0.862745 0.258824 0.266667
0.933333 0.247059 0.266667
1.000000 0.254902 0.258824
1.000000 0.250980 0.258824
0.082353 0.345098 0.231373
0.160784 0.333333 0.215686
0.219608 0.333333 0.219608
0.282353 0.333333 0.215686
0.356863 0.333333 0.223529
0.415686 0.329412 0.231373
0.466667 0.333333 0.243137
0.533333 0.329412 0.266667
0.592157 0.329412 0.266667
0.662745 0.329412 0.274510
0.725490 0.329412 0.266667
0.788235 0.321569 0.266667
0.862745 0.325490 0.258824
0.925490 0.325490 0.258824
1.000000 0.317647 0.254902
1.000000 0.321569 0.262745
0.082353 0.403922 0.223529
0.156863 0.400000 0.207843
0.215686 0.403922 0.223529
0.266667 0.403922 0.235294
0.337255 0.400000 0.239216
0.407843 0.400000 0.235294
0.470588 0.396078 0.250980
0.521569 0.400000 0.262745
0.596078 0.396078 0.274510
0.650980 0.392157 0.266667
0.725490 0.396078 0.258824
0.788235 0.392157 0.258824
0.862745 0.388235 0.254902
0.929412 0.392157 0.262745
0.996078 0.388235 0.254902
1.000000 0.384314 0.258824
0.082353 0.470588 0.207843
0.141176 0.474510 0.219608
0.203922 0.466667 0.239216
0.258824 0.470588 0.250980
0.329412 0.466667 0.254902
0.392157 0.466667 0.250980
0.470588 0.466667 0.254902
0.521569 0.462745 0.258824
0.584314 0.458824 0.266667
0.654902 0.462745 0.258824
0.725490 0.454902 0.262745
0.788235 0.458824 0.254902
0.858824 0.458824 0.254902
0.929412 0.454902 0.258824
