public/luts/moody.cube
# Studiio — look « moody », genere par scripts/lut/generer-luts.mjs
# Source : les coefficients de LOOKS_RENDUS, calcules par ffmpeg lui-meme.
# Aucune LUT tierce, aucun telechargement : provenance et licence du depot.
LUT_3D_SIZE 6
DOMAIN_MIN 0.0 0.0 0.0
DOMAIN_MAX 1.0 1.0 1.0
0.027451 0.000000 0.043137
0.078431 0.000000 0.043137
0.254902 0.000000 0.039216
0.411765 0.000000 0.007843
0.596078 0.000000 0.000000
0.768627 0.000000 0.000000
0.027451 0.086275 0.043137
0.121569 0.105882 0.043137
0.294118 0.125490 0.031373
0.450980 0.149020 0.000000
0.639216 0.164706 0.000000
0.807843 0.188235 0.003922
0.019608 0.286275 0.027451
0.152941 0.309804 0.023529
0.329412 0.333333 0.019608
0.494118 0.345098 0.011765
0.670588 0.368627 0.031373
0.850980 0.388235 0.047059
0.000000 0.486275 0.000000
0.172549 0.501961 0.007843
0.345098 0.525490 0.027451
0.533333 0.541176 0.047059
0.713725 0.572549 0.074510
0.901961 0.588235 0.094118
0.035294 0.682353 0.035294
0.207843 0.709804 0.047059
0.396078 0.725490 0.078431
0.572549 0.749020 0.090196
0.752941 0.760784 0.105882
0.929412 0.784314 0.129412
0.078431 0.886275 0.078431
0.258824 0.909804 0.090196
0.435294 0.921569 0.113725
0.607843 0.949020 0.129412
0.796078 0.964706 0.156863
0.972549 0.988235 0.168627
0.027451 0.000000 0.098039
0.086275 0.000000 0.101961
0.266667 0.000000 0.109804
0.427451 0.000000 0.105882
0.603922 0.000000 0.113725
0.780392 0.000000 0.145098
0.027451 0.094118 0.125490
0.129412 0.113725 0.141176
0.286275 0.141176 0.125490
0.466667 0.156863 0.145098
0.635294 0.176471 0.152941
0.823529 0.192157 0.180392
0.019608 0.294118 0.145098
0.145098 0.317647 0.145098
0.321569 0.333333 0.160784
0.505882 0.352941 0.180392
0.678431 0.380392 0.196078
0.866667 0.396078 0.223529
0.000000 0.490196 0.156863
0.172549 0.513725 0.176471
0.360784 0.533333 0.196078
0.537255 0.556863 0.219608
0.729412 0.576471 0.243137
0.898039 0.596078 0.262745
0.043137 0.694118 0.196078
0.223529 0.713725 0.227451
0.400000 0.729412 0.235294
0.576471 0.752941 0.254902
0.760784 0.772549 0.278431
0.937255 0.796078 0.298039
0.082353 0.894118 0.235294
0.262745 0.913725 0.262745
0.435294 0.937255 0.278431
0.623529 0.952941 0.305882
0.800000 0.976471 0.317647
0.988235 0.996078 0.341176
0.027451 0.000000 0.250980
0.098039 0.000000 0.258824
0.274510 0.000000 0.286275
0.435294 0.000000 0.266667
0.600000 0.000000 0.286275
0.788235 0.000000 0.301961
0.023529 0.101961 0.286275
0.121569 0.125490 0.274510
0.294118 0.141176 0.290196
0.470588 0.160784 0.301961
0.650980 0.180392 0.329412
0.831373 0.200000 0.341176
0.019608 0.298039 0.309804
0.149020 0.321569 0.309804
0.333333 0.341176 0.329412
0.505882 0.368627 0.341176
0.694118 0.384314 0.372549
0.870588 0.407843 0.384314
0.007843 0.501961 0.325490
0.188235 0.521569 0.345098
0.368627 0.541176 0.368627
0.545098 0.556863 0.384314
0.733333 0.580392 0.407843
0.905882 0.607843 0.423529
0.050980 0.701961 0.368627
0.227451 0.721569 0.384314
0.403922 0.745098 0.403922
0.588235 0.760784 0.427451
0.764706 0.784314 0.447059
0.952941 0.800000 0.466667
0.090196 0.901961 0.411765
0.270588 0.921569 0.427451
0.450980 0.941176 0.454902
0.631373 0.964706 0.466667
0.803922 0.984314 0.486275
0.992157 1.000000 0.505882
0.011765 0.000000 0.384314
0.086275 0.000000 0.407843
0.258824 0.000000 0.415686
0.439216 0.000000 0.431373
0.615686 0.000000 0.450980
0.796078 0.007843 0.470588
0.003922 0.109804 0.415686
0.117647 0.129412 0.435294
0.298039 0.149020 0.450980
0.478431 0.168627 0.478431
0.658824 0.192157 0.490196
0.835294 0.211765 0.521569
0.000000 0.305882 0.454902
0.160784 0.333333 0.478431
0.341176 0.352941 0.490196
0.521569 0.372549 0.521569
0.698039 0.388235 0.529412
0.878431 0.407843 0.556863
0.015686 0.509804 0.494118
0.192157 0.525490 0.509804
0.372549 0.545098 0.533333
0.556863 0.564706 0.552941
0.729412 0.592157 0.568627
0.921569 0.611765 0.600000
0.054902 0.709804 0.533333
0.235294 0.729412 0.552941
0.415686 0.749020 0.576471
0.600000 0.768627 0.596078
0.780392 0.788235 0.615686
0.956863 0.803922 0.631373
0.098039 0.913725 0.576471
0.278431 0.933333 0.596078
0.458824 0.952941 0.615686
0.631373 0.972549 0.631373
0.819608 0.988235 0.654902
0.992157 1.000000 0.674510
0.000000 0.000000 0.549020
0.082353 0.000000 0.556863
0.262745 0.000000 0.576471
0.443137 0.000000 0.600000
0.623529 0.000000 0.619608
0.800000 0.019608 0.639216
0.000000 0.117647 0.584314
0.125490 0.141176 0.600000
0.305882 0.156863 0.627451
0.486275 0.180392 0.639216
0.662745 0.196078 0.658824
0.843137 0.215686 0.678431
0.000000 0.317647 0.623529
0.156863 0.333333 0.631373
0.345098 0.356863 0.666667
0.525490 0.380392 0.678431
0.705882 0.396078 0.705882
0.886275 0.419608 0.721569
0.019608 0.513725 0.658824
0.200000 0.533333 0.682353
0.384314 0.556863 0.701961
0.564706 0.576471 0.713725
0.745098 0.596078 0.745098
0.929412 0.623529 0.760784
0.062745 0.717647 0.701961
0.243137 0.737255 0.725490
0.427451 0.756863 0.745098
0.603922 0.772549 0.760784
0.784314 0.796078 0.780392
0.956863 0.819608 0.796078
0.105882 0.921569 0.745098
0.282353 0.937255 0.760784
0.462745 0.956863 0.780392
0.647059 0.976471 0.803922
0.827451 0.996078 0.823529
1.000000 1.000000 0.847059
0.000000 0.000000 0.705882
0.090196 0.000000 0.725490
0.270588 0.000000 0.749020
0.450980 0.000000 0.768627
0.635294 0.007843 0.788235
0.811765 0.023529 0.803922
0.000000 0.129412 0.749020
0.133333 0.145098 0.776471
0.313725 0.168627 0.788235
0.490196 0.184314 0.803922
0.670588 0.203922 0.827451
0.854902 0.223529 0.847059
0.000000 0.321569 0.780392
0.168627 0.341176 0.807843
0.352941 0.368627 0.827451
0.533333 0.388235 0.854902
0.713725 0.407843 0.870588
0.898039 0.427451 0.890196
0.035294 0.521569 0.831373
0.211765 0.545098 0.850980
0.392157 0.564706 0.862745
0.568627 0.580392 0.890196
0.749020 0.603922 0.901961
0.933333 0.627451 0.937255
0.070588 0.725490 0.870588
0.247059 0.741176 0.890196
0.431373 0.764706 0.909804
0.611765 0.784314 0.929412
0.792157 0.803922 0.945098
0.972549 0.823529 0.972549
0.109804 0.925490 0.909804
0.290196 0.945098 0.929412
0.474510 0.964706 0.952941
0.654902 0.988235 0.972549
0.835294 1.000000 0.992157
1.000000 1.000000 1.000000
