public/luts/moody.cube
# Studiio — look « moody », genere par scripts/lut/generer-luts.mjs
# Source : les coefficients de LOOKS_RENDUS, calcules par ffmpeg lui-meme.
# Aucune LUT tierce, aucun telechargement : provenance et licence du depot.
LUT_3D_SIZE 16
DOMAIN_MIN 0.0 0.0 0.0
DOMAIN_MAX 1.0 1.0 1.0
0.027451 0.000000 0.043137
0.027451 0.000000 0.043137
0.027451 0.000000 0.043137
0.078431 0.000000 0.043137
0.141176 0.000000 0.043137
0.200000 0.000000 0.043137
0.254902 0.000000 0.039216
0.309804 0.000000 0.027451
0.368627 0.000000 0.015686
0.411765 0.000000 0.007843
0.478431 0.000000 0.000000
0.529412 0.000000 0.000000
0.596078 0.000000 0.000000
0.654902 0.000000 0.000000
0.717647 0.000000 0.000000
0.768627 0.000000 0.000000
0.027451 0.000000 0.043137
0.027451 0.000000 0.043137
0.031373 0.000000 0.043137
0.098039 0.000000 0.043137
0.152941 0.000000 0.043137
0.215686 0.000000 0.043137
0.274510 0.000000 0.035294
0.321569 0.000000 0.027451
0.372549 0.007843 0.015686
0.431373 0.011765 0.003922
0.482353 0.019608 0.000000
0.552941 0.031373 0.000000
0.603922 0.035294 0.000000
0.670588 0.039216 0.000000
0.729412 0.050980 0.000000
0.792157 0.050980 0.000000
0.027451 0.019608 0.043137
0.027451 0.027451 0.043137
0.039216 0.035294 0.043137
0.105882 0.039216 0.043137
0.164706 0.050980 0.043137
0.227451 0.050980 0.043137
0.278431 0.058824 0.035294
0.337255 0.066667 0.023529
0.384314 0.074510 0.011765
0.443137 0.078431 0.003922
0.498039 0.086275 0.000000
0.564706 0.094118 0.000000
0.623529 0.105882 0.000000
0.682353 0.105882 0.000000
0.737255 0.113725 0.000000
0.800000 0.121569 0.000000
0.027451 0.086275 0.043137
0.027451 0.090196 0.043137
0.058824 0.094118 0.043137
0.121569 0.105882 0.043137
0.184314 0.113725 0.043137
0.243137 0.117647 0.039216
0.294118 0.125490 0.031373
0.349020 0.133333 0.019608
0.403922 0.137255 0.011765
0.450980 0.149020 0.000000
0.513725 0.149020 0.000000
0.572549 0.164706 0.000000
0.639216 0.164706 0.000000
0.686275 0.172549 0.000000
0.760784 0.180392 0.007843
0.807843 0.188235 0.003922
0.027451 0.149020 0.043137
0.027451 0.160784 0.043137
0.074510 0.164706 0.043137
0.125490 0.172549 0.043137
0.196078 0.180392 0.043137
0.250980 0.188235 0.039216
0.305882 0.188235 0.027451
0.356863 0.203922 0.019608
0.411765 0.203922 0.007843
0.466667 0.215686 0.000000
0.533333 0.219608 0.000000
0.580392 0.227451 0.000000
0.650980 0.235294 0.007843
0.701961 0.239216 0.003922
0.768627 0.243137 0.019608
0.827451 0.258824 0.023529
0.027451 0.219608 0.039216
0.027451 0.223529 0.039216
0.086275 0.235294 0.039216
0.145098 0.239216 0.035294
0.203922 0.243137 0.035294
0.266667 0.254902 0.035294
0.317647 0.254902 0.027451
0.372549 0.262745 0.015686
0.423529 0.278431 0.007843
0.482353 0.278431 0.000000
0.541176 0.290196 0.007843
0.603922 0.290196 0.011765
0.654902 0.301961 0.019608
0.725490 0.309804 0.023529
0.776471 0.313725 0.031373
0.843137 0.317647 0.031373
0.019608 0.286275 0.027451
0.035294 0.294118 0.027451
0.082353 0.301961 0.027451
0.152941 0.309804 0.023529
0.203922 0.313725 0.023529
0.270588 0.317647 0.023529
0.329412 0.333333 0.019608
0.384314 0.329412 0.011765
0.431373 0.341176 0.007843
0.494118 0.345098 0.011765
0.549020 0.352941 0.019608
0.615686 0.356863 0.023529
0.670588 0.368627 0.031373
0.737255 0.372549 0.039216
0.796078 0.384314 0.050980
0.850980 0.388235 0.047059
0.011765 0.352941 0.019608
0.039216 0.356863 0.015686
0.098039 0.364706 0.015686
0.156863 0.372549 0.015686
0.215686 0.376471 0.011765
0.274510 0.384314 0.011765
0.337255 0.392157 0.015686
0.388235 0.400000 0.019608
0.450980 0.403922 0.019608
0.501961 0.415686 0.023529
0.568627 0.419608 0.031373
0.623529 0.427451 0.039216
0.686275 0.427451 0.043137
0.745098 0.443137 0.054902
0.811765 0.447059 0.058824
0.862745 0.450980 0.062745
0.003922 0.419608 0.007843
0.039216 0.427451 0.003922
0.105882 0.431373 0.003922
0.156863 0.443137 0.003922
0.223529 0.447059 0.003922
0.270588 0.450980 0.007843
0.345098 0.458824 0.019608
0.396078 0.470588 0.023529
0.458824 0.466667 0.027451
0.517647 0.482353 0.039216
0.580392 0.482353 0.043137
0.639216 0.498039 0.054902
0.705882 0.501961 0.058824
0.756863 0.505882 0.062745
0.819608 0.517647 0.074510
0.874510 0.517647 0.078431
0.000000 0.486275 0.000000
0.054902 0.494118 0.000000
0.117647 0.501961 0.003922
0.172549 0.501961 0.007843
0.235294 0.513725 0.019608
0.298039 0.521569 0.023529
0.345098 0.525490 0.027451
0.419608 0.533333 0.039216
0.466667 0.541176 0.043137
0.533333 0.541176 0.047059
0.592157 0.556863 0.058824
0.654902 0.556863 0.062745
0.713725 0.572549 0.074510
0.776471 0.568627 0.078431
0.831373 0.580392 0.082353
0.901961 0.588235 0.094118
0.003922 0.556863 0.011765
0.066667 0.556863 0.007843
0.117647 0.564706 0.023529
0.192157 0.576471 0.023529
0.239216 0.580392 0.027451
0.309804 0.588235 0.039216
0.360784 0.592157 0.043137
0.427451 0.596078 0.047059
0.486275 0.611765 0.058824
0.549020 0.611765 0.062745
0.603922 0.619608 0.070588
0.670588 0.623529 0.078431
0.721569 0.635294 0.082353
0.788235 0.639216 0.090196
0.843137 0.647059 0.098039
0.905882 0.654902 0.105882
0.019608 0.615686 0.023529
0.086275 0.627451 0.023529
0.141176 0.631373 0.035294
0.200000 0.639216 0.035294
0.262745 0.643137 0.050980
0.321569 0.650980 0.047059
0.380392 0.658824 0.054902
0.435294 0.666667 0.062745
0.501961 0.670588 0.070588
0.556863 0.682353 0.078431
0.623529 0.686275 0.082353
0.678431 0.694118 0.090196
0.745098 0.698039 0.098039
0.800000 0.709804 0.105882
0.858824 0.705882 0.105882
0.917647 0.721569 0.117647
0.035294 0.682353 0.035294
0.086275 0.694118 0.035294
0.152941 0.698039 0.050980
0.207843 0.709804 0.047059
0.274510 0.709804 0.062745
0.329412 0.721569 0.062745
0.396078 0.725490 0.078431
0.447059 0.729412 0.070588
0.517647 0.741176 0.082353
0.572549 0.749020 0.090196
0.639216 0.752941 0.098039
0.690196 0.764706 0.105882
0.752941 0.760784 0.105882
0.811765 0.776471 0.117647
0.874510 0.784314 0.125490
0.929412 0.784314 0.129412
0.043137 0.745098 0.047059
0.109804 0.760784 0.047059
0.168627 0.764706 0.062745
0.227451 0.772549 0.062745
0.290196 0.780392 0.078431
0.345098 0.780392 0.070588
0.403922 0.796078 0.090196
0.470588 0.800000 0.090196
0.521569 0.803922 0.101961
0.592157 0.815686 0.105882
0.639216 0.819608 0.113725
0.705882 0.823529 0.113725
0.764706 0.839216 0.125490
0.827451 0.835294 0.129412
0.886275 0.850980 0.141176
0.949020 0.850980 0.141176
0.054902 0.823529 0.062745
0.117647 0.823529 0.058824
0.176471 0.835294 0.078431
0.239216 0.835294 0.070588
0.294118 0.843137 0.086275
0.364706 0.854902 0.090196
0.415686 0.858824 0.101961
0.486275 0.866667 0.105882
0.533333 0.870588 0.113725
0.600000 0.878431 0.113725
0.658824 0.890196 0.133333
0.721569 0.890196 0.129412
0.776471 0.898039 0.145098
0.835294 0.905882 0.141176
0.898039 0.913725 0.149020
0.956863 0.921569 0.156863
0.078431 0.886275 0.078431
0.133333 0.890196 0.070588
0.192157 0.894118 0.086275
0.258824 0.909804 0.090196
0.313725 0.909804 0.101961
0.368627 0.921569 0.101961
0.435294 0.921569 0.113725
0.490196 0.933333 0.113725
0.556863 0.937255 0.129412
0.607843 0.949020 0.129412
0.674510 0.949020 0.145098
0.729412 0.960784 0.141176
0.796078 0.964706 0.156863
0.850980 0.976471 0.156863
0.917647 0.976471 0.172549
0.972549 0.988235 0.168627
0.027451 0.000000 0.043137
0.027451 0.000000 0.043137
0.027451 0.000000 0.043137
0.086275 0.000000 0.043137
0.141176 0.000000 0.043137
0.203922 0.000000 0.043137
0.262745 0.000000 0.035294
0.313725 0.000000 0.027451
0.372549 0.000000 0.015686
0.419608 0.000000 0.007843
0.470588 0.000000 0.000000
0.541176 0.000000 0.007843
0.592157 0.000000 0.000000
0.658824 0.000000 0.015686
0.717647 0.000000 0.019608
0.780392 0.000000 0.031373
0.027451 0.000000 0.043137
0.027451 0.000000 0.043137
0.031373 0.000000 0.043137
0.098039 0.000000 0.043137
0.156863 0.000000 0.043137
0.215686 0.000000 0.043137
0.266667 0.000000 0.035294
0.325490 0.000000 0.023529
0.376471 0.011765 0.015686
0.435294 0.019608 0.011765
0.486275 0.023529 0.000000
0.552941 0.027451 0.015686
0.611765 0.043137 0.019608
0.674510 0.039216 0.031373
0.725490 0.050980 0.031373
0.792157 0.054902 0.043137
0.027451 0.019608 0.043137
0.027451 0.027451 0.043137
0.054902 0.039216 0.043137
0.109804 0.039216 0.043137
0.172549 0.047059 0.043137
0.231373 0.054902 0.043137
0.286275 0.062745 0.031373
0.341176 0.066667 0.027451
0.392157 0.074510 0.011765
0.439216 0.082353 0.015686
0.501961 0.086275 0.011765
0.560784 0.098039 0.031373
0.627451 0.101961 0.031373
0.682353 0.109804 0.043137
0.749020 0.117647 0.043137
0.796078 0.121569 0.054902
0.027451 0.086275 0.043137
0.027451 0.098039 0.043137
0.062745 0.101961 0.043137
0.113725 0.105882 0.043137
0.184314 0.113725 0.043137
0.239216 0.125490 0.043137
0.298039 0.129412 0.035294
0.345098 0.137255 0.035294
0.400000 0.137255 0.019608
0.454902 0.152941 0.031373
0.521569 0.156863 0.031373
0.568627 0.160784 0.039216
0.639216 0.172549 0.043137
0.690196 0.172549 0.054902
0.756863 0.180392 0.054902
0.815686 0.192157 0.074510
0.027451 0.156863 0.043137
0.027451 0.156863 0.043137
0.078431 0.168627 0.043137
0.141176 0.176471 0.047059
0.196078 0.176471 0.047059
0.254902 0.188235 0.050980
0.305882 0.192157 0.043137
0.360784 0.203922 0.043137
0.415686 0.207843 0.039216
0.470588 0.211765 0.039216
0.529412 0.227451 0.043137
0.592157 0.227451 0.054902
0.643137 0.235294 0.054902
0.717647 0.243137 0.074510
0.764706 0.250980 0.066667
0.831373 0.250980 0.082353
0.027451 0.223529 0.039216
0.027451 0.231373 0.043137
0.078431 0.235294 0.039216
0.149020 0.243137 0.050980
0.196078 0.247059 0.050980
0.262745 0.250980 0.058824
0.313725 0.266667 0.058824
0.372549 0.266667 0.047059
0.415686 0.274510 0.047059
0.482353 0.278431 0.054902
0.537255 0.290196 0.062745
0.607843 0.298039 0.074510
0.658824 0.305882 0.066667
0.725490 0.305882 0.082353
0.784314 0.321569 0.086275
0.847059 0.321569 0.098039
0.019608 0.286275 0.031373
0.031373 0.294118 0.039216
0.090196 0.301961 0.043137
0.152941 0.305882 0.047059
0.211765 0.317647 0.054902
0.270588 0.321569 0.054902
0.325490 0.325490 0.062745
0.380392 0.333333 0.058824
0.439216 0.341176 0.062745
0.494118 0.349020 0.066667
0.560784 0.352941 0.074510
0.611765 0.364706 0.082353
0.674510 0.364706 0.086275
0.733333 0.376471 0.098039
0.800000 0.384314 0.094118
0.854902 0.392157 0.109804
0.011765 0.352941 0.039216
0.031373 0.364706 0.039216
0.098039 0.368627 0.039216
0.149020 0.376471 0.047059
0.215686 0.380392 0.050980
0.262745 0.388235 0.054902
0.333333 0.396078 0.062745
0.384314 0.403922 0.066667
0.450980 0.407843 0.074510
0.505882 0.419608 0.082353
0.568627 0.415686 0.086275
0.627451 0.431373 0.098039
0.694118 0.435294 0.101961
0.745098 0.439216 0.105882
0.815686 0.450980 0.117647
0.870588 0.458824 0.125490
0.003922 0.423529 0.035294
0.043137 0.427451 0.039216
0.105882 0.435294 0.047059
0.160784 0.439216 0.050980
0.223529 0.450980 0.062745
0.286275 0.454902 0.066667
0.341176 0.458824 0.070588
0.407843 0.470588 0.082353
0.454902 0.474510 0.086275
0.525490 0.482353 0.098039
0.580392 0.494118 0.101961
0.643137 0.490196 0.105882
0.701961 0.505882 0.117647
0.768627 0.509804 0.125490
0.819608 0.513725 0.125490
0.890196 0.525490 0.137255
0.000000 0.494118 0.047059
0.054902 0.490196 0.050980
0.113725 0.505882 0.062745
0.180392 0.509804 0.066667
0.227451 0.513725 0.070588
0.301961 0.525490 0.082353
0.349020 0.529412 0.086275
0.415686 0.533333 0.090196
0.474510 0.549020 0.101961
0.537255 0.545098 0.105882
0.592157 0.556863 0.113725
0.662745 0.564706 0.125490
0.713725 0.568627 0.125490
0.784314 0.576471 0.137255
0.831373 0.584314 0.141176
0.894118 0.588235 0.149020
0.007843 0.552941 0.054902
0.074510 0.560784 0.074510
0.129412 0.564706 0.070588
0.188235 0.572549 0.078431
0.250980 0.580392 0.086275
0.309804 0.588235 0.090196
0.376471 0.600000 0.101961
0.423529 0.603922 0.105882
0.490196 0.607843 0.113725
0.549020 0.623529 0.125490
0.611765 0.619608 0.125490
0.666667 0.631373 0.133333
0.733333 0.635294 0.141176
0.788235 0.643137 0.149020
0.847059 0.643137 0.149020
0.905882 0.658824 0.160784
0.023529 0.619608 0.070588
0.074510 0.627451 0.086275
0.141176 0.635294 0.086275
0.196078 0.643137 0.098039
0.262745 0.647059 0.098039
0.317647 0.658824 0.105882
0.384314 0.662745 0.113725
0.435294 0.666667 0.113725
0.505882 0.674510 0.125490
0.560784 0.686275 0.133333
0.627451 0.690196 0.141176
0.678431 0.698039 0.149020
0.741176 0.698039 0.149020
0.800000 0.713725 0.160784
0.866667 0.713725 0.168627
0.917647 0.721569 0.172549
0.035294 0.690196 0.086275
0.098039 0.694118 0.098039
0.156863 0.701961 0.098039
0.219608 0.705882 0.113725
0.278431 0.713725 0.113725
0.333333 0.717647 0.121569
0.400000 0.729412 0.125490
0.458824 0.737255 0.133333
0.509804 0.741176 0.137255
0.580392 0.749020 0.149020
0.631373 0.752941 0.149020
0.701961 0.764706 0.160784
0.756863 0.772549 0.168627
0.815686 0.772549 0.172549
0.874510 0.788235 0.184314
0.941176 0.788235 0.188235
0.043137 0.760784 0.098039
0.105882 0.756863 0.109804
0.164706 0.772549 0.113725
0.227451 0.768627 0.121569
0.286275 0.788235 0.125490
0.352941 0.788235 0.141176
0.403922 0.796078 0.137255
0.474510 0.803922 0.156863
0.521569 0.807843 0.149020
0.588235 0.811765 0.156863
0.647059 0.827451 0.168627
0.709804 0.827451 0.172549
0.764706 0.835294 0.176471
0.835294 0.843137 0.188235
0.886275 0.850980 0.192157
0.949020 0.862745 0.203922
0.066667 0.823529 0.113725
0.121569 0.823529 0.121569
0.180392 0.831373 0.121569
0.247059 0.843137 0.141176
0.301961 0.847059 0.137255
0.360784 0.850980 0.149020
0.423529 0.858824 0.149020
0.478431 0.866667 0.164706
0.549020 0.878431 0.168627
0.596078 0.882353 0.180392
0.662745 0.886275 0.176471
0.721569 0.901961 0.196078
0.784314 0.901961 0.192157
0.839216 0.909804 0.200000
0.905882 0.913725 0.207843
0.960784 0.925490 0.211765
0.074510 0.886275 0.121569
0.133333 0.901961 0.141176
0.196078 0.901961 0.137255
0.250980 0.909804 0.149020
0.317647 0.913725 0.149020
0.372549 0.921569 0.164706
0.439216 0.929412 0.164706
0.490196 0.937255 0.180392
0.556863 0.941176 0.176471
0.615686 0.952941 0.196078
0.678431 0.952941 0.192157
0.733333 0.964706 0.207843
0.800000 0.968627 0.207843
0.854902 0.976471 0.219608
0.909804 0.980392 0.215686
0.976471 0.992157 0.227451
0.027451 0.000000 0.058824
0.027451 0.000000 0.043137
0.027451 0.000000 0.043137
0.086275 0.000000 0.043137
0.145098 0.000000 0.058824
0.203922 0.000000 0.050980
0.258824 0.000000 0.066667
0.317647 0.000000 0.050980
0.364706 0.000000 0.058824
0.427451 0.000000 0.047059
0.474510 0.000000 0.050980
0.541176 0.000000 0.050980
0.600000 0.000000 0.070588
0.662745 0.000000 0.066667
0.713725 0.000000 0.078431
0.780392 0.000000 0.078431
0.027451 0.000000 0.043137
0.027451 0.000000 0.043137
0.043137 0.000000 0.058824
0.098039 0.000000 0.050980
0.160784 0.000000 0.066667
0.219608 0.000000 0.066667
0.274510 0.000000 0.074510
0.329412 0.003922 0.058824
0.380392 0.007843 0.062745
0.435294 0.019608 0.050980
0.498039 0.027451 0.070588
0.549020 0.035294 0.066667
0.615686 0.035294 0.078431
0.670588 0.047059 0.078431
0.737255 0.050980 0.094118
0.788235 0.062745 0.094118
0.027451 0.023529 0.054902
0.027451 0.031373 0.058824
0.054902 0.035294 0.066667
0.105882 0.047059 0.066667
0.172549 0.050980 0.082353
0.223529 0.062745 0.074510
0.282353 0.062745 0.074510
0.329412 0.074510 0.066667
0.384314 0.074510 0.062745
0.443137 0.090196 0.066667
0.509804 0.090196 0.078431
0.556863 0.098039 0.074510
0.631373 0.105882 0.094118
0.682353 0.117647 0.094118
0.749020 0.117647 0.109804
0.803922 0.129412 0.105882
0.027451 0.090196 0.066667
0.027451 0.094118 0.070588
0.066667 0.105882 0.082353
0.129412 0.109804 0.086275
0.188235 0.117647 0.094118
0.239216 0.125490 0.082353
0.290196 0.125490 0.082353
0.345098 0.141176 0.074510
0.403922 0.145098 0.078431
0.458824 0.149020 0.074510
0.517647 0.160784 0.094118
0.584314 0.168627 0.094118
0.631373 0.172549 0.101961
0.705882 0.180392 0.105882
0.752941 0.184314 0.117647
0.823529 0.192157 0.121569
0.027451 0.156863 0.082353
0.027451 0.164706 0.086275
0.070588 0.172549 0.086275
0.137255 0.180392 0.094118
0.188235 0.184314 0.098039
0.250980 0.188235 0.094118
0.301961 0.203922 0.094118
0.356863 0.200000 0.086275
0.411765 0.215686 0.094118
0.478431 0.219608 0.094118
0.525490 0.223529 0.101961
0.596078 0.235294 0.105882
0.647059 0.239216 0.117647
0.713725 0.243137 0.117647
0.772549 0.254902 0.137255
0.835294 0.258824 0.129412
0.027451 0.223529 0.086275
0.031373 0.231373 0.094118
0.082353 0.235294 0.090196
0.141176 0.243137 0.090196
0.203922 0.254902 0.098039
0.258824 0.254902 0.101961
0.313725 0.262745 0.101961
0.372549 0.274510 0.101961
0.427451 0.274510 0.101961
0.486275 0.282353 0.109804
0.549020 0.290196 0.117647
0.600000 0.301961 0.117647
0.674510 0.305882 0.137255
0.721569 0.313725 0.129412
0.788235 0.317647 0.145098
0.843137 0.329412 0.145098
0.019608 0.290196 0.090196
0.035294 0.298039 0.090196
0.086275 0.301961 0.086275
0.141176 0.313725 0.094118
0.203922 0.317647 0.098039
0.262745 0.329412 0.105882
0.325490 0.329412 0.105882
0.372549 0.341176 0.109804
0.439216 0.345098 0.117647
0.494118 0.352941 0.125490
0.556863 0.352941 0.125490
0.615686 0.368627 0.137255
0.682353 0.372549 0.145098
0.737255 0.384314 0.145098
0.803922 0.384314 0.160784
0.858824 0.396078 0.156863
0.011765 0.356863 0.090196
0.039216 0.364706 0.094118
0.094118 0.372549 0.090196
0.149020 0.372549 0.090196
0.215686 0.384314 0.101961
0.274510 0.392157 0.109804
0.333333 0.396078 0.117647
0.396078 0.403922 0.125490
0.450980 0.407843 0.125490
0.517647 0.419608 0.137255
0.568627 0.427451 0.145098
0.631373 0.427451 0.149020
0.690196 0.443137 0.160784
0.756863 0.447059 0.168627
0.807843 0.450980 0.168627
0.878431 0.458824 0.172549
0.003922 0.423529 0.094118
0.043137 0.427451 0.090196
0.101961 0.443137 0.101961
0.168627 0.447059 0.109804
0.215686 0.450980 0.113725
0.290196 0.458824 0.125490
0.337255 0.462745 0.125490
0.403922 0.466667 0.133333
0.462745 0.482353 0.145098
0.525490 0.482353 0.149020
0.584314 0.494118 0.160784
0.650980 0.498039 0.168627
0.701961 0.505882 0.168627
0.772549 0.513725 0.180392
0.819608 0.517647 0.184314
0.886275 0.521569 0.188235
0.000000 0.490196 0.098039
0.062745 0.498039 0.109804
0.117647 0.501961 0.113725
0.180392 0.513725 0.125490
0.239216 0.513725 0.125490
0.298039 0.521569 0.133333
0.364706 0.533333 0.145098
0.419608 0.537255 0.149020
0.478431 0.541176 0.156863
0.537255 0.556863 0.168627
0.600000 0.556863 0.168627
0.654902 0.564706 0.176471
0.721569 0.568627 0.184314
0.776471 0.580392 0.188235
0.847059 0.588235 0.200000
0.894118 0.592157 0.203922
0.011765 0.552941 0.121569
0.066667 0.564706 0.121569
0.133333 0.568627 0.125490
0.184314 0.580392 0.133333
0.250980 0.584314 0.141176
0.305882 0.592157 0.149020
0.372549 0.596078 0.156863
0.431373 0.611765 0.168627
0.494118 0.611765 0.168627
0.549020 0.619608 0.176471
0.615686 0.623529 0.184314
0.670588 0.635294 0.188235
0.729412 0.631373 0.192157
0.788235 0.647059 0.203922
0.854902 0.650980 0.211765
0.909804 0.662745 0.219608
0.023529 0.623529 0.133333
0.086275 0.631373 0.133333
0.145098 0.635294 0.149020
0.207843 0.643137 0.149020
0.266667 0.650980 0.156863
0.321569 0.654902 0.156863
0.388235 0.662745 0.168627
0.447059 0.670588 0.176471
0.501961 0.682353 0.184314
0.568627 0.686275 0.188235
0.619608 0.690196 0.192157
0.690196 0.698039 0.203922
0.745098 0.709804 0.211765
0.803922 0.705882 0.211765
0.862745 0.721569 0.223529
0.929412 0.725490 0.231373
0.039216 0.690196 0.149020
0.098039 0.698039 0.149020
0.152941 0.705882 0.164706
0.215686 0.705882 0.156863
0.274510 0.721569 0.176471
0.341176 0.725490 0.176471
0.392157 0.729412 0.180392
0.462745 0.737255 0.188235
0.509804 0.745098 0.192157
0.576471 0.749020 0.200000
0.635294 0.760784 0.211765
0.698039 0.760784 0.211765
0.756863 0.776471 0.223529
0.823529 0.780392 0.231373
0.874510 0.784314 0.235294
0.937255 0.796078 0.247059
0.054902 0.756863 0.164706
0.109804 0.760784 0.156863
0.168627 0.768627 0.172549
0.235294 0.780392 0.176471
0.290196 0.780392 0.188235
0.356863 0.792157 0.188235
0.411765 0.792157 0.200000
0.470588 0.803922 0.200000
0.537255 0.811765 0.211765
0.588235 0.819608 0.211765
0.654902 0.823529 0.219608
0.713725 0.835294 0.231373
0.772549 0.835294 0.235294
0.827451 0.847059 0.243137
0.894118 0.850980 0.247059
0.949020 0.858824 0.254902
0.062745 0.819608 0.172549
0.121569 0.835294 0.176471
0.184314 0.835294 0.188235
0.239216 0.847059 0.184314
0.305882 0.847059 0.200000
0.360784 0.858824 0.200000
0.431373 0.866667 0.219608
0.478431 0.874510 0.211765
0.545098 0.874510 0.227451
0.603922 0.890196 0.231373
0.666667 0.890196 0.235294
0.721569 0.901961 0.243137
0.788235 0.901961 0.247059
0.843137 0.913725 0.254902
0.905882 0.913725 0.258824
0.964706 0.925490 0.270588
0.078431 0.890196 0.188235
0.137255 0.898039 0.184314
0.200000 0.901961 0.200000
0.258824 0.909804 0.200000
0.317647 0.917647 0.215686
0.380392 0.925490 0.211765
0.439216 0.929412 0.227451
0.498039 0.933333 0.223529
0.552941 0.945098 0.243137
0.619608 0.952941 0.243137
0.674510 0.960784 0.254902
0.741176 0.964706 0.254902
0.792157 0.968627 0.266667
0.862745 0.976471 0.270588
0.917647 0.988235 0.278431
0.980392 0.988235 0.278431
0.027451 0.000000 0.098039
0.027451 0.000000 0.090196
0.031373 0.000000 0.094118
0.086275 0.000000 0.101961
0.149020 0.000000 0.101961
0.211765 0.000000 0.121569
0.266667 0.000000 0.109804
0.321569 0.000000 0.121569
0.372549 0.000000 0.101961
0.427451 0.000000 0.105882
0.486275 0.000000 0.105882
0.545098 0.000000 0.117647
0.603922 0.000000 0.113725
0.658824 0.000000 0.129412
0.725490 0.000000 0.129412
0.780392 0.000000 0.145098
0.027451 0.000000 0.094118
0.027451 0.000000 0.101961
0.043137 0.000000 0.101961
0.105882 0.000000 0.121569
0.160784 0.000000 0.117647
0.215686 0.000000 0.129412
0.278431 0.000000 0.121569
0.325490 0.007843 0.125490
0.380392 0.007843 0.109804
0.431373 0.023529 0.117647
0.498039 0.027451 0.113725
0.552941 0.035294 0.129412
0.619608 0.043137 0.129412
0.670588 0.050980 0.145098
0.737255 0.054902 0.141176
0.792157 0.062745 0.156863
0.027451 0.027451 0.109804
0.027451 0.039216 0.121569
0.054902 0.043137 0.117647
0.117647 0.047059 0.129412
0.176471 0.054902 0.129412
0.227451 0.058824 0.133333
0.282353 0.062745 0.121569
0.337255 0.074510 0.125490
0.392157 0.082353 0.113725
0.447059 0.082353 0.125490
0.509804 0.094118 0.129412
0.572549 0.101961 0.145098
0.627451 0.113725 0.141176
0.694118 0.113725 0.156863
0.741176 0.121569 0.152941
0.811765 0.129412 0.172549
0.027451 0.094118 0.125490
0.027451 0.101961 0.129412
0.066667 0.101961 0.133333
0.129412 0.113725 0.141176
0.176471 0.121569 0.133333
0.235294 0.129412 0.137255
0.286275 0.141176 0.125490
0.341176 0.137255 0.125490
0.400000 0.152941 0.129412
0.466667 0.156863 0.145098
0.513725 0.160784 0.137255
0.588235 0.168627 0.156863
0.635294 0.176471 0.152941
0.701961 0.176471 0.168627
0.760784 0.192157 0.172549
0.823529 0.192157 0.180392
0.027451 0.156863 0.133333
0.027451 0.168627 0.145098
0.078431 0.172549 0.145098
0.133333 0.176471 0.137255
0.192157 0.188235 0.145098
0.247059 0.192157 0.141176
0.298039 0.200000 0.133333
0.360784 0.207843 0.145098
0.415686 0.211765 0.137255
0.478431 0.223529 0.156863
0.537255 0.227451 0.152941
0.588235 0.235294 0.168627
0.662745 0.243137 0.172549
0.709804 0.247059 0.180392
0.776471 0.254902 0.180392
0.831373 0.262745 0.196078
0.027451 0.223529 0.145098
0.031373 0.231373 0.145098
0.086275 0.243137 0.145098
0.133333 0.247059 0.141176
0.196078 0.250980 0.145098
0.250980 0.266667 0.152941
0.309804 0.266667 0.145098
0.364706 0.274510 0.152941
0.431373 0.278431 0.160784
0.482353 0.290196 0.168627
0.552941 0.298039 0.172549
0.603922 0.301961 0.180392
0.670588 0.305882 0.180392
0.725490 0.317647 0.196078
0.792157 0.321569 0.196078
0.847059 0.329412 0.207843
0.019608 0.294118 0.145098
0.035294 0.298039 0.149020
0.090196 0.305882 0.145098
0.145098 0.317647 0.145098
0.203922 0.321569 0.145098
0.262745 0.325490 0.152941
0.321569 0.333333 0.160784
0.384314 0.341176 0.168627
0.439216 0.341176 0.168627
0.505882 0.352941 0.180392
0.564706 0.360784 0.188235
0.619608 0.360784 0.192157
0.678431 0.380392 0.196078
0.745098 0.380392 0.207843
