public/luts/neon.cube
# Studiio — look « neon », genere par scripts/lut/generer-luts.mjs
# Source : les coefficients de LOOKS_RENDUS, calcules par ffmpeg lui-meme.
# Aucune LUT tierce, aucun telechargement : provenance et licence du depot.
LUT_3D_SIZE 6
DOMAIN_MIN 0.0 0.0 0.0
DOMAIN_MAX 1.0 1.0 1.0
0.043137 0.000000 0.082353
0.180392 0.000000 0.082353
0.423529 0.000000 0.015686
0.674510 0.015686 0.023529
0.952941 0.027451 0.043137
1.000000 0.027451 0.043137
0.043137 0.149020 0.082353
0.168627 0.137255 0.082353
0.400000 0.121569 0.023529
0.654902 0.129412 0.019608
0.929412 0.129412 0.043137
1.000000 0.125490 0.043137
0.007843 0.403922 0.019608
0.117647 0.392157 0.023529
0.376471 0.388235 0.023529
0.643137 0.384314 0.015686
0.905882 0.392157 0.043137
1.000000 0.384314 0.043137
0.000000 0.674510 0.019608
0.078431 0.666667 0.019608
0.345098 0.654902 0.015686
0.615686 0.643137 0.015686
0.890196 0.654902 0.043137
1.000000 0.635294 0.043137
0.000000 0.952941 0.043137
0.054902 0.945098 0.043137
0.329412 0.925490 0.043137
0.588235 0.917647 0.043137
0.870588 0.901961 0.043137
1.000000 0.882353 0.043137
0.000000 1.000000 0.043137
0.039216 1.000000 0.043137
0.305882 1.000000 0.043137
0.572549 1.000000 0.043137
0.847059 1.000000 0.043137
1.000000 1.000000 0.043137
0.043137 0.000000 0.239216
0.180392 0.000000 0.223529
0.411765 0.000000 0.137255
0.678431 0.015686 0.145098
0.945098 0.027451 0.141176
1.000000 0.027451 0.137255
0.043137 0.141176 0.215686
0.156863 0.133333 0.188235
0.384314 0.129412 0.098039
0.658824 0.129412 0.129412
0.917647 0.129412 0.117647
1.000000 0.109804 0.117647
0.011765 0.396078 0.125490
0.094118 0.392157 0.094118
0.368627 0.380392 0.090196
0.635294 0.388235 0.101961
0.901961 0.388235 0.098039
1.000000 0.376471 0.098039
0.000000 0.670588 0.105882
0.066667 0.670588 0.101961
0.345098 0.654902 0.094118
0.607843 0.647059 0.074510
0.890196 0.647059 0.094118
1.000000 0.639216 0.078431
0.000000 0.949020 0.109804
0.054902 0.937255 0.101961
0.317647 0.921569 0.082353
0.584314 0.913725 0.070588
0.858824 0.901961 0.062745
1.000000 0.890196 0.050980
0.000000 1.000000 0.082353
0.035294 1.000000 0.078431
0.294118 1.000000 0.062745
0.576471 1.000000 0.058824
0.835294 1.000000 0.043137
1.000000 1.000000 0.043137
0.003922 0.000000 0.439216
0.141176 0.000000 0.423529
0.415686 0.000000 0.423529
0.674510 0.015686 0.407843
0.937255 0.027451 0.431373
1.000000 0.027451 0.407843
0.007843 0.141176 0.423529
0.109804 0.133333 0.384314
0.384314 0.117647 0.388235
0.650980 0.133333 0.400000
0.921569 0.117647 0.403922
1.000000 0.109804 0.384314
0.011765 0.392157 0.400000
0.101961 0.388235 0.380392
0.364706 0.400000 0.392157
0.623529 0.396078 0.384314
0.905882 0.380392 0.384314
1.000000 0.376471 0.364706
0.000000 0.670588 0.376471
0.070588 0.662745 0.380392
0.337255 0.662745 0.380392
0.607843 0.647059 0.372549
0.882353 0.643137 0.364706
1.000000 0.635294 0.345098
0.000000 0.941176 0.380392
0.050980 0.933333 0.372549
0.313725 0.925490 0.360784
0.588235 0.905882 0.349020
0.850980 0.898039 0.337255
1.000000 0.882353 0.329412
0.000000 1.000000 0.368627
0.023529 1.000000 0.349020
0.298039 1.000000 0.345098
0.564706 1.000000 0.329412
0.831373 1.000000 0.317647
1.000000 1.000000 0.309804
0.000000 0.015686 0.713725
0.129412 0.015686 0.721569
0.396078 0.015686 0.694118
0.662745 0.011765 0.678431
0.937255 0.027451 0.694118
1.000000 0.027451 0.682353
0.000000 0.152941 0.694118
0.113725 0.149020 0.717647
0.380392 0.137255 0.690196
0.654902 0.125490 0.690196
0.917647 0.113725 0.670588
1.000000 0.105882 0.670588
0.000000 0.403922 0.682353
0.090196 0.411765 0.690196
0.352941 0.403922 0.670588
0.627451 0.388235 0.670588
0.894118 0.380392 0.650980
1.000000 0.364706 0.650980
0.000000 0.658824 0.658824
0.066667 0.658824 0.650980
0.337255 0.654902 0.662745
0.603922 0.643137 0.647059
0.866667 0.639216 0.623529
1.000000 0.627451 0.631373
0.000000 0.941176 0.662745
0.043137 0.929412 0.647059
0.313725 0.917647 0.639216
0.584314 0.909804 0.627451
0.850980 0.890196 0.615686
1.000000 0.882353 0.603922
0.000000 1.000000 0.639216
0.031373 1.000000 0.627451
0.294118 1.000000 0.615686
0.556863 1.000000 0.603922
0.835294 1.000000 0.596078
1.000000 1.000000 0.584314
0.000000 0.027451 1.000000
0.125490 0.027451 1.000000
0.392157 0.027451 0.988235
0.666667 0.027451 0.980392
0.933333 0.027451 0.968627
1.000000 0.027451 0.960784
0.000000 0.156863 1.000000
0.101961 0.149020 0.980392
0.376471 0.133333 0.984314
0.643137 0.129412 0.960784
0.909804 0.117647 0.945098
1.000000 0.101961 0.937255
0.000000 0.415686 0.976471
0.078431 0.403922 0.952941
0.360784 0.396078 0.964706
0.623529 0.384314 0.937255
0.898039 0.368627 0.937255
1.000000 0.360784 0.917647
0.000000 0.674510 0.952941
0.062745 0.658824 0.949020
0.329412 0.650980 0.933333
0.596078 0.643137 0.913725
0.870588 0.627451 0.913725
1.000000 0.627451 0.898039
0.000000 0.937255 0.933333
0.043137 0.921569 0.929412
0.313725 0.913725 0.913725
0.584314 0.898039 0.905882
0.850980 0.890196 0.894118
1.000000 0.882353 0.866667
0.000000 1.000000 0.913725
0.023529 1.000000 0.905882
0.290196 1.000000 0.894118
0.556863 1.000000 0.882353
0.823529 1.000000 0.870588
1.000000 1.000000 0.862745
0.000000 0.027451 1.000000
0.117647 0.027451 1.000000
0.388235 0.027451 1.000000
0.654902 0.027451 1.000000
0.925490 0.027451 1.000000
1.000000 0.027451 1.000000
0.000000 0.164706 1.000000
0.098039 0.141176 1.000000
0.372549 0.133333 1.000000
0.639216 0.125490 1.000000
0.913725 0.109804 1.000000
1.000000 0.101961 1.000000
0.000000 0.415686 1.000000
0.078431 0.400000 1.000000
0.349020 0.396078 1.000000
0.623529 0.380392 1.000000
0.886275 0.368627 1.000000
1.000000 0.360784 1.000000
0.000000 0.666667 1.000000
0.058824 0.654902 1.000000
0.325490 0.650980 1.000000
0.596078 0.635294 1.000000
0.866667 0.627451 1.000000
1.000000 0.615686 1.000000
0.000000 0.917647 1.000000
0.035294 0.921569 1.000000
0.309804 0.905882 1.000000
0.576471 0.898039 1.000000
0.843137 0.890196 1.000000
1.000000 0.870588 1.000000
0.000000 1.000000 1.000000
0.019608 1.000000 1.000000
0.290196 1.000000 1.000000
0.552941 1.000000 1.000000
0.827451 1.000000 1.000000
1.000000 1.000000 1.000000
