public/luts/neon.cube
# Studiio — look « neon », genere par scripts/lut/generer-luts.mjs
# Source : les coefficients de LOOKS_RENDUS, calcules par ffmpeg lui-meme.
# Aucune LUT tierce, aucun telechargement : provenance et licence du depot.
LUT_3D_SIZE 16
DOMAIN_MIN 0.0 0.0 0.0
DOMAIN_MAX 1.0 1.0 1.0
0.043137 0.000000 0.082353
0.043137 0.000000 0.082353
0.098039 0.000000 0.082353
0.180392 0.000000 0.082353
0.274510 0.000000 0.074510
0.341176 0.000000 0.047059
0.423529 0.000000 0.015686
0.498039 0.000000 0.000000
0.596078 0.007843 0.007843
0.674510 0.015686 0.023529
0.780392 0.027451 0.039216
0.858824 0.027451 0.043137
0.952941 0.027451 0.043137
0.996078 0.027451 0.043137
1.000000 0.027451 0.043137
1.000000 0.027451 0.043137
0.043137 0.000000 0.082353
0.043137 0.000000 0.082353
0.090196 0.000000 0.082353
0.180392 0.000000 0.082353
0.266667 0.000000 0.078431
0.337255 0.000000 0.047059
0.415686 0.000000 0.015686
0.494118 0.000000 0.000000
0.576471 0.003922 0.003922
0.674510 0.015686 0.023529
0.756863 0.023529 0.035294
0.858824 0.027451 0.043137
0.937255 0.027451 0.043137
1.000000 0.027451 0.043137
1.000000 0.027451 0.043137
1.000000 0.027451 0.043137
0.043137 0.062745 0.082353
0.043137 0.058824 0.082353
0.078431 0.058824 0.082353
0.176471 0.047059 0.082353
0.254902 0.050980 0.082353
0.337255 0.043137 0.047059
0.400000 0.035294 0.023529
0.494118 0.039216 0.000000
0.568627 0.035294 0.003922
0.666667 0.039216 0.019608
0.752941 0.047059 0.035294
0.850980 0.043137 0.043137
0.933333 0.047059 0.043137
1.000000 0.039216 0.043137
1.000000 0.035294 0.043137
1.000000 0.070588 0.043137
0.043137 0.149020 0.082353
0.043137 0.141176 0.082353
0.066667 0.137255 0.082353
0.168627 0.137255 0.082353
0.250980 0.129412 0.082353
0.333333 0.129412 0.050980
0.400000 0.121569 0.023529
0.478431 0.117647 0.000000
0.568627 0.121569 0.003922
0.654902 0.129412 0.019608
0.745098 0.129412 0.035294
0.835294 0.137255 0.043137
0.929412 0.129412 0.043137
1.000000 0.125490 0.043137
1.000000 0.121569 0.043137
1.000000 0.125490 0.043137
0.039216 0.227451 0.078431
0.039216 0.235294 0.074510
0.062745 0.223529 0.078431
0.145098 0.219608 0.078431
0.247059 0.215686 0.082353
0.313725 0.215686 0.058824
0.396078 0.203922 0.023529
0.466667 0.207843 0.000000
0.564706 0.203922 0.003922
0.647059 0.215686 0.019608
0.745098 0.215686 0.035294
0.827451 0.223529 0.043137
0.929412 0.215686 0.043137
1.000000 0.215686 0.043137
1.000000 0.203922 0.043137
1.000000 0.211765 0.043137
0.023529 0.317647 0.047059
0.023529 0.313725 0.047059
0.043137 0.309804 0.050980
0.133333 0.305882 0.050980
0.223529 0.301961 0.050980
0.313725 0.301961 0.050980
0.388235 0.294118 0.027451
0.462745 0.290196 0.000000
0.552941 0.294118 0.000000
0.643137 0.298039 0.015686
0.733333 0.305882 0.031373
0.827451 0.305882 0.043137
0.909804 0.301961 0.043137
1.000000 0.301961 0.043137
1.000000 0.298039 0.043137
1.000000 0.294118 0.043137
0.007843 0.403922 0.019608
0.007843 0.400000 0.019608
0.007843 0.400000 0.019608
0.117647 0.392157 0.023529
0.196078 0.392157 0.023529
0.294118 0.384314 0.023529
0.376471 0.388235 0.023529
0.462745 0.376471 0.000000
0.541176 0.376471 0.000000
0.643137 0.384314 0.015686
0.725490 0.392157 0.031373
0.823529 0.388235 0.043137
0.905882 0.392157 0.043137
1.000000 0.380392 0.043137
1.000000 0.388235 0.043137
1.000000 0.384314 0.043137
0.000000 0.494118 0.000000
0.000000 0.486275 0.000000
0.003922 0.486275 0.000000
0.094118 0.478431 0.000000
0.180392 0.474510 0.000000
0.274510 0.474510 0.000000
0.360784 0.470588 0.000000
0.450980 0.470588 0.000000
0.541176 0.462745 0.000000
0.627451 0.466667 0.015686
0.725490 0.478431 0.031373
0.807843 0.482353 0.043137
0.901961 0.474510 0.043137
0.992157 0.474510 0.043137
1.000000 0.470588 0.043137
1.000000 0.462745 0.043137
0.000000 0.584314 0.007843
0.000000 0.580392 0.003922
0.000000 0.572549 0.003922
0.082353 0.576471 0.003922
0.180392 0.564706 0.003922
0.258824 0.564706 0.003922
0.360784 0.556863 0.003922
0.439216 0.556863 0.003922
0.537255 0.545098 0.000000
0.623529 0.556863 0.011765
0.721569 0.560784 0.031373
0.803922 0.568627 0.043137
0.901961 0.560784 0.043137
0.980392 0.560784 0.043137
1.000000 0.560784 0.043137
1.000000 0.549020 0.043137
0.000000 0.674510 0.019608
0.000000 0.674510 0.019608
0.000000 0.670588 0.019608
0.078431 0.666667 0.019608
0.172549 0.662745 0.019608
0.258824 0.658824 0.019608
0.345098 0.654902 0.015686
0.439216 0.654902 0.015686
0.525490 0.650980 0.015686
0.615686 0.643137 0.015686
0.705882 0.650980 0.027451
0.800000 0.650980 0.043137
0.890196 0.654902 0.043137
0.976471 0.643137 0.043137
1.000000 0.639216 0.043137
1.000000 0.635294 0.043137
0.000000 0.780392 0.035294
0.000000 0.768627 0.035294
0.000000 0.768627 0.035294
0.078431 0.764706 0.035294
0.156863 0.764706 0.035294
0.258824 0.752941 0.031373
0.337255 0.752941 0.031373
0.435294 0.741176 0.031373
0.517647 0.749020 0.031373
0.615686 0.737255 0.031373
0.690196 0.733333 0.027451
0.796078 0.733333 0.043137
0.874510 0.733333 0.043137
0.972549 0.725490 0.043137
1.000000 0.729412 0.043137
1.000000 0.725490 0.043137
0.000000 0.862745 0.043137
0.000000 0.862745 0.043137
0.000000 0.858824 0.043137
0.066667 0.850980 0.043137
0.156863 0.850980 0.043137
0.247059 0.847059 0.043137
0.329412 0.839216 0.043137
0.423529 0.843137 0.043137
0.509804 0.831373 0.043137
0.600000 0.831373 0.043137
0.694118 0.827451 0.043137
0.776471 0.823529 0.043137
0.874510 0.819608 0.043137
0.960784 0.815686 0.043137
1.000000 0.811765 0.043137
1.000000 0.807843 0.043137
0.000000 0.952941 0.043137
0.000000 0.952941 0.043137
0.000000 0.945098 0.043137
0.054902 0.945098 0.043137
0.149020 0.929412 0.043137
0.235294 0.941176 0.043137
0.329412 0.925490 0.043137
0.407843 0.925490 0.043137
0.509804 0.917647 0.043137
0.588235 0.917647 0.043137
0.694118 0.913725 0.043137
0.772549 0.913725 0.043137
0.870588 0.901961 0.043137
0.952941 0.901961 0.043137
1.000000 0.894118 0.043137
1.000000 0.882353 0.043137
0.000000 1.000000 0.043137
0.000000 1.000000 0.043137
0.000000 1.000000 0.043137
0.054902 1.000000 0.043137
0.141176 1.000000 0.043137
0.227451 1.000000 0.043137
0.317647 1.000000 0.043137
0.407843 1.000000 0.043137
0.494118 1.000000 0.043137
0.588235 1.000000 0.043137
0.674510 1.000000 0.043137
0.768627 0.992157 0.043137
0.858824 0.988235 0.043137
0.949020 0.976471 0.043137
1.000000 0.968627 0.043137
1.000000 0.956863 0.043137
0.000000 1.000000 0.043137
0.000000 1.000000 0.043137
0.000000 1.000000 0.043137
0.047059 1.000000 0.043137
0.125490 1.000000 0.043137
0.227451 1.000000 0.043137
0.305882 1.000000 0.043137
0.407843 1.000000 0.043137
0.486275 1.000000 0.043137
0.584314 1.000000 0.043137
0.670588 1.000000 0.043137
0.768627 1.000000 0.043137
0.847059 1.000000 0.043137
0.937255 1.000000 0.043137
1.000000 1.000000 0.043137
1.000000 1.000000 0.043137
0.000000 1.000000 0.043137
0.000000 1.000000 0.043137
0.000000 1.000000 0.043137
0.039216 1.000000 0.043137
0.125490 1.000000 0.043137
0.211765 1.000000 0.043137
0.305882 1.000000 0.043137
0.392157 1.000000 0.043137
0.482353 1.000000 0.043137
0.572549 1.000000 0.043137
0.666667 1.000000 0.043137
0.756863 1.000000 0.043137
0.847059 1.000000 0.043137
0.933333 1.000000 0.043137
1.000000 1.000000 0.043137
1.000000 1.000000 0.043137
0.043137 0.000000 0.082353
0.043137 0.000000 0.082353
0.090196 0.000000 0.082353
0.180392 0.000000 0.082353
0.270588 0.000000 0.074510
0.341176 0.000000 0.047059
0.419608 0.000000 0.015686
0.498039 0.000000 0.000000
0.592157 0.003922 0.007843
0.678431 0.015686 0.023529
0.764706 0.023529 0.039216
0.862745 0.027451 0.043137
0.945098 0.027451 0.043137
1.000000 0.027451 0.043137
1.000000 0.027451 0.043137
1.000000 0.027451 0.043137
0.043137 0.000000 0.082353
0.043137 0.000000 0.082353
0.078431 0.000000 0.082353
0.176471 0.000000 0.082353
0.258824 0.000000 0.078431
0.341176 0.000000 0.047059
0.407843 0.000000 0.019608
0.498039 0.000000 0.000000
0.576471 0.003922 0.003922
0.678431 0.015686 0.023529
0.756863 0.023529 0.035294
0.854902 0.027451 0.043137
0.941176 0.027451 0.043137
1.000000 0.027451 0.043137
1.000000 0.027451 0.043137
1.000000 0.027451 0.043137
0.043137 0.058824 0.082353
0.043137 0.054902 0.082353
0.078431 0.054902 0.082353
0.172549 0.047059 0.082353
0.254902 0.047059 0.082353
0.333333 0.043137 0.050980
0.407843 0.039216 0.019608
0.486275 0.031373 0.000000
0.576471 0.039216 0.003922
0.662745 0.039216 0.019608
0.752941 0.047059 0.035294
0.843137 0.050980 0.043137
0.937255 0.043137 0.043137
1.000000 0.043137 0.043137
1.000000 0.039216 0.043137
1.000000 0.058824 0.043137
0.043137 0.141176 0.082353
0.043137 0.145098 0.082353
0.074510 0.137255 0.082353
0.152941 0.137255 0.082353
0.254902 0.129412 0.082353
0.321569 0.129412 0.054902
0.407843 0.121569 0.019608
0.474510 0.125490 0.000000
0.572549 0.121569 0.003922
0.654902 0.129412 0.019608
0.752941 0.133333 0.035294
0.835294 0.133333 0.043137
0.937255 0.133333 0.043137
1.000000 0.125490 0.043137
1.000000 0.117647 0.043137
1.000000 0.117647 0.043137
0.039216 0.231373 0.074510
0.039216 0.227451 0.078431
0.066667 0.223529 0.078431
0.149020 0.223529 0.078431
0.243137 0.215686 0.082353
0.321569 0.215686 0.054902
0.396078 0.207843 0.023529
0.474510 0.211765 0.000000
0.564706 0.207843 0.003922
0.650980 0.211765 0.019608
0.741176 0.227451 0.035294
0.827451 0.215686 0.043137
0.913725 0.215686 0.043137
1.000000 0.211765 0.043137
1.000000 0.207843 0.043137
1.000000 0.200000 0.043137
0.023529 0.317647 0.047059
0.023529 0.313725 0.047059
0.031373 0.313725 0.047059
0.133333 0.309804 0.050980
0.219608 0.305882 0.050980
0.317647 0.298039 0.054902
0.388235 0.301961 0.027451
0.470588 0.290196 0.000000
0.545098 0.286275 0.000000
0.647059 0.294118 0.019608
0.725490 0.298039 0.031373
0.827451 0.301961 0.043137
0.909804 0.305882 0.043137
1.000000 0.294118 0.043137
1.000000 0.298039 0.043137
1.000000 0.286275 0.043137
0.007843 0.403922 0.019608
0.007843 0.400000 0.019608
0.015686 0.400000 0.019608
0.113725 0.392157 0.023529
0.203922 0.392157 0.023529
0.294118 0.388235 0.023529
0.376471 0.380392 0.027451
0.458824 0.376471 0.000000
0.545098 0.372549 0.000000
0.631373 0.380392 0.015686
0.725490 0.388235 0.031373
0.811765 0.392157 0.043137
0.901961 0.384314 0.043137
0.992157 0.384314 0.043137
1.000000 0.380392 0.043137
1.000000 0.380392 0.043137
0.000000 0.494118 0.000000
0.000000 0.494118 0.000000
0.000000 0.478431 0.000000
0.090196 0.486275 0.000000
0.180392 0.470588 0.000000
0.262745 0.470588 0.000000
0.364706 0.466667 0.000000
0.443137 0.466667 0.000000
0.545098 0.458824 0.000000
0.623529 0.466667 0.011765
0.721569 0.466667 0.031373
0.807843 0.482353 0.043137
0.905882 0.470588 0.043137
0.984314 0.470588 0.043137
1.000000 0.462745 0.043137
1.000000 0.462745 0.043137
0.000000 0.576471 0.003922
0.000000 0.584314 0.007843
0.000000 0.572549 0.003922
0.078431 0.568627 0.003922
0.176471 0.564706 0.003922
0.262745 0.556863 0.003922
0.352941 0.549020 0.000000
0.443137 0.552941 0.000000
0.529412 0.549020 0.000000
0.623529 0.552941 0.011765
0.709804 0.560784 0.027451
0.800000 0.564706 0.043137
0.890196 0.564706 0.043137
0.984314 0.556863 0.043137
1.000000 0.552941 0.043137
1.000000 0.552941 0.043137
0.000000 0.682353 0.019608
0.000000 0.666667 0.019608
0.000000 0.670588 0.019608
0.078431 0.662745 0.019608
0.160784 0.662745 0.019608
0.262745 0.654902 0.015686
0.341176 0.654902 0.015686
0.439216 0.647059 0.015686
0.521569 0.647059 0.015686
0.619608 0.635294 0.015686
0.698039 0.643137 0.027451
0.800000 0.650980 0.043137
0.882353 0.647059 0.043137
0.984314 0.643137 0.043137
1.000000 0.643137 0.043137
1.000000 0.639216 0.043137
0.000000 0.772549 0.035294
0.000000 0.768627 0.035294
0.000000 0.764706 0.035294
0.070588 0.760784 0.031373
0.160784 0.760784 0.031373
0.250980 0.749020 0.031373
0.341176 0.749020 0.031373
0.427451 0.745098 0.031373
0.517647 0.737255 0.031373
0.607843 0.741176 0.031373
0.698039 0.733333 0.027451
0.784314 0.737255 0.039216
0.882353 0.733333 0.043137
0.964706 0.733333 0.043137
1.000000 0.725490 0.043137
1.000000 0.725490 0.043137
0.000000 0.862745 0.043137
0.000000 0.858824 0.043137
0.000000 0.854902 0.043137
0.054902 0.854902 0.043137
0.152941 0.843137 0.043137
0.239216 0.850980 0.043137
0.337255 0.839216 0.043137
0.415686 0.839216 0.043137
0.517647 0.831373 0.043137
0.596078 0.835294 0.043137
0.698039 0.827451 0.043137
0.780392 0.827451 0.043137
0.878431 0.815686 0.043137
0.960784 0.819608 0.043137
1.000000 0.811765 0.043137
1.000000 0.807843 0.043137
0.000000 0.952941 0.043137
0.000000 0.945098 0.043137
0.000000 0.941176 0.043137
0.058824 0.941176 0.043137
0.149020 0.933333 0.043137
0.235294 0.929412 0.043137
0.329412 0.929412 0.043137
0.415686 0.925490 0.043137
0.501961 0.921569 0.043137
0.596078 0.921569 0.043137
0.682353 0.913725 0.043137
0.780392 0.913725 0.043137
0.862745 0.909804 0.043137
0.952941 0.898039 0.043137
1.000000 0.901961 0.043137
1.000000 0.894118 0.043137
0.000000 1.000000 0.043137
0.000000 1.000000 0.043137
0.000000 1.000000 0.043137
0.050980 1.000000 0.043137
0.137255 1.000000 0.043137
0.235294 1.000000 0.043137
0.313725 1.000000 0.043137
0.415686 1.000000 0.043137
0.494118 1.000000 0.043137
0.588235 0.996078 0.043137
0.678431 1.000000 0.043137
0.768627 0.992157 0.043137
0.850980 0.988235 0.043137
0.952941 0.984314 0.043137
1.000000 0.980392 0.043137
1.000000 0.976471 0.043137
0.000000 1.000000 0.043137
0.000000 1.000000 0.043137
0.000000 1.000000 0.043137
0.047059 1.000000 0.043137
0.133333 1.000000 0.043137
0.219608 1.000000 0.043137
0.313725 1.000000 0.043137
0.396078 1.000000 0.043137
0.494118 1.000000 0.043137
0.576471 1.000000 0.043137
0.666667 1.000000 0.043137
0.756863 1.000000 0.043137
0.850980 1.000000 0.043137
0.933333 1.000000 0.043137
1.000000 1.000000 0.043137
1.000000 1.000000 0.043137
0.000000 1.000000 0.043137
0.000000 1.000000 0.043137
0.000000 1.000000 0.043137
0.023529 1.000000 0.043137
0.133333 1.000000 0.043137
0.207843 1.000000 0.043137
0.305882 1.000000 0.043137
0.388235 1.000000 0.043137
0.486275 1.000000 0.043137
0.568627 1.000000 0.043137
0.666667 1.000000 0.043137
0.745098 1.000000 0.043137
0.850980 1.000000 0.043137
0.929412 1.000000 0.043137
1.000000 1.000000 0.043137
1.000000 1.000000 0.043137
0.043137 0.000000 0.168627
0.043137 0.000000 0.129412
0.098039 0.000000 0.133333
0.184314 0.000000 0.117647
0.262745 0.000000 0.125490
0.345098 0.000000 0.078431
0.415686 0.000000 0.058824
0.501961 0.000000 0.019608
0.580392 0.003922 0.035294
0.682353 0.015686 0.039216
0.760784 0.023529 0.058824
0.858824 0.027451 0.050980
0.941176 0.027451 0.062745
1.000000 0.027451 0.043137
1.000000 0.027451 0.050980
1.000000 0.027451 0.043137
0.043137 0.000000 0.133333
0.043137 0.000000 0.117647
0.086275 0.000000 0.129412
0.180392 0.000000 0.113725
0.254902 0.000000 0.113725
0.337255 0.000000 0.066667
0.407843 0.000000 0.047059
0.490196 0.000000 0.011765
0.580392 0.003922 0.031373
0.670588 0.015686 0.031373
0.760784 0.023529 0.054902
0.847059 0.027451 0.043137
0.937255 0.027451 0.050980
1.000000 0.027451 0.043137
1.000000 0.027451 0.047059
1.000000 0.027451 0.043137
0.043137 0.050980 0.121569
0.043137 0.054902 0.129412
0.078431 0.047059 0.113725
0.160784 0.050980 0.101961
0.250980 0.039216 0.098039
0.321569 0.043137 0.062745
0.403922 0.035294 0.035294
0.478431 0.035294 0.007843
0.576471 0.027451 0.019608
0.658824 0.043137 0.019608
0.756863 0.039216 0.047059
0.835294 0.047059 0.043137
0.937255 0.039216 0.047059
1.000000 0.039216 0.043137
1.000000 0.031373 0.043137
1.000000 0.058824 0.043137
0.043137 0.141176 0.113725
0.043137 0.137255 0.113725
0.070588 0.137255 0.109804
0.156863 0.129412 0.109804
0.250980 0.129412 0.098039
0.321569 0.129412 0.058824
0.396078 0.117647 0.031373
0.478431 0.121569 0.000000
0.568627 0.117647 0.011765
0.654902 0.121569 0.019608
0.745098 0.133333 0.039216
0.835294 0.133333 0.043137
0.921569 0.125490 0.043137
1.000000 0.125490 0.043137
1.000000 0.121569 0.043137
1.000000 0.121569 0.043137
0.039216 0.227451 0.105882
0.039216 0.223529 0.105882
0.050980 0.223529 0.094118
0.149020 0.215686 0.098039
0.231373 0.219608 0.086275
0.317647 0.207843 0.062745
0.388235 0.211765 0.031373
0.474510 0.200000 0.007843
0.556863 0.211765 0.007843
0.654902 0.211765 0.019608
0.733333 0.215686 0.031373
0.835294 0.219608 0.043137
0.913725 0.215686 0.043137
1.000000 0.207843 0.043137
1.000000 0.211765 0.043137
1.000000 0.203922 0.043137
0.023529 0.317647 0.066667
0.023529 0.313725 0.070588
0.035294 0.309804 0.058824
0.125490 0.301961 0.058824
0.215686 0.305882 0.054902
0.313725 0.298039 0.058824
0.388235 0.294118 0.027451
0.466667 0.290196 0.003922
0.552941 0.286275 0.000000
0.643137 0.290196 0.015686
0.733333 0.301961 0.031373
0.819608 0.309804 0.043137
0.917647 0.301961 0.043137
1.000000 0.301961 0.043137
1.000000 0.294118 0.043137
1.000000 0.294118 0.043137
0.007843 0.403922 0.031373
0.011765 0.396078 0.031373
0.019608 0.392157 0.023529
0.098039 0.396078 0.027451
0.200000 0.384314 0.023529
0.286275 0.388235 0.027451
0.384314 0.380392 0.027451
0.450980 0.380392 0.003922
0.552941 0.372549 0.000000
0.631373 0.384314 0.015686
0.729412 0.384314 0.031373
0.811765 0.396078 0.043137
0.909804 0.384314 0.043137
0.996078 0.392157 0.043137
1.000000 0.380392 0.043137
1.000000 0.376471 0.043137
0.000000 0.486275 0.003922
0.000000 0.486275 0.007843
0.000000 0.482353 0.000000
0.086275 0.478431 0.000000
0.184314 0.474510 0.000000
0.266667 0.470588 0.000000
0.364706 0.470588 0.000000
0.450980 0.466667 0.000000
0.541176 0.458824 0.000000
0.631373 0.470588 0.015686
0.717647 0.474510 0.031373
0.803922 0.470588 0.043137
0.898039 0.478431 0.043137
0.984314 0.466667 0.043137
1.000000 0.462745 0.043137
1.000000 0.462745 0.043137
0.000000 0.576471 0.003922
0.000000 0.572549 0.003922
0.000000 0.580392 0.003922
0.086275 0.568627 0.003922
0.164706 0.568627 0.003922
0.270588 0.556863 0.003922
0.349020 0.556863 0.003922
0.443137 0.541176 0.000000
0.529412 0.552941 0.000000
0.623529 0.545098 0.011765
0.709804 0.564706 0.027451
0.803922 0.556863 0.043137
0.882353 0.556863 0.043137
0.984314 0.552941 0.043137
1.000000 0.552941 0.043137
1.000000 0.541176 0.043137
0.000000 0.674510 0.019608
0.000000 0.670588 0.019608
0.000000 0.666667 0.019608
0.082353 0.666667 0.019608
0.164706 0.662745 0.019608
0.254902 0.650980 0.015686
0.349020 0.654902 0.015686
0.435294 0.643137 0.015686
0.521569 0.643137 0.015686
0.611765 0.643137 0.015686
0.701961 0.643137 0.027451
0.788235 0.647059 0.043137
0.882353 0.647059 0.043137
0.968627 0.639216 0.043137
1.000000 0.639216 0.043137
1.000000 0.635294 0.043137
0.000000 0.772549 0.035294
0.000000 0.768627 0.035294
0.000000 0.768627 0.035294
0.058824 0.760784 0.031373
0.156863 0.749020 0.031373
0.239216 0.752941 0.031373
0.337255 0.741176 0.031373
0.423529 0.745098 0.031373
0.521569 0.737255 0.031373
0.600000 0.733333 0.027451
0.701961 0.729412 0.027451
0.780392 0.737255 0.039216
0.878431 0.725490 0.043137
0.964706 0.729412 0.043137
1.000000 0.721569 0.043137
1.000000 0.725490 0.043137
0.000000 0.866667 0.043137
0.000000 0.858824 0.043137
0.000000 0.850980 0.043137
0.058824 0.850980 0.043137
0.152941 0.847059 0.043137
0.235294 0.839216 0.043137
0.333333 0.839216 0.043137
0.419608 0.835294 0.043137
0.509804 0.835294 0.043137
0.600000 0.827451 0.043137
0.686275 0.827451 0.043137
0.780392 0.823529 0.043137
0.866667 0.819608 0.043137
0.956863 0.811765 0.043137
1.000000 0.815686 0.043137
1.000000 0.807843 0.043137
0.000000 0.941176 0.043137
0.000000 0.945098 0.043137
0.000000 0.941176 0.043137
0.054902 0.933333 0.043137
0.137255 0.937255 0.043137
0.235294 0.925490 0.043137
0.317647 0.929412 0.043137
0.419608 0.921569 0.043137
0.498039 0.921569 0.043137
0.596078 0.909804 0.043137
0.678431 0.913725 0.043137
0.776471 0.905882 0.043137
0.862745 0.909804 0.043137
0.960784 0.898039 0.043137
1.000000 0.898039 0.043137
1.000000 0.898039 0.043137
0.000000 1.000000 0.043137
0.000000 1.000000 0.043137
0.000000 1.000000 0.043137
0.050980 1.000000 0.043137
0.133333 1.000000 0.043137
0.231373 1.000000 0.043137
0.317647 1.000000 0.043137
0.407843 1.000000 0.043137
0.498039 1.000000 0.043137
0.584314 1.000000 0.043137
0.674510 0.996078 0.043137
0.764706 0.996078 0.043137
0.854902 0.992157 0.043137
0.941176 0.988235 0.043137
1.000000 0.984314 0.043137
1.000000 0.980392 0.043137
0.000000 1.000000 0.043137
0.000000 1.000000 0.043137
0.000000 1.000000 0.043137
0.031373 1.000000 0.043137
0.133333 1.000000 0.043137
0.215686 1.000000 0.043137
0.317647 1.000000 0.043137
0.396078 1.000000 0.043137
0.494118 1.000000 0.043137
0.576471 1.000000 0.043137
0.674510 1.000000 0.043137
0.752941 1.000000 0.043137
0.854902 1.000000 0.043137
0.937255 1.000000 0.043137
1.000000 1.000000 0.043137
1.000000 1.000000 0.043137
0.000000 1.000000 0.043137
0.000000 1.000000 0.043137
0.000000 1.000000 0.043137
0.031373 1.000000 0.043137
0.125490 1.000000 0.043137
0.215686 1.000000 0.043137
0.305882 1.000000 0.043137
0.392157 1.000000 0.043137
0.482353 1.000000 0.043137
0.572549 1.000000 0.043137
0.662745 1.000000 0.043137
0.752941 1.000000 0.043137
0.835294 1.000000 0.043137
0.937255 1.000000 0.043137
1.000000 1.000000 0.043137
1.000000 1.000000 0.043137
0.043137 0.000000 0.239216
0.043137 0.000000 0.227451
0.090196 0.000000 0.215686
0.180392 0.000000 0.223529
0.262745 0.000000 0.200000
0.345098 0.000000 0.180392
0.411765 0.000000 0.137255
0.501961 0.000000 0.129412
0.588235 0.003922 0.121569
0.678431 0.015686 0.145098
0.768627 0.023529 0.145098
0.858824 0.027451 0.156863
0.945098 0.027451 0.141176
1.000000 0.027451 0.152941
1.000000 0.027451 0.137255
1.000000 0.027451 0.137255
0.043137 0.000000 0.215686
0.043137 0.000000 0.223529
0.086275 0.000000 0.203922
0.180392 0.000000 0.215686
0.262745 0.000000 0.196078
0.329412 0.000000 0.176471
0.411765 0.000000 0.133333
0.486275 0.000000 0.121569
0.584314 0.003922 0.109804
0.666667 0.015686 0.133333
0.764706 0.023529 0.137255
0.847059 0.027451 0.152941
0.945098 0.027451 0.137255
1.000000 0.027451 0.137255
1.000000 0.027451 0.129412
1.000000 0.027451 0.133333
0.043137 0.054902 0.219608
0.043137 0.054902 0.215686
0.078431 0.050980 0.200000
0.164706 0.047059 0.207843
0.250980 0.047059 0.176471
0.321569 0.039216 0.160784
0.400000 0.035294 0.109804
0.486275 0.035294 0.113725
0.576471 0.039216 0.109804
0.658824 0.035294 0.125490
0.756863 0.050980 0.133333
0.839216 0.039216 0.137255
0.933333 0.047059 0.129412
1.000000 0.035294 0.133333
1.000000 0.031373 0.117647
1.000000 0.047059 0.129412
0.043137 0.141176 0.215686
0.043137 0.137255 0.207843
0.074510 0.129412 0.207843
0.156863 0.133333 0.188235
0.227451 0.133333 0.152941
0.309804 0.125490 0.129412
0.384314 0.129412 0.098039
0.474510 0.113725 0.105882
0.564706 0.133333 0.113725
0.658824 0.129412 0.129412
0.737255 0.133333 0.121569
0.839216 0.125490 0.133333
0.917647 0.129412 0.117647
1.000000 0.117647 0.125490
1.000000 0.121569 0.109804
1.000000 0.109804 0.117647
0.039216 0.231373 0.200000
0.039216 0.227451 0.200000
0.054902 0.223529 0.188235
0.129412 0.211765 0.152941
0.219608 0.219608 0.156863
0.298039 0.207843 0.125490
0.372549 0.203922 0.082353
0.470588 0.203922 0.098039
0.556863 0.211765 0.094118
0.650980 0.219608 0.125490
0.737255 0.219608 0.117647
0.823529 0.215686 0.125490
0.917647 0.215686 0.109804
1.000000 0.207843 0.117647
1.000000 0.203922 0.101961
1.000000 0.203922 0.113725
0.023529 0.317647 0.164706
0.027451 0.305882 0.156863
0.043137 0.309804 0.156863
0.101961 0.305882 0.121569
0.203922 0.294118 0.121569
0.286275 0.301961 0.113725
0.372549 0.290196 0.094118
0.450980 0.290196 0.086275
0.556863 0.294118 0.109804
0.635294 0.301961 0.113725
0.737255 0.305882 0.109804
0.815686 0.305882 0.117647
0.913725 0.298039 0.101961
0.996078 0.298039 0.113725
1.000000 0.290196 0.098039
1.000000 0.290196 0.101961
0.011765 0.396078 0.125490
0.007843 0.400000 0.121569
0.015686 0.392157 0.117647
0.094118 0.392157 0.094118
0.184314 0.384314 0.094118
0.270588 0.380392 0.086275
0.368627 0.380392 0.090196
0.450980 0.376471 0.082353
0.545098 0.376471 0.090196
0.635294 0.388235 0.101961
0.725490 0.388235 0.117647
0.811765 0.388235 0.109804
0.901961 0.388235 0.098039
0.992157 0.380392 0.101961
