public/luts/noir.cube
# Studiio — look « noir », genere par scripts/lut/generer-luts.mjs
# Source : les coefficients de LOOKS_RENDUS, calcules par ffmpeg lui-meme.
# Aucune LUT tierce, aucun telechargement : provenance et licence du depot.
LUT_3D_SIZE 16
DOMAIN_MIN 0.0 0.0 0.0
DOMAIN_MAX 1.0 1.0 1.0
0.000000 0.000000 0.000000
0.000000 0.000000 0.000000
0.000000 0.000000 0.000000
0.000000 0.000000 0.000000
0.000000 0.000000 0.000000
0.003922 0.007843 0.000000
0.027451 0.027451 0.019608
0.054902 0.054902 0.047059
0.078431 0.078431 0.070588
0.101961 0.101961 0.094118
0.133333 0.125490 0.121569
0.156863 0.149020 0.133333
0.176471 0.168627 0.152941
0.207843 0.200000 0.184314
0.223529 0.219608 0.203922
0.247059 0.243137 0.227451
0.000000 0.000000 0.000000
0.000000 0.000000 0.000000
0.000000 0.000000 0.000000
0.000000 0.007843 0.000000
0.027451 0.027451 0.019608
0.050980 0.050980 0.043137
0.078431 0.078431 0.070588
0.101961 0.101961 0.094118
0.117647 0.121569 0.109804
0.149020 0.152941 0.133333
0.168627 0.172549 0.152941
0.207843 0.200000 0.184314
0.223529 0.219608 0.203922
0.247059 0.243137 0.227451
0.274510 0.270588 0.254902
0.298039 0.290196 0.274510
0.000000 0.000000 0.000000
0.000000 0.007843 0.000000
0.019608 0.031373 0.019608
0.043137 0.054902 0.043137
0.070588 0.082353 0.070588
0.101961 0.101961 0.094118
0.117647 0.121569 0.109804
0.149020 0.152941 0.133333
0.168627 0.172549 0.152941
0.192157 0.196078 0.176471
0.219608 0.223529 0.203922
0.243137 0.243137 0.227451
0.274510 0.270588 0.254902
0.298039 0.290196 0.274510
0.321569 0.313725 0.298039
0.349020 0.341176 0.325490
0.019608 0.031373 0.019608
0.043137 0.054902 0.043137
0.062745 0.074510 0.058824
0.094118 0.105882 0.094118
0.113725 0.121569 0.109804
0.145098 0.156863 0.133333
0.168627 0.172549 0.152941
0.192157 0.196078 0.176471
0.219608 0.223529 0.203922
0.243137 0.243137 0.227451
0.266667 0.266667 0.250980
0.294118 0.294118 0.274510
0.313725 0.317647 0.298039
0.345098 0.337255 0.321569
0.372549 0.364706 0.349020
0.396078 0.388235 0.372549
0.062745 0.074510 0.058824
0.094118 0.105882 0.094118
0.113725 0.121569 0.109804
0.137255 0.149020 0.125490
0.160784 0.176471 0.152941
0.184314 0.200000 0.176471
0.207843 0.219608 0.200000
0.243137 0.243137 0.227451
0.266667 0.266667 0.250980
0.294118 0.294118 0.274510
0.313725 0.317647 0.298039
0.337255 0.341176 0.321569
0.364706 0.368627 0.349020
0.388235 0.392157 0.372549
0.415686 0.411765 0.396078
0.443137 0.439216 0.423529
0.105882 0.125490 0.109804
0.137255 0.149020 0.125490
0.160784 0.176471 0.152941
0.184314 0.200000 0.176471
0.207843 0.219608 0.200000
0.235294 0.247059 0.227451
0.258824 0.270588 0.250980
0.282353 0.294118 0.270588
0.313725 0.317647 0.298039
0.337255 0.341176 0.321569
0.364706 0.368627 0.349020
0.388235 0.392157 0.372549
0.411765 0.415686 0.396078
0.439216 0.443137 0.423529
0.462745 0.462745 0.447059
0.490196 0.482353 0.466667
0.152941 0.172549 0.149020
0.180392 0.200000 0.176471
0.207843 0.219608 0.200000
0.235294 0.247059 0.227451
0.258824 0.270588 0.250980
0.282353 0.294118 0.270588
0.309804 0.321569 0.298039
0.333333 0.345098 0.321569
0.352941 0.368627 0.345098
0.388235 0.392157 0.372549
0.411765 0.415686 0.396078
0.435294 0.435294 0.419608
0.462745 0.462745 0.447059
0.482353 0.486275 0.466667
0.509804 0.513725 0.494118
0.533333 0.537255 0.517647
0.203922 0.223529 0.200000
0.223529 0.247059 0.223529
0.250980 0.274510 0.250980
0.282353 0.294118 0.270588
0.305882 0.317647 0.294118
0.333333 0.345098 0.321569
0.352941 0.368627 0.345098
0.380392 0.396078 0.372549
0.403922 0.415686 0.396078
0.427451 0.439216 0.419608
0.462745 0.462745 0.447059
0.482353 0.486275 0.466667
0.505882 0.509804 0.490196
0.533333 0.537255 0.517647
0.556863 0.560784 0.541176
0.580392 0.584314 0.564706
0.250980 0.274510 0.250980
0.274510 0.298039 0.270588
0.298039 0.321569 0.294118
0.325490 0.349020 0.321569
0.352941 0.368627 0.345098
0.376471 0.388235 0.368627
0.403922 0.415686 0.396078
0.427451 0.439216 0.419608
0.450980 0.462745 0.439216
0.478431 0.490196 0.466667
0.505882 0.509804 0.490196
0.533333 0.537255 0.517647
0.556863 0.560784 0.541176
0.580392 0.584314 0.564706
0.607843 0.611765 0.592157
0.627451 0.627451 0.607843
0.298039 0.321569 0.294118
0.325490 0.349020 0.321569
0.349020 0.368627 0.345098
0.372549 0.392157 0.368627
0.403922 0.415686 0.396078
0.427451 0.439216 0.419608
0.450980 0.462745 0.439216
0.478431 0.490196 0.466667
0.501961 0.513725 0.490196
0.521569 0.537255 0.513725
0.549020 0.564706 0.541176
0.580392 0.584314 0.564706
0.607843 0.611765 0.592157
0.627451 0.627451 0.607843
0.647059 0.654902 0.623529
0.674510 0.682353 0.650980
0.349020 0.368627 0.345098
0.372549 0.392157 0.368627
0.392157 0.415686 0.392157
0.419608 0.443137 0.419608
0.443137 0.466667 0.439216
0.478431 0.490196 0.466667
0.501961 0.513725 0.490196
0.521569 0.537255 0.513725
0.549020 0.564706 0.541176
0.572549 0.584314 0.564706
0.592157 0.603922 0.584314
0.619608 0.631373 0.607843
0.647059 0.654902 0.623529
0.670588 0.674510 0.647059
0.698039 0.701961 0.674510
0.721569 0.725490 0.698039
0.392157 0.415686 0.392157
0.419608 0.443137 0.419608
0.443137 0.466667 0.439216
0.466667 0.490196 0.462745
0.494118 0.517647 0.490196
0.517647 0.537255 0.513725
0.541176 0.552941 0.533333
0.572549 0.584314 0.564706
0.592157 0.603922 0.584314
0.619608 0.631373 0.607843
0.643137 0.654902 0.623529
0.666667 0.678431 0.647059
0.694118 0.705882 0.674510
0.721569 0.725490 0.698039
0.745098 0.749020 0.721569
0.772549 0.776471 0.749020
0.443137 0.466667 0.439216
0.466667 0.490196 0.462745
0.494118 0.517647 0.490196
0.517647 0.537255 0.513725
0.537255 0.556863 0.533333
0.568627 0.588235 0.564706
0.584314 0.607843 0.584314
0.615686 0.627451 0.603922
0.643137 0.654902 0.623529
0.666667 0.678431 0.647059
0.694118 0.705882 0.674510
0.713725 0.729412 0.698039
0.737255 0.752941 0.721569
0.764706 0.780392 0.749020
0.796078 0.800000 0.772549
0.815686 0.823529 0.792157
0.478431 0.509804 0.482353
0.517647 0.537255 0.513725
0.537255 0.556863 0.533333
0.568627 0.588235 0.564706
0.584314 0.607843 0.584314
0.607843 0.631373 0.603922
0.635294 0.658824 0.623529
0.658824 0.682353 0.647059
0.686275 0.701961 0.670588
0.713725 0.729412 0.698039
0.737255 0.752941 0.721569
0.760784 0.776471 0.745098
0.788235 0.803922 0.772549
0.811765 0.823529 0.792157
0.839216 0.850980 0.819608
0.866667 0.870588 0.843137
0.529412 0.560784 0.533333
0.552941 0.584314 0.556863
0.584314 0.607843 0.584314
0.607843 0.631373 0.603922
0.631373 0.654902 0.619608
0.658824 0.682353 0.647059
0.682353 0.705882 0.670588
0.709804 0.733333 0.698039
0.733333 0.756863 0.721569
0.760784 0.776471 0.745098
0.788235 0.803922 0.772549
0.811765 0.823529 0.792157
0.835294 0.847059 0.815686
0.862745 0.874510 0.843137
0.882353 0.898039 0.866667
0.913725 0.917647 0.890196
0.580392 0.611765 0.584314
0.603922 0.635294 0.603922
0.623529 0.658824 0.619608
0.658824 0.682353 0.647059
0.682353 0.705882 0.670588
0.705882 0.729412 0.694118
0.733333 0.756863 0.721569
0.752941 0.776471 0.745098
0.776471 0.800000 0.764706
0.803922 0.827451 0.792157
0.835294 0.847059 0.815686
0.862745 0.874510 0.843137
0.882353 0.898039 0.866667
0.905882 0.921569 0.890196
0.933333 0.949020 0.917647
0.956863 0.972549 0.941176
0.000000 0.000000 0.000000
0.000000 0.000000 0.000000
0.000000 0.000000 0.000000
0.000000 0.000000 0.000000
0.000000 0.000000 0.000000
0.007843 0.011765 0.000000
0.035294 0.039216 0.027451
0.058824 0.062745 0.050980
0.086275 0.090196 0.078431
0.109804 0.109804 0.101961
0.133333 0.133333 0.125490
0.164706 0.156863 0.152941
0.188235 0.180392 0.176471
0.211765 0.203922 0.196078
0.239216 0.231373 0.215686
0.262745 0.254902 0.239216
0.000000 0.000000 0.000000
0.000000 0.000000 0.000000
0.000000 0.000000 0.000000
0.003922 0.015686 0.000000
0.031373 0.043137 0.027451
0.058824 0.062745 0.050980
0.082353 0.082353 0.074510
0.109804 0.109804 0.101961
0.133333 0.133333 0.125490
0.160784 0.160784 0.152941
0.184314 0.184314 0.176471
0.211765 0.203922 0.196078
0.239216 0.231373 0.215686
0.262745 0.254902 0.239216
0.286275 0.278431 0.262745
0.313725 0.305882 0.290196
0.000000 0.000000 0.000000
0.003922 0.015686 0.000000
0.031373 0.043137 0.027451
0.054902 0.062745 0.050980
0.074510 0.086275 0.074510
0.109804 0.109804 0.101961
0.133333 0.133333 0.125490
0.156863 0.156863 0.149020
0.184314 0.184314 0.176471
0.203922 0.207843 0.196078
0.227451 0.231373 0.211765
0.254902 0.258824 0.239216
0.286275 0.278431 0.262745
0.313725 0.305882 0.290196
0.333333 0.329412 0.313725
0.352941 0.345098 0.329412
0.027451 0.035294 0.023529
0.054902 0.062745 0.050980
0.074510 0.086275 0.074510
0.098039 0.109804 0.098039
0.125490 0.137255 0.125490
0.149020 0.160784 0.149020
0.184314 0.184314 0.176471
0.203922 0.207843 0.196078
0.227451 0.231373 0.211765
0.254902 0.258824 0.239216
0.278431 0.282353 0.262745
0.301961 0.305882 0.286275
0.329412 0.333333 0.313725
0.352941 0.345098 0.329412
0.376471 0.368627 0.352941
0.403922 0.396078 0.380392
0.074510 0.086275 0.074510
0.098039 0.109804 0.098039
0.125490 0.137255 0.125490
0.149020 0.160784 0.149020
0.172549 0.184314 0.168627
0.200000 0.211765 0.196078
0.223529 0.235294 0.211765
0.254902 0.258824 0.239216
0.278431 0.282353 0.262745
0.301961 0.305882 0.286275
0.329412 0.333333 0.313725
0.345098 0.349020 0.329412
0.368627 0.372549 0.352941
0.396078 0.400000 0.380392
0.427451 0.419608 0.403922
0.450980 0.443137 0.427451
0.121569 0.141176 0.125490
0.149020 0.160784 0.149020
0.172549 0.184314 0.168627
0.200000 0.211765 0.196078
0.223529 0.235294 0.211765
0.243137 0.258824 0.235294
0.270588 0.286275 0.262745
0.294118 0.305882 0.286275
0.321569 0.321569 0.301961
0.345098 0.349020 0.329412
0.368627 0.372549 0.352941
0.396078 0.400000 0.380392
0.419608 0.423529 0.403922
0.443137 0.447059 0.427451
0.470588 0.474510 0.454902
0.498039 0.494118 0.478431
0.164706 0.184314 0.168627
0.188235 0.207843 0.192157
0.223529 0.235294 0.211765
0.243137 0.258824 0.235294
0.270588 0.286275 0.262745
0.294118 0.305882 0.286275
0.313725 0.325490 0.301961
0.341176 0.352941 0.329412
0.364706 0.376471 0.352941
0.392157 0.396078 0.376471
0.419608 0.423529 0.403922
0.443137 0.447059 0.427451
0.466667 0.470588 0.450980
0.494118 0.498039 0.478431
0.517647 0.517647 0.501961
0.545098 0.545098 0.529412
0.215686 0.239216 0.211765
0.239216 0.258824 0.235294
0.258824 0.278431 0.254902
0.294118 0.305882 0.286275
0.313725 0.325490 0.301961
0.337255 0.349020 0.325490
0.364706 0.376471 0.352941
0.388235 0.400000 0.376471
0.415686 0.427451 0.403922
0.435294 0.450980 0.427451
0.466667 0.470588 0.450980
0.494118 0.498039 0.478431
0.517647 0.517647 0.501961
0.537255 0.541176 0.521569
0.564706 0.568627 0.549020
0.588235 0.592157 0.572549
0.258824 0.278431 0.254902
0.290196 0.309804 0.286275
0.305882 0.329412 0.301961
0.329412 0.352941 0.325490
0.364706 0.376471 0.352941
0.388235 0.400000 0.376471
0.407843 0.423529 0.400000
0.435294 0.450980 0.427451
0.458824 0.470588 0.450980
0.486275 0.498039 0.478431
0.509804 0.521569 0.501961
0.537255 0.541176 0.521569
0.564706 0.568627 0.549020
0.588235 0.592157 0.572549
0.611765 0.615686 0.596078
0.639216 0.643137 0.623529
0.305882 0.329412 0.301961
0.329412 0.352941 0.325490
0.356863 0.380392 0.352941
0.380392 0.403922 0.376471
0.403922 0.423529 0.400000
0.435294 0.450980 0.427451
0.458824 0.470588 0.450980
0.482353 0.494118 0.474510
0.509804 0.521569 0.501961
0.533333 0.545098 0.521569
0.556863 0.568627 0.545098
0.588235 0.592157 0.572549
0.611765 0.615686 0.596078
0.639216 0.643137 0.623529
0.662745 0.666667 0.647059
0.686275 0.686275 0.670588
0.352941 0.376471 0.349020
0.380392 0.403922 0.376471
0.403922 0.423529 0.400000
0.427451 0.447059 0.423529
0.454902 0.474510 0.450980
0.482353 0.494118 0.474510
0.509804 0.521569 0.501961
0.533333 0.545098 0.521569
0.556863 0.568627 0.545098
0.584314 0.596078 0.572549
0.603922 0.619608 0.596078
0.627451 0.639216 0.619608
0.662745 0.666667 0.647059
0.686275 0.686275 0.670588
0.705882 0.709804 0.690196
0.733333 0.741176 0.709804
0.403922 0.423529 0.400000
0.427451 0.447059 0.423529
0.454902 0.474510 0.450980
0.474510 0.498039 0.474510
0.498039 0.521569 0.494118
0.525490 0.549020 0.521569
0.556863 0.568627 0.545098
0.576471 0.592157 0.568627
0.603922 0.619608 0.596078
0.627451 0.639216 0.619608
0.654902 0.666667 0.647059
0.678431 0.690196 0.670588
0.701961 0.713725 0.690196
0.733333 0.741176 0.709804
0.756863 0.760784 0.733333
0.776471 0.780392 0.752941
0.454902 0.474510 0.450980
0.474510 0.498039 0.474510
0.498039 0.521569 0.494118
0.525490 0.549020 0.521569
0.549020 0.572549 0.545098
0.572549 0.592157 0.568627
0.600000 0.619608 0.596078
0.627451 0.639216 0.619608
0.650980 0.662745 0.643137
0.678431 0.690196 0.670588
0.701961 0.713725 0.690196
0.729412 0.741176 0.709804
0.752941 0.764706 0.733333
0.768627 0.784314 0.752941
0.807843 0.811765 0.784314
0.827451 0.831373 0.803922
0.494118 0.525490 0.494118
0.521569 0.545098 0.517647
0.549020 0.572549 0.545098
0.572549 0.592157 0.568627
0.600000 0.619608 0.596078
0.623529 0.643137 0.619608
0.643137 0.666667 0.643137
0.670588 0.694118 0.670588
0.701961 0.713725 0.690196
0.721569 0.733333 0.701961
0.752941 0.764706 0.733333
0.768627 0.784314 0.752941
0.792157 0.807843 0.776471
0.819608 0.835294 0.803922
0.843137 0.858824 0.827451
0.878431 0.882353 0.854902
0.541176 0.572549 0.545098
0.564706 0.596078 0.568627
0.596078 0.615686 0.592157
0.623529 0.643137 0.619608
0.643137 0.666667 0.643137
0.662745 0.686275 0.658824
0.694118 0.717647 0.690196
0.713725 0.737255 0.701961
0.745098 0.768627 0.733333
0.768627 0.784314 0.752941
0.792157 0.807843 0.776471
0.819608 0.835294 0.803922
0.843137 0.858824 0.827451
0.866667 0.878431 0.847059
0.894118 0.905882 0.874510
0.917647 0.929412 0.898039
0.588235 0.619608 0.592157
0.615686 0.647059 0.619608
0.639216 0.670588 0.643137
0.662745 0.686275 0.658824
0.694118 0.717647 0.690196
0.713725 0.737255 0.701961
0.737255 0.760784 0.725490
0.764706 0.788235 0.752941
0.788235 0.811765 0.776471
0.815686 0.839216 0.803922
0.843137 0.858824 0.827451
0.866667 0.878431 0.847059
0.894118 0.905882 0.874510
0.917647 0.929412 0.898039
0.937255 0.952941 0.921569
0.964706 0.980392 0.949020
0.000000 0.000000 0.000000
0.000000 0.000000 0.000000
0.000000 0.000000 0.000000
0.000000 0.000000 0.000000
0.000000 0.000000 0.000000
0.023529 0.023529 0.015686
0.050980 0.050980 0.043137
0.066667 0.070588 0.058824
0.090196 0.094118 0.082353
0.117647 0.121569 0.109804
0.141176 0.141176 0.133333
0.172549 0.160784 0.156863
0.200000 0.188235 0.184314
0.219608 0.211765 0.207843
0.243137 0.235294 0.231373
0.270588 0.262745 0.258824
0.000000 0.000000 0.000000
0.000000 0.000000 0.000000
0.000000 0.003922 0.000000
0.015686 0.027451 0.015686
0.035294 0.047059 0.031373
0.066667 0.070588 0.058824
0.090196 0.094118 0.082353
0.113725 0.117647 0.105882
0.141176 0.141176 0.133333
0.164706 0.164706 0.156863
0.192157 0.192157 0.184314
0.215686 0.215686 0.207843
0.243137 0.235294 0.231373
0.270588 0.262745 0.258824
0.294118 0.286275 0.278431
0.317647 0.309804 0.294118
0.000000 0.000000 0.000000
0.015686 0.027451 0.015686
0.035294 0.047059 0.031373
0.062745 0.074510 0.058824
0.086275 0.094118 0.082353
0.109804 0.117647 0.105882
0.141176 0.141176 0.133333
0.164706 0.164706 0.156863
0.188235 0.188235 0.180392
0.215686 0.215686 0.207843
0.239216 0.239216 0.231373
0.258824 0.262745 0.250980
0.294118 0.286275 0.278431
0.317647 0.309804 0.294118
0.345098 0.337255 0.321569
0.368627 0.360784 0.345098
0.035294 0.047059 0.031373
0.058824 0.070588 0.054902
0.086275 0.094118 0.082353
0.109804 0.117647 0.105882
0.137255 0.145098 0.133333
0.156863 0.168627 0.156863
0.188235 0.188235 0.180392
0.215686 0.215686 0.207843
0.239216 0.239216 0.231373
0.258824 0.262745 0.250980
0.286275 0.290196 0.278431
0.309804 0.313725 0.294118
0.333333 0.337255 0.317647
0.368627 0.360784 0.345098
0.388235 0.384314 0.368627
0.415686 0.411765 0.396078
0.078431 0.098039 0.082353
0.109804 0.117647 0.105882
0.129412 0.141176 0.129412
0.156863 0.168627 0.156863
0.180392 0.192157 0.180392
0.203922 0.215686 0.203922
0.231373 0.243137 0.231373
0.258824 0.262745 0.250980
0.286275 0.290196 0.278431
0.309804 0.313725 0.294118
0.333333 0.337255 0.317647
0.360784 0.364706 0.345098
0.384314 0.388235 0.368627
0.407843 0.407843 0.392157
0.439216 0.435294 0.419608
0.462745 0.454902 0.439216
0.125490 0.145098 0.129412
0.156863 0.168627 0.156863
0.180392 0.192157 0.180392
0.203922 0.215686 0.203922
0.231373 0.243137 0.231373
0.254902 0.266667 0.250980
0.278431 0.286275 0.274510
0.305882 0.317647 0.294118
0.333333 0.337255 0.317647
0.356863 0.360784 0.341176
0.384314 0.388235 0.368627
0.407843 0.407843 0.392157
0.435294 0.435294 0.419608
0.454902 0.458824 0.439216
0.478431 0.482353 0.462745
0.513725 0.505882 0.490196
0.176471 0.196078 0.180392
0.196078 0.219608 0.203922
0.227451 0.239216 0.223529
0.254902 0.266667 0.250980
0.278431 0.286275 0.274510
0.305882 0.317647 0.294118
0.325490 0.341176 0.317647
0.349020 0.360784 0.341176
0.376471 0.388235 0.368627
0.407843 0.407843 0.392157
0.427451 0.431373 0.411765
0.454902 0.458824 0.439216
0.478431 0.482353 0.462745
0.505882 0.509804 0.490196
0.529412 0.533333 0.513725
0.549020 0.552941 0.533333
0.219608 0.239216 0.223529
0.247059 0.266667 0.250980
0.270588 0.290196 0.274510
0.298039 0.313725 0.290196
0.325490 0.341176 0.317647
0.349020 0.360784 0.341176
0.376471 0.388235 0.368627
0.400000 0.411765 0.392157
0.423529 0.435294 0.411765
0.450980 0.462745 0.439216
0.478431 0.482353 0.462745
0.498039 0.501961 0.482353
0.529412 0.533333 0.513725
0.549020 0.552941 0.533333
0.572549 0.572549 0.556863
0.600000 0.600000 0.584314
0.270588 0.290196 0.274510
0.294118 0.313725 0.290196
0.321569 0.341176 0.317647
0.345098 0.364706 0.341176
0.372549 0.384314 0.364706
0.400000 0.411765 0.392157
0.423529 0.435294 0.411765
0.443137 0.454902 0.431373
0.474510 0.486275 0.462745
0.490196 0.505882 0.482353
0.521569 0.537255 0.513725
0.549020 0.552941 0.533333
0.572549 0.572549 0.556863
0.600000 0.600000 0.584314
0.619608 0.623529 0.603922
0.643137 0.647059 0.627451
0.317647 0.337255 0.313725
0.345098 0.364706 0.341176
0.364706 0.388235 0.364706
0.392157 0.415686 0.392157
0.415686 0.439216 0.411765
0.443137 0.454902 0.431373
0.474510 0.486275 0.462745
0.490196 0.505882 0.482353
0.513725 0.525490 0.505882
0.541176 0.552941 0.533333
0.564706 0.576471 0.556863
0.588235 0.600000 0.576471
0.619608 0.623529 0.603922
0.643137 0.647059 0.627451
0.670588 0.674510 0.654902
0.694118 0.698039 0.678431
0.364706 0.388235 0.364706
0.384314 0.407843 0.380392
0.415686 0.439216 0.411765
0.435294 0.458824 0.431373
0.458824 0.478431 0.454902
0.486275 0.505882 0.482353
0.513725 0.525490 0.505882
0.541176 0.552941 0.533333
0.564706 0.576471 0.556863
0.588235 0.600000 0.576471
0.615686 0.627451 0.603922
0.639216 0.650980 0.627451
0.666667 0.670588 0.650980
0.694118 0.698039 0.678431
0.717647 0.721569 0.701961
0.745098 0.749020 0.729412
0.415686 0.439216 0.411765
0.435294 0.458824 0.431373
0.458824 0.478431 0.454902
0.486275 0.505882 0.482353
0.509804 0.529412 0.505882
0.529412 0.552941 0.529412
0.564706 0.576471 0.556863
0.588235 0.600000 0.576471
0.615686 0.627451 0.603922
0.639216 0.650980 0.627451
0.658824 0.674510 0.650980
0.686275 0.701961 0.678431
0.709804 0.721569 0.701961
0.741176 0.741176 0.725490
0.768627 0.768627 0.752941
0.788235 0.792157 0.772549
0.458824 0.478431 0.454902
0.486275 0.505882 0.482353
0.509804 0.529412 0.505882
0.529412 0.552941 0.529412
0.556863 0.580392 0.556863
0.580392 0.603922 0.576471
0.603922 0.627451 0.600000
0.639216 0.650980 0.627451
0.658824 0.674510 0.650980
0.682353 0.694118 0.674510
0.709804 0.721569 0.701961
0.733333 0.745098 0.725490
0.760784 0.772549 0.752941
0.784314 0.796078 0.772549
0.811765 0.815686 0.788235
0.839216 0.843137 0.815686
0.501961 0.533333 0.505882
0.529412 0.552941 0.529412
0.552941 0.576471 0.549020
0.580392 0.603922 0.576471
0.603922 0.627451 0.600000
0.631373 0.654902 0.627451
0.654902 0.674510 0.650980
0.678431 0.698039 0.674510
0.709804 0.721569 0.701961
0.733333 0.745098 0.725490
0.756863 0.768627 0.745098
0.784314 0.796078 0.772549
0.807843 0.819608 0.788235
0.827451 0.843137 0.811765
0.854902 0.870588 0.839216
0.886275 0.890196 0.862745
0.549020 0.580392 0.549020
0.576471 0.607843 0.576471
0.603922 0.627451 0.600000
0.627451 0.647059 0.623529
0.654902 0.674510 0.650980
0.678431 0.698039 0.674510
0.705882 0.725490 0.701961
0.725490 0.749020 0.725490
0.749020 0.772549 0.745098
0.784314 0.796078 0.772549
0.807843 0.819608 0.788235
0.827451 0.843137 0.811765
0.854902 0.870588 0.839216
0.878431 0.894118 0.862745
0.898039 0.913725 0.882353
0.929412 0.945098 0.913725
0.596078 0.627451 0.600000
0.619608 0.650980 0.623529
0.647059 0.678431 0.650980
0.678431 0.698039 0.674510
0.698039 0.721569 0.698039
0.725490 0.749020 0.725490
0.749020 0.772549 0.745098
0.772549 0.796078 0.768627
0.800000 0.823529 0.788235
0.823529 0.847059 0.811765
0.854902 0.870588 0.839216
0.878431 0.894118 0.862745
0.898039 0.913725 0.882353
0.929412 0.945098 0.913725
0.949020 0.960784 0.929412
0.972549 0.984314 0.952941
0.000000 0.000000 0.000000
0.000000 0.000000 0.000000
0.000000 0.000000 0.000000
0.000000 0.000000 0.000000
0.003922 0.007843 0.000000
0.031373 0.035294 0.023529
0.054902 0.054902 0.047059
0.082353 0.082353 0.074510
0.105882 0.105882 0.098039
0.129412 0.129412 0.121569
0.156863 0.156863 0.149020
0.184314 0.176471 0.168627
0.207843 0.200000 0.192157
0.235294 0.227451 0.219608
0.258824 0.250980 0.243137
0.274510 0.266667 0.262745
0.000000 0.000000 0.000000
0.000000 0.000000 0.000000
0.000000 0.007843 0.000000
0.027451 0.035294 0.023529
0.047059 0.058824 0.047059
0.078431 0.078431 0.070588
0.105882 0.105882 0.098039
0.129412 0.129412 0.121569
0.149020 0.152941 0.141176
0.176471 0.180392 0.168627
0.200000 0.203922 0.192157
0.227451 0.231373 0.219608
0.258824 0.250980 0.243137
0.274510 0.266667 0.262745
0.305882 0.298039 0.294118
0.325490 0.317647 0.309804
0.000000 0.007843 0.000000
0.027451 0.035294 0.023529
0.047059 0.058824 0.047059
0.070588 0.082353 0.070588
0.098039 0.109804 0.098039
0.121569 0.133333 0.121569
0.149020 0.152941 0.141176
0.176471 0.180392 0.168627
0.200000 0.203922 0.192157
0.219608 0.219608 0.211765
0.250980 0.250980 0.243137
0.270588 0.270588 0.262745
0.301961 0.301961 0.294118
0.325490 0.317647 0.309804
0.349020 0.341176 0.333333
0.376471 0.368627 0.360784
0.047059 0.058824 0.047059
0.070588 0.082353 0.070588
0.094118 0.105882 0.094118
0.121569 0.133333 0.121569
0.145098 0.156863 0.141176
0.172549 0.184314 0.168627
0.196078 0.203922 0.192157
0.219608 0.219608 0.211765
0.250980 0.250980 0.243137
0.270588 0.270588 0.262745
0.294118 0.294118 0.286275
0.321569 0.321569 0.309804
0.341176 0.345098 0.333333
0.372549 0.364706 0.356863
0.400000 0.392157 0.376471
0.423529 0.415686 0.400000
0.086275 0.109804 0.094118
0.121569 0.133333 0.121569
0.145098 0.156863 0.141176
0.160784 0.172549 0.160784
0.196078 0.203922 0.192157
0.211765 0.223529 0.211765
0.235294 0.247059 0.235294
0.270588 0.270588 0.262745
0.294118 0.294118 0.286275
0.321569 0.321569 0.309804
0.341176 0.345098 0.333333
0.364706 0.368627 0.356863
0.392157 0.396078 0.376471
0.415686 0.419608 0.400000
0.443137 0.439216 0.423529
0.470588 0.466667 0.450980
0.137255 0.156863 0.141176
0.156863 0.176471 0.160784
0.196078 0.203922 0.192157
0.211765 0.223529 0.211765
0.235294 0.247059 0.235294
0.262745 0.274510 0.262745
0.286275 0.298039 0.286275
0.309804 0.321569 0.305882
0.341176 0.345098 0.333333
0.364706 0.368627 0.356863
0.392157 0.396078 0.376471
0.415686 0.419608 0.400000
0.439216 0.443137 0.423529
0.466667 0.470588 0.450980
0.490196 0.490196 0.474510
0.517647 0.509804 0.494118
0.180392 0.200000 0.184314
0.207843 0.227451 0.211765
0.235294 0.247059 0.235294
0.262745 0.274510 0.262745
0.286275 0.298039 0.286275
0.309804 0.321569 0.305882
0.337255 0.349020 0.333333
0.360784 0.368627 0.356863
0.380392 0.396078 0.372549
0.415686 0.419608 0.400000
0.439216 0.443137 0.423529
0.462745 0.462745 0.447059
0.490196 0.490196 0.474510
0.509804 0.513725 0.494118
