public/luts/noir.cube
# Studiio — look « noir », genere par scripts/lut/generer-luts.mjs
# Source : les coefficients de LOOKS_RENDUS, calcules par ffmpeg lui-meme.
# Aucune LUT tierce, aucun telechargement : provenance et licence du depot.
LUT_3D_SIZE 6
DOMAIN_MIN 0.0 0.0 0.0
DOMAIN_MAX 1.0 1.0 1.0
0.000000 0.000000 0.000000
0.000000 0.000000 0.000000
0.027451 0.027451 0.019608
0.101961 0.101961 0.094118
0.176471 0.168627 0.152941
0.247059 0.243137 0.227451
0.019608 0.031373 0.019608
0.094118 0.105882 0.094118
0.168627 0.172549 0.152941
0.243137 0.243137 0.227451
0.313725 0.317647 0.298039
0.396078 0.388235 0.372549
0.152941 0.172549 0.149020
0.235294 0.247059 0.227451
0.309804 0.321569 0.298039
0.388235 0.392157 0.372549
0.462745 0.462745 0.447059
0.533333 0.537255 0.517647
0.298039 0.321569 0.294118
0.372549 0.392157 0.368627
0.450980 0.462745 0.439216
0.521569 0.537255 0.513725
0.607843 0.611765 0.592157
0.674510 0.682353 0.650980
0.443137 0.466667 0.439216
0.517647 0.537255 0.513725
0.584314 0.607843 0.584314
0.666667 0.678431 0.647059
0.737255 0.752941 0.721569
0.815686 0.823529 0.792157
0.580392 0.611765 0.584314
0.658824 0.682353 0.647059
0.733333 0.756863 0.721569
0.803922 0.827451 0.792157
0.882353 0.898039 0.866667
0.956863 0.972549 0.941176
0.000000 0.000000 0.000000
0.000000 0.000000 0.000000
0.054902 0.054902 0.047059
0.129412 0.129412 0.121569
0.207843 0.200000 0.192157
0.274510 0.266667 0.262745
0.047059 0.058824 0.047059
0.121569 0.133333 0.121569
0.196078 0.203922 0.192157
0.270588 0.270588 0.262745
0.341176 0.345098 0.333333
0.423529 0.415686 0.400000
0.180392 0.200000 0.184314
0.262745 0.274510 0.262745
0.337255 0.349020 0.333333
0.415686 0.419608 0.400000
0.490196 0.490196 0.474510
0.560784 0.564706 0.545098
0.325490 0.345098 0.329412
0.400000 0.419608 0.396078
0.478431 0.490196 0.466667
0.549020 0.564706 0.541176
0.635294 0.639216 0.619608
0.705882 0.709804 0.690196
0.466667 0.498039 0.466667
0.545098 0.564706 0.541176
0.611765 0.635294 0.607843
0.694118 0.705882 0.682353
0.764706 0.776471 0.756863
0.843137 0.847059 0.827451
0.607843 0.639216 0.607843
0.686275 0.709804 0.682353
0.760784 0.780392 0.756863
0.831373 0.854902 0.827451
0.909804 0.925490 0.894118
0.984314 1.000000 0.968627
0.000000 0.000000 0.000000
0.003922 0.011765 0.007843
0.082353 0.082353 0.082353
0.156863 0.156863 0.149020
0.235294 0.227451 0.219608
0.305882 0.298039 0.294118
0.074510 0.086275 0.082353
0.149020 0.160784 0.149020
0.223529 0.231373 0.219608
0.301961 0.301961 0.294118
0.368627 0.372549 0.360784
0.450980 0.443137 0.435294
0.207843 0.227451 0.211765
0.294118 0.305882 0.294118
0.364706 0.376471 0.360784
0.435294 0.447059 0.435294
0.517647 0.517647 0.509804
0.588235 0.592157 0.580392
0.352941 0.372549 0.356863
0.427451 0.447059 0.431373
0.505882 0.517647 0.501961
0.576471 0.588235 0.576471
0.662745 0.666667 0.647059
0.733333 0.737255 0.717647
0.494118 0.521569 0.501961
0.572549 0.592157 0.576471
0.643137 0.666667 0.643137
0.721569 0.733333 0.709804
0.792157 0.803922 0.784314
0.870588 0.874510 0.854902
0.639216 0.670588 0.643137
0.705882 0.737255 0.709804
0.788235 0.807843 0.784314
0.858824 0.882353 0.854902
0.937255 0.952941 0.929412
1.000000 1.000000 1.000000
0.000000 0.000000 0.000000
0.031373 0.039216 0.035294
0.109804 0.109804 0.109804
0.184314 0.184314 0.184314
0.262745 0.250980 0.254902
0.333333 0.325490 0.329412
0.098039 0.117647 0.109804
0.176471 0.184314 0.184314
0.250980 0.258824 0.254902
0.329412 0.329412 0.329412
0.396078 0.400000 0.388235
0.478431 0.470588 0.462745
0.239216 0.258824 0.250980
0.321569 0.333333 0.329412
0.392157 0.403922 0.388235
0.462745 0.474510 0.462745
0.545098 0.545098 0.537255
0.615686 0.619608 0.607843
0.380392 0.400000 0.384314
0.454902 0.474510 0.458824
0.533333 0.545098 0.529412
0.603922 0.615686 0.603922
0.678431 0.690196 0.678431
0.760784 0.764706 0.752941
0.521569 0.549020 0.529412
0.600000 0.619608 0.603922
0.670588 0.694118 0.678431
0.752941 0.760784 0.749020
0.819608 0.831373 0.819608
0.898039 0.901961 0.882353
0.666667 0.694118 0.678431
0.741176 0.768627 0.749020
0.815686 0.835294 0.819608
0.886275 0.909804 0.882353
0.964706 0.980392 0.956863
1.000000 1.000000 1.000000
0.000000 0.000000 0.000000
0.058824 0.066667 0.070588
0.137255 0.137255 0.137255
0.211765 0.211765 0.211765
0.290196 0.278431 0.282353
0.360784 0.352941 0.356863
0.125490 0.141176 0.145098
0.203922 0.211765 0.211765
0.278431 0.286275 0.282353
0.356863 0.356863 0.356863
0.427451 0.427451 0.427451
0.505882 0.494118 0.498039
0.266667 0.286275 0.278431
0.333333 0.352941 0.345098
0.423529 0.431373 0.427451
0.490196 0.501961 0.498039
0.572549 0.572549 0.572549
0.643137 0.647059 0.635294
0.407843 0.427451 0.419608
0.482353 0.498039 0.494118
0.560784 0.568627 0.564706
0.631373 0.643137 0.631373
0.705882 0.717647 0.705882
0.788235 0.792157 0.780392
0.549020 0.576471 0.564706
0.627451 0.647059 0.631373
0.698039 0.721569 0.705882
0.780392 0.788235 0.776471
0.850980 0.862745 0.850980
0.921569 0.933333 0.917647
0.694118 0.721569 0.705882
0.764706 0.796078 0.776471
0.847059 0.866667 0.850980
0.913725 0.933333 0.917647
0.992157 1.000000 0.992157
1.000000 1.000000 1.000000
0.015686 0.023529 0.031373
0.086275 0.094118 0.098039
0.164706 0.164706 0.172549
0.239216 0.235294 0.247059
0.309804 0.309804 0.317647
0.388235 0.380392 0.384314
0.152941 0.168627 0.172549
0.231373 0.239216 0.247059
0.305882 0.313725 0.317647
0.384314 0.384314 0.384314
0.454902 0.454902 0.454902
0.537255 0.525490 0.529412
0.294118 0.309804 0.313725
0.364706 0.384314 0.388235
0.450980 0.458824 0.454902
0.521569 0.533333 0.529412
0.600000 0.600000 0.600000
0.670588 0.670588 0.670588
0.435294 0.454902 0.447059
0.509804 0.525490 0.521569
0.580392 0.600000 0.592157
0.658824 0.670588 0.666667
0.733333 0.741176 0.741176
0.815686 0.815686 0.815686
0.576471 0.603922 0.592157
0.654902 0.674510 0.666667
0.725490 0.745098 0.741176
0.807843 0.815686 0.811765
0.878431 0.890196 0.878431
0.949020 0.960784 0.945098
0.721569 0.749020 0.741176
0.792157 0.823529 0.811765
0.874510 0.894118 0.878431
0.941176 0.960784 0.945098
1.000000 1.000000 1.000000
1.000000 1.000000 1.000000
