public/luts/nuit.cube
# Studiio — look « nuit », genere par scripts/lut/generer-luts.mjs
# Source : les coefficients de LOOKS_RENDUS, calcules par ffmpeg lui-meme.
# Aucune LUT tierce, aucun telechargement : provenance et licence du depot.
LUT_3D_SIZE 6
DOMAIN_MIN 0.0 0.0 0.0
DOMAIN_MAX 1.0 1.0 1.0
0.000000 0.000000 0.082353
0.000000 0.000000 0.082353
0.168627 0.000000 0.082353
0.392157 0.000000 0.062745
0.596078 0.000000 0.043137
0.780392 0.000000 0.003922
0.000000 0.058824 0.082353
0.019608 0.074510 0.082353
0.215686 0.094118 0.078431
0.435294 0.113725 0.058824
0.635294 0.129412 0.035294
0.823529 0.149020 0.000000
0.000000 0.262745 0.078431
0.066667 0.282353 0.074510
0.262745 0.305882 0.074510
0.478431 0.321569 0.054902
0.666667 0.341176 0.027451
0.854902 0.360784 0.000000
0.000000 0.470588 0.054902
0.125490 0.490196 0.054902
0.317647 0.513725 0.054902
0.509804 0.525490 0.054902
0.701961 0.549020 0.027451
0.898039 0.564706 0.031373
0.000000 0.682353 0.023529
0.168627 0.701961 0.019608
0.360784 0.713725 0.031373
0.549020 0.733333 0.035294
0.737255 0.752941 0.043137
0.921569 0.768627 0.062745
0.015686 0.890196 0.015686
0.211765 0.905882 0.027451
0.392157 0.925490 0.050980
0.580392 0.945098 0.062745
0.772549 0.960784 0.082353
0.960784 0.976471 0.098039
0.000000 0.000000 0.145098
0.000000 0.000000 0.109804
0.184314 0.000000 0.129412
0.407843 0.000000 0.129412
0.603922 0.000000 0.125490
0.784314 0.000000 0.101961
0.000000 0.066667 0.129412
0.027451 0.082353 0.152941
0.231373 0.105882 0.152941
0.447059 0.117647 0.156863
0.635294 0.137255 0.125490
0.827451 0.149020 0.137255
0.000000 0.270588 0.164706
0.090196 0.294118 0.164706
0.290196 0.305882 0.184314
0.482353 0.325490 0.176471
0.670588 0.345098 0.152941
0.870588 0.364706 0.176471
0.000000 0.478431 0.176471
0.133333 0.498039 0.168627
0.329412 0.509804 0.180392
0.513725 0.529412 0.188235
0.713725 0.556863 0.196078
0.898039 0.572549 0.211765
0.000000 0.686275 0.176471
0.172549 0.701961 0.176471
0.356863 0.721569 0.188235
0.549020 0.745098 0.207843
0.745098 0.760784 0.227451
0.933333 0.776471 0.239216
0.019608 0.894118 0.188235
0.211765 0.917647 0.215686
0.400000 0.933333 0.227451
0.592157 0.949020 0.247059
0.780392 0.968627 0.262745
0.968627 0.984314 0.274510
0.000000 0.000000 0.301961
0.000000 0.000000 0.286275
0.192157 0.000000 0.309804
0.411765 0.000000 0.298039
0.603922 0.000000 0.301961
0.800000 0.000000 0.282353
0.000000 0.074510 0.309804
0.050980 0.094118 0.309804
0.254902 0.109804 0.325490
0.454902 0.125490 0.329412
0.647059 0.141176 0.301961
0.835294 0.156863 0.317647
0.000000 0.278431 0.329412
0.109804 0.298039 0.341176
0.305882 0.313725 0.341176
0.486275 0.337255 0.317647
0.678431 0.352941 0.337255
0.866667 0.368627 0.349020
0.000000 0.486275 0.352941
0.141176 0.501961 0.352941
0.329412 0.521569 0.333333
0.525490 0.537255 0.352941
0.717647 0.560784 0.372549
0.909804 0.580392 0.388235
0.000000 0.694118 0.356863
0.180392 0.709804 0.352941
0.368627 0.729412 0.364706
0.560784 0.745098 0.388235
0.749020 0.760784 0.400000
0.941176 0.784314 0.427451
0.027451 0.901961 0.372549
0.215686 0.917647 0.388235
0.403922 0.937255 0.407843
0.596078 0.960784 0.427451
0.784314 0.976471 0.439216
0.976471 0.992157 0.458824
0.000000 0.000000 0.435294
0.039216 0.000000 0.454902
0.231373 0.000000 0.466667
0.423529 0.000000 0.474510
0.615686 0.000000 0.478431
0.800000 0.000000 0.450980
0.000000 0.082353 0.466667
0.090196 0.098039 0.478431
0.270588 0.121569 0.490196
0.462745 0.133333 0.501961
0.650980 0.152941 0.470588
0.839216 0.168627 0.494118
0.000000 0.286275 0.501961
0.117647 0.309804 0.505882
0.305882 0.329412 0.474510
0.501961 0.341176 0.494118
0.686275 0.360784 0.513725
0.882353 0.372549 0.537255
0.000000 0.494118 0.529412
0.152941 0.513725 0.517647
0.345098 0.525490 0.509804
0.533333 0.545098 0.529412
0.713725 0.564706 0.545098
0.913725 0.584314 0.568627
0.000000 0.701961 0.529412
0.188235 0.717647 0.529412
0.376471 0.737255 0.552941
0.564706 0.752941 0.564706
0.756863 0.768627 0.584314
0.945098 0.788235 0.600000
0.031373 0.909804 0.552941
0.223529 0.925490 0.564706
0.411765 0.945098 0.584314
0.600000 0.960784 0.600000
0.792157 0.976471 0.619608
0.980392 0.996078 0.635294
0.000000 0.000000 0.603922
0.050980 0.000000 0.615686
0.235294 0.000000 0.623529
0.431373 0.000000 0.643137
0.623529 0.000000 0.654902
0.811765 0.000000 0.635294
0.000000 0.086275 0.631373
0.086275 0.105882 0.623529
0.286275 0.121569 0.635294
0.470588 0.141176 0.639216
0.658824 0.160784 0.650980
0.847059 0.176471 0.670588
0.000000 0.290196 0.654902
0.117647 0.305882 0.639216
0.321569 0.329412 0.658824
0.501961 0.352941 0.670588
0.698039 0.364706 0.694118
0.882353 0.384314 0.705882
0.000000 0.501961 0.686275
0.160784 0.517647 0.674510
0.349020 0.537255 0.686275
0.533333 0.556863 0.701961
0.729412 0.568627 0.721569
0.921569 0.592157 0.749020
0.003922 0.713725 0.701961
0.196078 0.725490 0.709804
0.384314 0.745098 0.721569
0.576471 0.760784 0.741176
0.764706 0.776471 0.764706
0.945098 0.800000 0.776471
0.047059 0.917647 0.721569
0.235294 0.933333 0.741176
0.419608 0.952941 0.764706
0.607843 0.968627 0.784314
0.796078 0.988235 0.796078
0.988235 1.000000 0.819608
0.000000 0.000000 0.745098
0.058824 0.000000 0.752941
0.250980 0.000000 0.772549
0.439216 0.000000 0.780392
0.627451 0.000000 0.796078
0.815686 0.000000 0.811765
0.000000 0.094118 0.772549
0.094118 0.109804 0.784314
0.282353 0.129412 0.796078
0.470588 0.149020 0.811765
0.666667 0.164706 0.835294
0.854902 0.184314 0.847059
0.000000 0.298039 0.792157
0.125490 0.313725 0.811765
0.325490 0.341176 0.835294
0.517647 0.356863 0.854902
0.705882 0.372549 0.870588
0.894118 0.392157 0.882353
0.000000 0.501961 0.835294
0.164706 0.521569 0.847059
0.356863 0.545098 0.866667
0.549020 0.560784 0.886275
0.729412 0.580392 0.898039
0.929412 0.600000 0.925490
0.019608 0.717647 0.874510
0.203922 0.733333 0.886275
0.392157 0.752941 0.905882
0.580392 0.768627 0.921569
0.768627 0.788235 0.933333
0.960784 0.803922 0.952941
0.047059 0.925490 0.905882
0.235294 0.945098 0.921569
0.431373 0.960784 0.941176
0.615686 0.976471 0.952941
0.811765 0.992157 0.976471
1.000000 1.000000 0.996078
