public/luts/nuit.cube
# Studiio — look « nuit », genere par scripts/lut/generer-luts.mjs
# Source : les coefficients de LOOKS_RENDUS, calcules par ffmpeg lui-meme.
# Aucune LUT tierce, aucun telechargement : provenance et licence du depot.
LUT_3D_SIZE 16
DOMAIN_MIN 0.0 0.0 0.0
DOMAIN_MAX 1.0 1.0 1.0
0.000000 0.000000 0.082353
0.000000 0.000000 0.082353
0.000000 0.000000 0.082353
0.000000 0.000000 0.082353
0.043137 0.000000 0.082353
0.109804 0.000000 0.082353
0.168627 0.000000 0.082353
0.247059 0.000000 0.074510
0.325490 0.000000 0.070588
0.392157 0.000000 0.062745
0.470588 0.000000 0.054902
0.533333 0.000000 0.054902
0.596078 0.000000 0.043137
0.658824 0.000000 0.031373
0.725490 0.000000 0.015686
0.780392 0.000000 0.003922
0.000000 0.000000 0.082353
0.000000 0.000000 0.082353
0.000000 0.000000 0.082353
0.000000 0.000000 0.082353
0.058824 0.000000 0.082353
0.117647 0.000000 0.082353
0.192157 0.000000 0.082353
0.258824 0.000000 0.074510
0.329412 0.000000 0.066667
0.411765 0.000000 0.058824
0.474510 0.000000 0.054902
0.545098 0.000000 0.054902
0.607843 0.000000 0.043137
0.670588 0.000000 0.027451
0.733333 0.003922 0.011765
0.800000 0.007843 0.000000
0.000000 0.000000 0.082353
0.000000 0.000000 0.082353
0.000000 0.003922 0.082353
0.003922 0.007843 0.082353
0.070588 0.019608 0.082353
0.133333 0.015686 0.082353
0.196078 0.027451 0.082353
0.278431 0.035294 0.074510
0.349020 0.035294 0.066667
0.427451 0.039216 0.058824
0.494118 0.050980 0.054902
0.556863 0.050980 0.050980
0.619608 0.062745 0.039216
0.686275 0.066667 0.023529
0.749020 0.074510 0.007843
0.807843 0.082353 0.000000
0.000000 0.058824 0.082353
0.000000 0.062745 0.082353
0.000000 0.066667 0.082353
0.019608 0.074510 0.082353
0.078431 0.082353 0.082353
0.152941 0.090196 0.082353
0.215686 0.094118 0.078431
0.294118 0.098039 0.070588
0.368627 0.109804 0.062745
0.435294 0.113725 0.058824
0.505882 0.113725 0.054902
0.568627 0.125490 0.050980
0.635294 0.129412 0.035294
0.690196 0.133333 0.023529
0.764706 0.141176 0.007843
0.823529 0.149020 0.000000
0.000000 0.125490 0.082353
0.000000 0.133333 0.082353
0.000000 0.141176 0.082353
0.027451 0.145098 0.082353
0.094118 0.149020 0.082353
0.152941 0.156863 0.082353
0.231373 0.160784 0.078431
0.301961 0.168627 0.070588
0.380392 0.172549 0.062745
0.454902 0.184314 0.054902
0.521569 0.188235 0.054902
0.580392 0.192157 0.047059
0.643137 0.200000 0.035294
0.705882 0.207843 0.019608
0.764706 0.207843 0.007843
0.831373 0.219608 0.000000
0.000000 0.196078 0.082353
0.000000 0.203922 0.082353
0.000000 0.207843 0.082353
0.047059 0.215686 0.082353
0.113725 0.219608 0.082353
0.172549 0.223529 0.082353
0.247059 0.231373 0.074510
0.321569 0.235294 0.070588
0.396078 0.247059 0.062745
0.466667 0.247059 0.054902
0.529412 0.258824 0.054902
0.592157 0.266667 0.043137
0.647059 0.270588 0.031373
0.717647 0.278431 0.015686
0.780392 0.282353 0.003922
0.839216 0.286275 0.000000
0.000000 0.262745 0.078431
0.000000 0.270588 0.078431
0.000000 0.282353 0.074510
0.066667 0.282353 0.074510
0.133333 0.290196 0.074510
0.200000 0.294118 0.074510
0.262745 0.305882 0.074510
0.329412 0.309804 0.066667
0.400000 0.313725 0.062745
0.478431 0.321569 0.054902
0.533333 0.325490 0.054902
0.600000 0.329412 0.043137
0.666667 0.341176 0.027451
0.729412 0.341176 0.015686
0.792157 0.352941 0.000000
0.854902 0.360784 0.000000
0.000000 0.337255 0.070588
0.000000 0.337255 0.070588
0.027451 0.349020 0.066667
0.094118 0.352941 0.066667
0.149020 0.352941 0.066667
0.219608 0.364706 0.066667
0.278431 0.372549 0.066667
0.349020 0.384314 0.062745
0.419608 0.384314 0.058824
0.482353 0.388235 0.054902
0.552941 0.400000 0.054902
0.607843 0.400000 0.043137
0.674510 0.403922 0.027451
0.741176 0.415686 0.011765
0.803922 0.415686 0.000000
0.862745 0.423529 0.007843
0.000000 0.403922 0.062745
0.000000 0.411765 0.062745
0.043137 0.415686 0.058824
0.113725 0.427451 0.058824
0.180392 0.431373 0.058824
0.235294 0.431373 0.058824
0.305882 0.443137 0.058824
0.368627 0.447059 0.058824
0.435294 0.450980 0.054902
0.498039 0.458824 0.054902
0.564706 0.462745 0.050980
0.627451 0.474510 0.035294
0.690196 0.474510 0.023529
0.749020 0.478431 0.015686
0.815686 0.494118 0.011765
0.878431 0.490196 0.015686
0.000000 0.470588 0.054902
0.003922 0.482353 0.054902
0.070588 0.486275 0.054902
0.125490 0.490196 0.054902
0.196078 0.498039 0.054902
0.258824 0.505882 0.054902
0.317647 0.513725 0.054902
0.384314 0.517647 0.054902
0.443137 0.521569 0.054902
0.509804 0.525490 0.054902
0.572549 0.533333 0.050980
0.639216 0.537255 0.039216
0.701961 0.549020 0.027451
0.764706 0.549020 0.019608
0.827451 0.556863 0.023529
0.898039 0.564706 0.031373
0.000000 0.549020 0.054902
0.011765 0.545098 0.054902
0.074510 0.552941 0.054902
0.145098 0.560784 0.050980
0.203922 0.568627 0.050980
0.270588 0.572549 0.050980
0.333333 0.580392 0.047059
0.400000 0.584314 0.047059
0.458824 0.592157 0.043137
0.525490 0.592157 0.050980
0.584314 0.603922 0.047059
0.650980 0.607843 0.043137
0.713725 0.611765 0.035294
0.780392 0.615686 0.027451
0.843137 0.627451 0.031373
0.901961 0.631373 0.043137
0.000000 0.611765 0.039216
0.031373 0.619608 0.039216
0.094118 0.627451 0.035294
0.152941 0.627451 0.035294
0.219608 0.635294 0.035294
0.286275 0.639216 0.035294
0.341176 0.643137 0.035294
0.407843 0.654902 0.035294
0.474510 0.658824 0.035294
0.533333 0.666667 0.039216
0.600000 0.670588 0.047059
0.662745 0.678431 0.047059
0.733333 0.686275 0.039216
0.788235 0.686275 0.043137
0.854902 0.694118 0.043137
0.917647 0.701961 0.054902
0.000000 0.682353 0.023529
0.035294 0.686275 0.023529
0.105882 0.694118 0.023529
0.168627 0.701961 0.019608
0.227451 0.701961 0.019608
0.294118 0.713725 0.023529
0.360784 0.713725 0.031373
0.415686 0.717647 0.027451
0.486275 0.729412 0.031373
0.549020 0.733333 0.035294
0.619608 0.745098 0.035294
0.674510 0.745098 0.043137
0.737255 0.752941 0.043137
0.800000 0.764706 0.054902
0.854902 0.764706 0.054902
0.921569 0.768627 0.062745
0.000000 0.745098 0.011765
0.054902 0.760784 0.007843
0.117647 0.756863 0.007843
0.180392 0.768627 0.011765
0.247059 0.772549 0.015686
0.301961 0.776471 0.011765
0.368627 0.788235 0.031373
0.435294 0.792157 0.027451
0.490196 0.792157 0.031373
0.560784 0.803922 0.043137
0.623529 0.807843 0.050980
0.678431 0.811765 0.043137
0.745098 0.823529 0.054902
0.811765 0.827451 0.062745
0.874510 0.839216 0.074510
0.937255 0.839216 0.078431
0.000000 0.819608 0.000000
0.062745 0.823529 0.003922
0.129412 0.835294 0.015686
0.192157 0.835294 0.011765
0.250980 0.839216 0.023529
0.321569 0.850980 0.027451
0.380392 0.850980 0.031373
0.443137 0.862745 0.043137
0.505882 0.870588 0.050980
0.564706 0.870588 0.043137
0.631373 0.878431 0.062745
0.698039 0.886275 0.062745
0.756863 0.890196 0.070588
0.819608 0.898039 0.078431
0.886275 0.901961 0.074510
0.945098 0.909804 0.090196
0.015686 0.890196 0.015686
0.078431 0.890196 0.011765
0.137255 0.898039 0.023529
0.211765 0.905882 0.027451
0.266667 0.909804 0.031373
0.325490 0.913725 0.039216
0.392157 0.925490 0.050980
0.447059 0.929412 0.043137
0.513725 0.933333 0.058824
0.580392 0.945098 0.062745
0.647059 0.949020 0.070588
0.705882 0.956863 0.078431
0.772549 0.960784 0.082353
0.831373 0.964706 0.090196
0.898039 0.968627 0.098039
0.960784 0.976471 0.098039
0.000000 0.000000 0.082353
0.000000 0.000000 0.082353
0.000000 0.000000 0.082353
0.000000 0.000000 0.082353
0.047059 0.000000 0.082353
0.113725 0.000000 0.082353
0.180392 0.000000 0.082353
0.247059 0.000000 0.074510
0.329412 0.000000 0.066667
0.400000 0.000000 0.062745
0.462745 0.000000 0.054902
0.533333 0.000000 0.054902
0.596078 0.000000 0.043137
0.658824 0.000000 0.031373
0.721569 0.000000 0.015686
0.788235 0.000000 0.000000
0.000000 0.000000 0.082353
0.000000 0.000000 0.082353
0.000000 0.000000 0.082353
0.000000 0.000000 0.082353
0.058824 0.000000 0.082353
0.121569 0.000000 0.082353
0.184314 0.000000 0.082353
0.266667 0.000000 0.074510
0.333333 0.000000 0.066667
0.419608 0.000000 0.058824
0.482353 0.000000 0.054902
0.545098 0.000000 0.054902
0.611765 0.000000 0.039216
0.678431 0.000000 0.023529
0.733333 0.003922 0.011765
0.803922 0.011765 0.000000
0.000000 0.000000 0.082353
0.000000 0.000000 0.082353
0.000000 0.007843 0.082353
0.007843 0.011765 0.082353
0.066667 0.019608 0.082353
0.141176 0.023529 0.082353
0.203922 0.027451 0.082353
0.278431 0.031373 0.074510
0.352941 0.043137 0.066667
0.423529 0.047059 0.058824
0.494118 0.050980 0.054902
0.556863 0.058824 0.050980
0.619608 0.062745 0.039216
0.686275 0.074510 0.023529
0.752941 0.074510 0.007843
0.807843 0.078431 0.003922
0.000000 0.058824 0.082353
0.000000 0.070588 0.082353
0.000000 0.074510 0.082353
0.011765 0.074510 0.082353
0.082353 0.086275 0.082353
0.145098 0.094118 0.082353
0.223529 0.098039 0.078431
0.290196 0.101961 0.070588
0.368627 0.109804 0.062745
0.439216 0.117647 0.058824
0.505882 0.117647 0.054902
0.568627 0.125490 0.050980
0.639216 0.133333 0.035294
0.694118 0.137255 0.023529
0.760784 0.141176 0.015686
0.827451 0.149020 0.019608
0.000000 0.133333 0.082353
0.000000 0.133333 0.082353
0.000000 0.141176 0.082353
0.031373 0.149020 0.082353
0.098039 0.152941 0.082353
0.156863 0.160784 0.082353
0.235294 0.164706 0.078431
0.313725 0.176471 0.070588
0.384314 0.172549 0.062745
0.454902 0.184314 0.054902
0.521569 0.196078 0.054902
0.580392 0.192157 0.050980
0.643137 0.200000 0.043137
0.713725 0.207843 0.031373
0.772549 0.215686 0.019608
0.835294 0.215686 0.031373
0.000000 0.200000 0.082353
0.000000 0.207843 0.082353
0.000000 0.211765 0.082353
0.047059 0.219608 0.082353
0.109804 0.223529 0.082353
0.176471 0.227451 0.082353
0.243137 0.235294 0.078431
0.321569 0.239216 0.070588
0.396078 0.247059 0.066667
0.470588 0.250980 0.058824
0.529412 0.258824 0.066667
0.600000 0.266667 0.058824
0.662745 0.274510 0.043137
0.717647 0.274510 0.039216
0.780392 0.286275 0.035294
0.847059 0.290196 0.043137
0.000000 0.270588 0.078431
0.000000 0.270588 0.078431
0.003922 0.282353 0.074510
0.074510 0.286275 0.074510
0.137255 0.294118 0.074510
0.203922 0.298039 0.074510
0.262745 0.301961 0.078431
0.341176 0.309804 0.070588
0.411765 0.313725 0.070588
0.478431 0.321569 0.070588
0.549020 0.329412 0.074510
0.603922 0.333333 0.066667
0.666667 0.337255 0.058824
0.729412 0.352941 0.047059
0.792157 0.349020 0.043137
0.854902 0.360784 0.054902
0.000000 0.341176 0.070588
0.000000 0.345098 0.070588
0.027451 0.345098 0.070588
0.094118 0.356863 0.066667
0.160784 0.360784 0.070588
0.215686 0.364706 0.066667
0.294118 0.372549 0.074510
0.352941 0.380392 0.078431
0.431373 0.388235 0.082353
0.486275 0.392157 0.086275
0.552941 0.396078 0.082353
0.615686 0.407843 0.074510
0.678431 0.407843 0.066667
0.741176 0.415686 0.050980
0.811765 0.423529 0.062745
0.866667 0.423529 0.066667
0.000000 0.403922 0.062745
0.000000 0.415686 0.058824
0.054902 0.415686 0.062745
0.113725 0.419608 0.058824
0.188235 0.431373 0.070588
0.250980 0.435294 0.070588
0.305882 0.439216 0.074510
0.372549 0.450980 0.086275
0.431373 0.454902 0.094118
0.505882 0.466667 0.098039
0.560784 0.466667 0.090196
0.627451 0.470588 0.074510
0.690196 0.482353 0.070588
0.752941 0.482353 0.066667
0.815686 0.490196 0.070588
0.886275 0.498039 0.074510
0.000000 0.478431 0.058824
0.007843 0.478431 0.054902
0.074510 0.490196 0.066667
0.133333 0.498039 0.070588
0.188235 0.498039 0.074510
0.258824 0.505882 0.086275
0.321569 0.513725 0.094118
0.384314 0.513725 0.086275
0.447059 0.525490 0.098039
0.513725 0.529412 0.098039
0.576471 0.537255 0.094118
0.643137 0.541176 0.086275
0.701961 0.545098 0.074510
0.772549 0.556863 0.074510
0.827451 0.556863 0.086275
0.890196 0.564706 0.086275
0.000000 0.541176 0.058824
0.019608 0.552941 0.074510
0.074510 0.556863 0.066667
0.141176 0.560784 0.074510
0.207843 0.572549 0.078431
0.270588 0.572549 0.074510
0.333333 0.580392 0.086275
0.396078 0.588235 0.086275
0.462745 0.592157 0.090196
0.521569 0.600000 0.094118
0.588235 0.603922 0.098039
0.650980 0.611765 0.086275
0.717647 0.615686 0.086275
0.776471 0.623529 0.086275
0.843137 0.627451 0.094118
0.909804 0.639216 0.101961
0.000000 0.615686 0.058824
0.023529 0.619608 0.062745
0.094118 0.627451 0.066667
0.149020 0.631373 0.066667
0.215686 0.635294 0.070588
0.282353 0.647059 0.070588
0.349020 0.650980 0.078431
0.403922 0.654902 0.074510
0.474510 0.662745 0.082353
0.537255 0.670588 0.082353
0.603922 0.670588 0.094118
0.662745 0.678431 0.094118
0.729412 0.682353 0.094118
0.796078 0.694118 0.101961
0.858824 0.694118 0.105882
0.917647 0.701961 0.105882
0.000000 0.686275 0.062745
0.039216 0.690196 0.054902
0.105882 0.690196 0.058824
0.168627 0.701961 0.066667
0.235294 0.709804 0.062745
0.294118 0.709804 0.070588
0.364706 0.717647 0.070588
0.423529 0.725490 0.070588
0.478431 0.729412 0.082353
0.552941 0.737255 0.086275
0.611765 0.745098 0.094118
0.682353 0.752941 0.101961
0.737255 0.752941 0.105882
0.803922 0.760784 0.105882
0.870588 0.768627 0.125490
0.933333 0.768627 0.117647
0.000000 0.752941 0.054902
0.050980 0.756863 0.054902
0.117647 0.768627 0.058824
0.180392 0.764706 0.066667
0.243137 0.780392 0.070588
0.309804 0.784314 0.078431
0.368627 0.784314 0.082353
0.439216 0.792157 0.094118
0.498039 0.800000 0.094118
0.560784 0.800000 0.094118
0.627451 0.811765 0.105882
0.694118 0.815686 0.105882
0.749020 0.819608 0.117647
0.811765 0.831373 0.117647
0.874510 0.839216 0.125490
0.937255 0.847059 0.137255
0.003922 0.827451 0.058824
0.066667 0.823529 0.066667
0.125490 0.831373 0.066667
0.200000 0.839216 0.078431
0.254902 0.843137 0.082353
0.321569 0.847059 0.090196
0.384314 0.858824 0.094118
0.443137 0.858824 0.101961
0.513725 0.870588 0.105882
0.572549 0.874510 0.113725
0.635294 0.874510 0.117647
0.701961 0.886275 0.125490
0.760784 0.894118 0.125490
0.819608 0.901961 0.133333
0.886275 0.905882 0.141176
0.949020 0.913725 0.149020
0.015686 0.890196 0.066667
0.078431 0.901961 0.078431
0.141176 0.898039 0.082353
0.203922 0.905882 0.090196
0.274510 0.917647 0.094118
0.329412 0.917647 0.101961
0.396078 0.921569 0.101961
0.462745 0.933333 0.113725
0.517647 0.937255 0.117647
0.580392 0.945098 0.125490
0.647059 0.952941 0.125490
0.709804 0.956863 0.141176
0.776471 0.960784 0.141176
0.835294 0.968627 0.149020
0.894118 0.976471 0.152941
0.960784 0.980392 0.152941
0.000000 0.000000 0.098039
0.000000 0.000000 0.082353
0.000000 0.000000 0.082353
0.000000 0.000000 0.082353
0.047059 0.000000 0.082353
0.113725 0.000000 0.082353
0.184314 0.000000 0.082353
0.258824 0.000000 0.074510
0.325490 0.000000 0.070588
0.403922 0.000000 0.070588
0.470588 0.000000 0.070588
0.533333 0.000000 0.066667
0.600000 0.000000 0.074510
0.666667 0.000000 0.058824
0.721569 0.000000 0.047059
0.792157 0.000000 0.043137
0.000000 0.000000 0.082353
0.000000 0.000000 0.082353
0.000000 0.000000 0.082353
0.003922 0.000000 0.082353
0.062745 0.000000 0.082353
0.125490 0.000000 0.082353
0.196078 0.000000 0.082353
0.266667 0.000000 0.078431
0.341176 0.000000 0.082353
0.411765 0.000000 0.070588
0.486275 0.000000 0.086275
0.545098 0.000000 0.086275
0.607843 0.000000 0.074510
0.674510 0.007843 0.066667
0.741176 0.011765 0.058824
0.796078 0.011765 0.047059
0.000000 0.000000 0.082353
0.000000 0.000000 0.082353
0.000000 0.003922 0.082353
0.011765 0.011765 0.082353
0.070588 0.019608 0.082353
0.133333 0.027451 0.086275
0.215686 0.035294 0.094118
0.278431 0.039216 0.082353
0.356863 0.039216 0.090196
0.435294 0.054902 0.086275
0.494118 0.050980 0.086275
0.556863 0.058824 0.082353
0.627451 0.066667 0.074510
0.682353 0.070588 0.062745
0.752941 0.078431 0.066667
0.815686 0.086275 0.062745
0.000000 0.062745 0.082353
0.000000 0.062745 0.082353
0.000000 0.078431 0.082353
0.019608 0.082353 0.094118
0.090196 0.090196 0.098039
0.145098 0.094118 0.094118
0.223529 0.098039 0.101961
0.301961 0.109804 0.098039
0.376471 0.109804 0.090196
0.443137 0.117647 0.094118
0.509804 0.129412 0.101961
0.568627 0.129412 0.086275
0.631373 0.133333 0.082353
0.701961 0.145098 0.070588
0.756863 0.145098 0.066667
0.827451 0.152941 0.078431
0.000000 0.133333 0.082353
0.000000 0.141176 0.094118
0.000000 0.145098 0.090196
0.035294 0.152941 0.101961
0.094118 0.156863 0.109804
0.160784 0.156863 0.109804
0.235294 0.168627 0.105882
0.317647 0.172549 0.113725
0.396078 0.184314 0.109804
0.458824 0.184314 0.101961
0.517647 0.192157 0.105882
0.588235 0.200000 0.094118
0.647059 0.203922 0.082353
0.713725 0.207843 0.074510
0.776471 0.219608 0.086275
0.843137 0.219608 0.090196
0.000000 0.200000 0.090196
0.000000 0.207843 0.101961
0.000000 0.215686 0.109804
0.050980 0.215686 0.105882
0.117647 0.227451 0.109804
0.188235 0.231373 0.121569
0.254902 0.239216 0.117647
0.337255 0.243137 0.117647
0.403922 0.247059 0.113725
0.470588 0.250980 0.121569
0.533333 0.258824 0.109804
0.592157 0.266667 0.101961
0.662745 0.274510 0.094118
0.725490 0.282353 0.090196
0.788235 0.282353 0.094118
0.850980 0.294118 0.098039
0.000000 0.274510 0.105882
0.000000 0.270588 0.105882
0.011765 0.282353 0.101961
0.078431 0.290196 0.117647
0.145098 0.294118 0.117647
0.211765 0.301961 0.121569
0.278431 0.305882 0.125490
0.345098 0.313725 0.125490
0.419608 0.317647 0.121569
0.478431 0.321569 0.133333
0.545098 0.329412 0.117647
0.611765 0.341176 0.109804
0.674510 0.337255 0.098039
0.737255 0.352941 0.098039
0.800000 0.356863 0.113725
0.854902 0.360784 0.105882
0.000000 0.337255 0.098039
0.000000 0.349020 0.113725
0.047059 0.352941 0.109804
0.101961 0.356863 0.109804
0.176471 0.364706 0.117647
0.235294 0.368627 0.125490
0.301961 0.376471 0.125490
0.368627 0.380392 0.137255
0.435294 0.384314 0.137255
0.498039 0.396078 0.137255
0.556863 0.400000 0.125490
0.623529 0.403922 0.117647
0.686275 0.415686 0.113725
0.741176 0.415686 0.113725
0.803922 0.423529 0.113725
0.874510 0.431373 0.125490
0.000000 0.411765 0.109804
0.000000 0.411765 0.109804
0.062745 0.423529 0.113725
0.129412 0.427451 0.121569
0.184314 0.431373 0.117647
0.254902 0.439216 0.137255
0.313725 0.447059 0.137255
0.376471 0.447059 0.137255
0.443137 0.454902 0.149020
0.501961 0.462745 0.145098
0.568627 0.474510 0.137255
0.631373 0.474510 0.125490
0.690196 0.482353 0.113725
0.760784 0.490196 0.133333
0.815686 0.494118 0.129412
0.882353 0.494118 0.137255
0.000000 0.478431 0.109804
0.015686 0.486275 0.121569
0.070588 0.490196 0.117647
0.141176 0.494118 0.129412
0.203922 0.501961 0.129412
0.262745 0.501961 0.129412
0.329412 0.513725 0.137255
0.388235 0.521569 0.141176
0.447059 0.521569 0.141176
0.509804 0.533333 0.145098
0.576471 0.541176 0.137255
0.639216 0.545098 0.133333
0.705882 0.549020 0.129412
0.764706 0.556863 0.137255
0.835294 0.564706 0.149020
0.890196 0.568627 0.149020
0.000000 0.545098 0.125490
0.019608 0.552941 0.129412
0.090196 0.560784 0.117647
0.145098 0.564706 0.113725
0.207843 0.568627 0.121569
0.270588 0.580392 0.125490
0.333333 0.580392 0.129412
0.400000 0.592157 0.133333
0.466667 0.596078 0.133333
0.525490 0.600000 0.145098
0.592157 0.607843 0.141176
0.650980 0.615686 0.137255
0.717647 0.615686 0.141176
0.780392 0.623529 0.149020
0.847059 0.627451 0.149020
0.909804 0.639216 0.168627
0.000000 0.615686 0.129412
0.031373 0.619608 0.113725
0.094118 0.627451 0.113725
0.156863 0.639216 0.113725
0.219608 0.639216 0.117647
0.282353 0.643137 0.117647
0.352941 0.654902 0.117647
0.411765 0.658824 0.129412
0.474510 0.666667 0.129412
0.541176 0.670588 0.137255
0.600000 0.678431 0.141176
0.666667 0.682353 0.149020
0.725490 0.690196 0.149020
0.792157 0.690196 0.164706
0.854902 0.701961 0.164706
0.921569 0.701961 0.168627
0.000000 0.682353 0.121569
0.047059 0.694118 0.113725
0.101961 0.698039 0.105882
0.168627 0.701961 0.109804
0.231373 0.713725 0.121569
0.298039 0.717647 0.129412
0.356863 0.721569 0.125490
0.427451 0.729412 0.137255
0.486275 0.737255 0.141176
0.549020 0.733333 0.145098
0.615686 0.749020 0.149020
0.682353 0.749020 0.164706
0.741176 0.756863 0.164706
0.807843 0.760784 0.168627
0.866667 0.768627 0.176471
0.933333 0.780392 0.188235
0.000000 0.756863 0.113725
0.054902 0.760784 0.109804
0.117647 0.764706 0.117647
0.188235 0.772549 0.129412
0.243137 0.776471 0.133333
0.313725 0.784314 0.137255
0.376471 0.792157 0.149020
0.435294 0.792157 0.145098
0.501961 0.803922 0.149020
0.560784 0.811765 0.164706
0.623529 0.811765 0.156863
0.690196 0.823529 0.168627
0.756863 0.823529 0.176471
0.811765 0.827451 0.180392
0.882353 0.839216 0.184314
0.941176 0.843137 0.196078
0.003922 0.823529 0.117647
0.066667 0.835294 0.129412
0.129412 0.835294 0.133333
0.192157 0.843137 0.129412
0.262745 0.847059 0.149020
0.317647 0.850980 0.145098
0.388235 0.858824 0.156863
0.450980 0.866667 0.164706
0.509804 0.866667 0.164706
0.576471 0.878431 0.168627
0.643137 0.882353 0.176471
0.698039 0.886275 0.180392
0.768627 0.894118 0.184314
0.831373 0.898039 0.196078
0.886275 0.901961 0.192157
0.952941 0.913725 0.203922
0.015686 0.890196 0.133333
0.078431 0.898039 0.129412
0.149020 0.905882 0.149020
0.203922 0.909804 0.145098
0.270588 0.913725 0.152941
0.337255 0.925490 0.164706
0.400000 0.925490 0.164706
0.458824 0.933333 0.164706
0.525490 0.941176 0.184314
0.584314 0.941176 0.180392
0.650980 0.952941 0.192157
0.717647 0.956863 0.196078
0.772549 0.960784 0.200000
0.839216 0.972549 0.203922
0.898039 0.980392 0.211765
0.964706 0.984314 0.219608
0.000000 0.000000 0.145098
0.000000 0.000000 0.137255
0.000000 0.000000 0.113725
0.000000 0.000000 0.109804
0.050980 0.000000 0.117647
0.117647 0.000000 0.125490
0.184314 0.000000 0.129412
0.266667 0.000000 0.133333
0.329412 0.000000 0.121569
0.407843 0.000000 0.129412
0.482353 0.000000 0.129412
0.541176 0.000000 0.137255
0.603922 0.000000 0.125490
0.666667 0.000000 0.121569
0.729412 0.000000 0.109804
0.784314 0.000000 0.101961
0.000000 0.000000 0.113725
0.000000 0.000000 0.109804
0.000000 0.000000 0.117647
0.003922 0.000000 0.125490
0.066667 0.000000 0.129412
0.125490 0.000000 0.137255
0.196078 0.000000 0.137255
0.270588 0.000000 0.145098
0.349020 0.000000 0.137255
0.423529 0.000000 0.141176
0.482353 0.000000 0.137255
0.549020 0.000000 0.149020
0.615686 0.003922 0.133333
0.670588 0.003922 0.129412
0.741176 0.011765 0.113725
0.803922 0.019608 0.113725
0.000000 0.000000 0.125490
0.000000 0.003922 0.125490
0.000000 0.007843 0.129412
0.015686 0.015686 0.137255
0.082353 0.019608 0.137255
0.141176 0.023529 0.152941
0.211765 0.031373 0.149020
0.298039 0.043137 0.149020
0.364706 0.043137 0.141176
0.431373 0.050980 0.145098
0.501961 0.058824 0.145098
0.560784 0.058824 0.141176
0.623529 0.074510 0.125490
0.690196 0.078431 0.117647
0.745098 0.078431 0.117647
0.815686 0.086275 0.129412
0.000000 0.066667 0.129412
0.000000 0.070588 0.137255
0.000000 0.070588 0.141176
0.027451 0.082353 0.152941
0.090196 0.090196 0.152941
0.164706 0.101961 0.156863
0.231373 0.105882 0.152941
0.309804 0.105882 0.152941
0.384314 0.121569 0.149020
0.447059 0.117647 0.156863
0.505882 0.125490 0.145098
0.576471 0.133333 0.137255
0.635294 0.137255 0.125490
0.701961 0.141176 0.125490
0.764706 0.152941 0.129412
0.827451 0.149020 0.137255
0.000000 0.133333 0.141176
0.000000 0.141176 0.152941
0.000000 0.145098 0.160784
0.035294 0.149020 0.152941
0.105882 0.160784 0.168627
0.180392 0.164706 0.164706
0.243137 0.168627 0.152941
0.329412 0.176471 0.160784
0.392157 0.184314 0.156863
0.466667 0.192157 0.160784
0.521569 0.196078 0.152941
0.580392 0.200000 0.145098
0.650980 0.211765 0.133333
0.709804 0.211765 0.137255
0.776471 0.215686 0.137255
0.839216 0.227451 0.149020
0.000000 0.207843 0.160784
0.000000 0.207843 0.152941
0.000000 0.215686 0.168627
0.062745 0.227451 0.160784
0.125490 0.223529 0.164706
0.196078 0.235294 0.172549
0.270588 0.239216 0.172549
0.341176 0.247059 0.164706
0.407843 0.250980 0.180392
0.470588 0.258824 0.168627
0.541176 0.266667 0.156863
0.596078 0.270588 0.149020
0.662745 0.274510 0.137255
0.725490 0.286275 0.149020
0.788235 0.282353 0.152941
0.850980 0.290196 0.156863
0.000000 0.270588 0.164706
0.000000 0.282353 0.164706
0.011765 0.282353 0.164706
0.090196 0.294118 0.164706
0.160784 0.298039 0.172549
0.219608 0.305882 0.168627
0.290196 0.305882 0.184314
0.356863 0.317647 0.180392
0.423529 0.317647 0.184314
0.482353 0.325490 0.176471
0.549020 0.329412 0.168627
0.611765 0.337255 0.152941
0.670588 0.345098 0.152941
0.737255 0.349020 0.156863
