public/luts/pastel.cube
# Studiio — look « pastel », genere par scripts/lut/generer-luts.mjs
# Source : les coefficients de LOOKS_RENDUS, calcules par ffmpeg lui-meme.
# Aucune LUT tierce, aucun telechargement : provenance et licence du depot.
LUT_3D_SIZE 16
DOMAIN_MIN 0.0 0.0 0.0
DOMAIN_MAX 1.0 1.0 1.0
0.141176 0.137255 0.141176
0.184314 0.129412 0.129412
0.239216 0.125490 0.125490
0.282353 0.125490 0.121569
0.329412 0.113725 0.105882
0.384314 0.117647 0.109804
0.435294 0.113725 0.105882
0.494118 0.121569 0.113725
0.552941 0.117647 0.113725
0.603922 0.121569 0.113725
0.666667 0.121569 0.117647
0.721569 0.125490 0.109804
0.776471 0.125490 0.121569
0.831373 0.129412 0.117647
0.894118 0.125490 0.125490
0.941176 0.129412 0.117647
0.141176 0.184314 0.133333
0.192157 0.188235 0.145098
0.239216 0.180392 0.125490
0.290196 0.180392 0.121569
0.333333 0.172549 0.109804
0.384314 0.172549 0.109804
0.439216 0.172549 0.113725
0.498039 0.176471 0.113725
0.552941 0.176471 0.117647
0.607843 0.180392 0.109804
0.662745 0.184314 0.121569
0.725490 0.184314 0.117647
0.776471 0.188235 0.125490
0.831373 0.184314 0.117647
0.894118 0.188235 0.133333
0.945098 0.188235 0.121569
0.129412 0.239216 0.125490
0.184314 0.239216 0.137255
0.235294 0.243137 0.125490
0.290196 0.231373 0.129412
0.333333 0.231373 0.117647
0.388235 0.231373 0.113725
0.447059 0.231373 0.117647
0.501961 0.235294 0.109804
0.556863 0.235294 0.121569
0.615686 0.231373 0.113725
0.670588 0.243137 0.125490
0.725490 0.239216 0.117647
0.788235 0.243137 0.133333
0.839216 0.243137 0.121569
0.894118 0.243137 0.133333
0.952941 0.250980 0.129412
0.121569 0.290196 0.117647
0.172549 0.290196 0.125490
0.227451 0.290196 0.117647
0.290196 0.294118 0.121569
0.333333 0.290196 0.117647
0.396078 0.290196 0.117647
0.450980 0.290196 0.121569
0.501961 0.290196 0.121569
0.560784 0.294118 0.125490
0.615686 0.294118 0.117647
0.670588 0.294118 0.125490
0.725490 0.298039 0.121569
0.788235 0.298039 0.133333
0.839216 0.301961 0.125490
0.898039 0.301961 0.129412
0.956863 0.305882 0.133333
0.113725 0.337255 0.109804
0.172549 0.341176 0.113725
0.227451 0.345098 0.117647
0.278431 0.341176 0.113725
0.345098 0.345098 0.121569
0.388235 0.345098 0.121569
0.450980 0.345098 0.121569
0.505882 0.349020 0.125490
0.564706 0.349020 0.125490
0.619608 0.352941 0.129412
0.674510 0.352941 0.133333
0.729412 0.356863 0.125490
0.792157 0.356863 0.129412
0.843137 0.360784 0.133333
0.901961 0.356863 0.129412
0.960784 0.364706 0.137255
0.121569 0.400000 0.117647
0.172549 0.396078 0.113725
0.231373 0.403922 0.121569
0.282353 0.400000 0.121569
0.345098 0.400000 0.121569
0.396078 0.403922 0.125490
0.458824 0.403922 0.125490
0.513725 0.407843 0.129412
0.560784 0.411765 0.133333
0.623529 0.411765 0.133333
0.678431 0.415686 0.129412
0.737255 0.415686 0.141176
0.788235 0.415686 0.129412
0.854902 0.415686 0.137255
0.898039 0.419608 0.133333
0.960784 0.415686 0.137255
0.113725 0.454902 0.117647
0.176471 0.454902 0.121569
0.231373 0.454902 0.121569
0.290196 0.458824 0.125490
0.345098 0.462745 0.125490
0.400000 0.462745 0.129412
0.454902 0.466667 0.133333
0.517647 0.462745 0.133333
0.564706 0.466667 0.125490
0.631373 0.470588 0.141176
0.682353 0.466667 0.129412
0.737255 0.470588 0.141176
0.792157 0.474510 0.133333
0.854902 0.470588 0.145098
0.909804 0.482353 0.145098
0.960784 0.478431 0.141176
0.121569 0.513725 0.121569
0.176471 0.509804 0.121569
0.239216 0.513725 0.125490
0.294118 0.517647 0.129412
0.345098 0.513725 0.125490
0.411765 0.517647 0.133333
0.454902 0.521569 0.125490
0.517647 0.525490 0.141176
0.576471 0.521569 0.129412
0.623529 0.525490 0.141176
0.686275 0.525490 0.133333
0.741176 0.529412 0.145098
0.796078 0.529412 0.137255
0.854902 0.533333 0.149020
0.909804 0.537255 0.145098
0.960784 0.533333 0.141176
0.125490 0.572549 0.125490
0.180392 0.576471 0.129412
0.239216 0.568627 0.125490
0.294118 0.580392 0.133333
0.349020 0.576471 0.125490
0.407843 0.576471 0.133333
0.462745 0.580392 0.129412
0.517647 0.580392 0.141176
0.580392 0.580392 0.133333
0.627451 0.584314 0.145098
0.690196 0.584314 0.137255
0.749020 0.584314 0.149020
0.803922 0.588235 0.145098
0.854902 0.588235 0.141176
0.913725 0.596078 0.149020
0.964706 0.592157 0.145098
0.133333 0.623529 0.125490
0.188235 0.635294 0.133333
0.243137 0.631373 0.125490
0.298039 0.631373 0.133333
0.356863 0.635294 0.129412
0.411765 0.635294 0.141176
0.466667 0.639216 0.133333
0.521569 0.639216 0.145098
0.580392 0.643137 0.137255
0.631373 0.639216 0.145098
0.690196 0.647059 0.145098
0.749020 0.643137 0.141176
0.803922 0.650980 0.149020
0.858824 0.647059 0.145098
0.913725 0.647059 0.149020
0.976471 0.654902 0.156863
0.129412 0.686275 0.133333
0.188235 0.686275 0.133333
0.239216 0.686275 0.133333
0.305882 0.690196 0.141176
0.352941 0.694118 0.133333
0.415686 0.694118 0.145098
0.470588 0.698039 0.137255
0.525490 0.694118 0.145098
0.584314 0.701961 0.145098
0.643137 0.694118 0.141176
0.690196 0.701961 0.145098
0.752941 0.701961 0.145098
0.807843 0.701961 0.149020
0.866667 0.705882 0.152941
0.921569 0.705882 0.152941
0.976471 0.709804 0.156863
0.133333 0.741176 0.133333
0.192157 0.745098 0.141176
0.247059 0.749020 0.141176
0.305882 0.741176 0.141176
0.360784 0.752941 0.145098
0.415686 0.749020 0.145098
0.474510 0.752941 0.141176
0.529412 0.752941 0.141176
0.584314 0.756863 0.145098
0.639216 0.756863 0.145098
0.698039 0.760784 0.149020
0.752941 0.760784 0.152941
0.815686 0.760784 0.152941
0.862745 0.764706 0.156863
0.921569 0.760784 0.152941
0.980392 0.768627 0.160784
0.141176 0.803922 0.141176
0.192157 0.800000 0.141176
0.254902 0.807843 0.145098
0.305882 0.803922 0.145098
0.364706 0.803922 0.149020
0.415686 0.811765 0.141176
0.478431 0.807843 0.152941
0.533333 0.811765 0.145098
0.588235 0.815686 0.149020
0.647059 0.815686 0.152941
0.701961 0.819608 0.152941
0.756863 0.819608 0.156863
0.815686 0.815686 0.152941
0.870588 0.823529 0.160784
0.921569 0.823529 0.160784
0.980392 0.823529 0.160784
0.141176 0.854902 0.141176
0.200000 0.858824 0.145098
0.254902 0.862745 0.149020
0.309804 0.866667 0.141176
0.372549 0.862745 0.152941
0.419608 0.870588 0.145098
0.478431 0.870588 0.156863
0.541176 0.870588 0.152941
0.584314 0.870588 0.156863
0.650980 0.874510 0.156863
0.701961 0.874510 0.152941
0.756863 0.874510 0.156863
0.815686 0.878431 0.160784
0.874510 0.874510 0.160784
0.929412 0.886275 0.160784
0.988235 0.882353 0.164706
0.141176 0.917647 0.149020
0.200000 0.913725 0.137255
0.258824 0.921569 0.152941
0.313725 0.921569 0.145098
0.364706 0.917647 0.152941
0.427451 0.929412 0.152941
0.478431 0.925490 0.156863
0.545098 0.929412 0.156863
0.588235 0.929412 0.152941
0.650980 0.929412 0.156863
0.705882 0.929412 0.160784
0.764706 0.933333 0.160784
0.819608 0.937255 0.164706
0.874510 0.937255 0.164706
0.929412 0.941176 0.160784
0.980392 0.937255 0.168627
0.145098 0.976471 0.152941
0.207843 0.976471 0.145098
0.258824 0.972549 0.152941
0.321569 0.980392 0.152941
0.372549 0.976471 0.156863
0.427451 0.980392 0.152941
0.482353 0.984314 0.152941
0.537255 0.988235 0.156863
0.600000 0.984314 0.160784
0.650980 0.992157 0.160784
0.713725 0.988235 0.164706
0.768627 0.992157 0.164706
0.823529 0.996078 0.168627
0.874510 0.992157 0.168627
0.937255 1.000000 0.172549
0.988235 0.996078 0.172549
0.141176 0.133333 0.184314
0.184314 0.129412 0.192157
0.239216 0.125490 0.176471
0.282353 0.117647 0.168627
0.329412 0.117647 0.164706
0.384314 0.117647 0.160784
0.443137 0.113725 0.164706
0.494118 0.121569 0.164706
0.556863 0.117647 0.168627
0.611765 0.121569 0.172549
0.658824 0.121569 0.168627
0.725490 0.125490 0.176471
0.776471 0.125490 0.172549
0.831373 0.125490 0.176471
0.890196 0.133333 0.176471
0.941176 0.129412 0.180392
0.141176 0.180392 0.192157
0.180392 0.184314 0.180392
0.227451 0.180392 0.172549
0.278431 0.172549 0.164706
0.325490 0.176471 0.164706
0.388235 0.176471 0.164706
0.439216 0.172549 0.164706
0.498039 0.180392 0.172549
0.549020 0.176471 0.168627
0.615686 0.180392 0.176471
0.662745 0.180392 0.172549
0.725490 0.180392 0.176471
0.784314 0.188235 0.176471
0.835294 0.184314 0.180392
0.890196 0.188235 0.176471
0.952941 0.184314 0.184314
0.129412 0.239216 0.192157
0.180392 0.231373 0.172549
0.227451 0.235294 0.180392
0.282353 0.227451 0.164706
0.333333 0.227451 0.164706
0.392157 0.235294 0.172549
0.443137 0.231373 0.168627
0.498039 0.231373 0.172549
0.556863 0.235294 0.172549
0.611765 0.239216 0.176471
0.666667 0.243137 0.172549
0.721569 0.243137 0.180392
0.784314 0.243137 0.176471
0.835294 0.247059 0.184314
0.898039 0.247059 0.180392
0.949020 0.243137 0.188235
0.121569 0.286275 0.180392
0.168627 0.286275 0.164706
0.219608 0.282353 0.172549
0.274510 0.286275 0.164706
0.337255 0.282353 0.176471
0.388235 0.290196 0.172549
0.450980 0.290196 0.172549
0.505882 0.290196 0.176471
0.560784 0.294118 0.172549
0.615686 0.298039 0.180392
0.678431 0.298039 0.176471
0.725490 0.298039 0.180392
0.792157 0.301961 0.180392
0.843137 0.298039 0.188235
0.898039 0.301961 0.180392
0.956863 0.305882 0.196078
0.113725 0.337255 0.172549
0.168627 0.341176 0.164706
0.223529 0.341176 0.176471
0.282353 0.345098 0.172549
0.341176 0.345098 0.172549
0.392157 0.349020 0.176471
0.454902 0.349020 0.180392
0.509804 0.349020 0.180392
0.564706 0.352941 0.184314
0.615686 0.349020 0.180392
0.678431 0.356863 0.180392
0.729412 0.352941 0.188235
0.784314 0.356863 0.180392
0.850980 0.360784 0.196078
0.898039 0.364706 0.184314
0.956863 0.360784 0.188235
0.117647 0.396078 0.176471
0.172549 0.400000 0.172549
0.231373 0.400000 0.172549
0.286275 0.403922 0.176471
0.341176 0.403922 0.180392
0.400000 0.400000 0.176471
0.454902 0.411765 0.184314
0.509804 0.403922 0.180392
0.568627 0.407843 0.184314
0.623529 0.407843 0.188235
0.678431 0.411765 0.188235
0.737255 0.419608 0.196078
0.792157 0.415686 0.184314
0.850980 0.415686 0.188235
0.901961 0.419608 0.192157
0.964706 0.419608 0.192157
0.117647 0.458824 0.172549
0.176471 0.454902 0.172549
0.235294 0.458824 0.180392
0.286275 0.458824 0.176471
0.349020 0.462745 0.184314
0.403922 0.458824 0.180392
0.454902 0.462745 0.184314
0.517647 0.462745 0.188235
0.572549 0.466667 0.188235
0.623529 0.470588 0.192157
0.682353 0.470588 0.192157
0.741176 0.474510 0.188235
0.792157 0.470588 0.192157
0.850980 0.478431 0.192157
0.909804 0.470588 0.192157
0.964706 0.482353 0.200000
0.129412 0.513725 0.180392
0.172549 0.513725 0.176471
0.235294 0.513725 0.180392
0.290196 0.517647 0.180392
0.349020 0.517647 0.184314
0.403922 0.521569 0.188235
0.458824 0.521569 0.188235
0.513725 0.525490 0.192157
0.576471 0.525490 0.192157
0.627451 0.529412 0.188235
0.686275 0.525490 0.192157
0.745098 0.533333 0.192157
0.796078 0.529412 0.200000
0.850980 0.533333 0.192157
0.917647 0.533333 0.207843
0.964706 0.537255 0.200000
0.129412 0.568627 0.180392
0.180392 0.572549 0.180392
0.243137 0.572549 0.184314
0.298039 0.576471 0.188235
0.352941 0.576471 0.188235
0.407843 0.580392 0.192157
0.466667 0.572549 0.188235
0.521569 0.584314 0.188235
0.572549 0.580392 0.192157
0.639216 0.588235 0.192157
0.682353 0.584314 0.200000
0.745098 0.584314 0.192157
0.807843 0.592157 0.207843
0.858824 0.592157 0.200000
0.913725 0.592157 0.207843
0.968627 0.596078 0.203922
0.129412 0.631373 0.184314
0.184314 0.631373 0.188235
0.239216 0.635294 0.188235
0.301961 0.631373 0.192157
0.349020 0.635294 0.188235
0.415686 0.639216 0.188235
0.466667 0.635294 0.192157
0.521569 0.639216 0.188235
0.576471 0.639216 0.200000
0.639216 0.639216 0.192157
0.690196 0.643137 0.203922
0.749020 0.643137 0.200000
0.807843 0.647059 0.207843
0.862745 0.650980 0.203922
0.917647 0.650980 0.203922
0.968627 0.650980 0.203922
0.129412 0.682353 0.184314
0.196078 0.686275 0.192157
0.239216 0.690196 0.188235
0.301961 0.690196 0.184314
0.360784 0.690196 0.192157
0.415686 0.694118 0.188235
0.470588 0.694118 0.200000
0.525490 0.698039 0.192157
0.580392 0.698039 0.203922
0.639216 0.701961 0.200000
0.694118 0.701961 0.207843
0.745098 0.701961 0.200000
0.811765 0.705882 0.203922
0.854902 0.705882 0.203922
0.917647 0.705882 0.207843
0.980392 0.713725 0.211765
0.133333 0.741176 0.188235
0.192157 0.745098 0.192157
0.247059 0.745098 0.192157
0.301961 0.749020 0.196078
0.364706 0.749020 0.200000
0.415686 0.756863 0.192157
0.474510 0.752941 0.203922
0.525490 0.752941 0.192157
0.588235 0.756863 0.207843
0.639216 0.756863 0.200000
0.705882 0.760784 0.203922
0.749020 0.760784 0.203922
0.811765 0.760784 0.207843
0.874510 0.764706 0.211765
0.925490 0.764706 0.211765
0.980392 0.764706 0.211765
0.141176 0.800000 0.192157
0.196078 0.803922 0.196078
0.250980 0.803922 0.200000
0.305882 0.807843 0.200000
0.368627 0.807843 0.203922
0.415686 0.807843 0.200000
0.482353 0.811765 0.207843
0.533333 0.811765 0.200000
0.588235 0.811765 0.200000
0.643137 0.815686 0.203922
0.698039 0.815686 0.207843
0.760784 0.823529 0.211765
0.811765 0.819608 0.211765
0.874510 0.819608 0.211765
0.921569 0.827451 0.215686
0.984314 0.823529 0.219608
0.137255 0.862745 0.200000
0.196078 0.858824 0.196078
0.254902 0.862745 0.203922
0.309804 0.862745 0.200000
0.368627 0.870588 0.207843
0.427451 0.862745 0.207843
0.474510 0.870588 0.200000
0.537255 0.866667 0.211765
0.592157 0.870588 0.207843
0.650980 0.874510 0.207843
0.705882 0.874510 0.211765
0.760784 0.878431 0.211765
0.811765 0.874510 0.211765
0.878431 0.878431 0.219608
0.925490 0.878431 0.215686
0.984314 0.886275 0.223529
0.145098 0.921569 0.203922
0.200000 0.917647 0.200000
0.258824 0.917647 0.203922
0.313725 0.921569 0.207843
0.368627 0.925490 0.200000
0.431373 0.921569 0.211765
0.482353 0.929412 0.207843
0.537255 0.929412 0.215686
0.600000 0.929412 0.211765
0.647059 0.933333 0.219608
0.705882 0.929412 0.211765
0.764706 0.937255 0.219608
0.815686 0.933333 0.215686
0.874510 0.937255 0.219608
0.941176 0.941176 0.227451
0.984314 0.941176 0.215686
0.152941 0.972549 0.203922
0.200000 0.976471 0.207843
0.262745 0.976471 0.200000
0.317647 0.980392 0.211765
0.372549 0.984314 0.207843
0.431373 0.984314 0.215686
0.482353 0.984314 0.207843
0.541176 0.988235 0.219608
0.600000 0.984314 0.211765
0.654902 0.992157 0.219608
0.709804 0.988235 0.215686
0.768627 0.992157 0.219608
0.827451 0.996078 0.227451
0.878431 0.996078 0.223529
0.933333 0.996078 0.227451
0.988235 1.000000 0.219608
0.129412 0.121569 0.235294
0.184314 0.125490 0.231373
0.243137 0.125490 0.243137
0.282353 0.117647 0.219608
0.333333 0.113725 0.227451
0.380392 0.113725 0.211765
0.439216 0.121569 0.219608
0.494118 0.117647 0.219608
0.549020 0.121569 0.219608
0.615686 0.125490 0.227451
0.658824 0.125490 0.227451
0.721569 0.125490 0.227451
0.776471 0.125490 0.231373
0.835294 0.129412 0.231373
0.886275 0.125490 0.231373
0.952941 0.129412 0.239216
0.129412 0.184314 0.243137
0.176471 0.176471 0.223529
0.227451 0.180392 0.235294
0.278431 0.168627 0.215686
0.329412 0.172549 0.215686
0.384314 0.172549 0.219608
0.443137 0.176471 0.219608
0.501961 0.176471 0.223529
0.552941 0.180392 0.227451
0.615686 0.180392 0.227451
0.670588 0.180392 0.231373
0.721569 0.188235 0.231373
0.776471 0.180392 0.231373
0.839216 0.188235 0.239216
0.894118 0.188235 0.239216
0.945098 0.188235 0.231373
0.129412 0.239216 0.243137
0.180392 0.227451 0.231373
0.219608 0.227451 0.219608
0.274510 0.231373 0.219608
0.337255 0.231373 0.219608
0.384314 0.235294 0.223529
0.447059 0.235294 0.227451
0.501961 0.235294 0.227451
0.552941 0.235294 0.227451
0.615686 0.239216 0.231373
0.670588 0.235294 0.231373
0.721569 0.239216 0.231373
0.788235 0.243137 0.239216
0.839216 0.243137 0.231373
0.898039 0.247059 0.247059
0.952941 0.247059 0.235294
0.121569 0.290196 0.227451
0.168627 0.282353 0.227451
0.227451 0.282353 0.219608
0.278431 0.286275 0.231373
0.341176 0.290196 0.227451
0.396078 0.290196 0.227451
0.447059 0.286275 0.227451
0.509804 0.294118 0.231373
0.560784 0.294118 0.231373
0.615686 0.294118 0.231373
0.674510 0.301961 0.239216
0.725490 0.301961 0.231373
0.784314 0.301961 0.239216
0.843137 0.301961 0.235294
0.894118 0.305882 0.247059
0.956863 0.305882 0.239216
0.117647 0.341176 0.219608
0.172549 0.341176 0.231373
0.223529 0.341176 0.219608
0.282353 0.345098 0.235294
0.333333 0.345098 0.227451
0.396078 0.341176 0.235294
0.447059 0.349020 0.231373
0.509804 0.349020 0.231373
0.568627 0.356863 0.239216
0.619608 0.356863 0.231373
0.674510 0.356863 0.239216
0.737255 0.356863 0.235294
0.788235 0.360784 0.247059
0.847059 0.356863 0.235294
0.905882 0.360784 0.250980
0.960784 0.364706 0.243137
0.117647 0.396078 0.219608
0.176471 0.400000 0.235294
0.227451 0.400000 0.227451
0.286275 0.400000 0.235294
0.341176 0.403922 0.231373
0.403922 0.403922 0.231373
0.450980 0.407843 0.235294
0.513725 0.407843 0.239216
0.568627 0.411765 0.239216
0.619608 0.407843 0.239216
0.682353 0.415686 0.247059
0.733333 0.411765 0.235294
0.792157 0.419608 0.250980
0.847059 0.423529 0.243137
0.905882 0.415686 0.250980
0.960784 0.427451 0.250980
0.121569 0.454902 0.227451
0.176471 0.454902 0.235294
0.235294 0.458824 0.231373
0.290196 0.458824 0.231373
0.345098 0.462745 0.235294
0.400000 0.466667 0.239216
0.462745 0.462745 0.239216
0.509804 0.466667 0.239216
0.576471 0.466667 0.247059
0.627451 0.466667 0.243137
0.682353 0.466667 0.247059
0.741176 0.474510 0.250980
0.792157 0.474510 0.250980
0.854902 0.482353 0.250980
0.909804 0.474510 0.247059
0.960784 0.482353 0.250980
0.129412 0.513725 0.231373
0.176471 0.517647 0.231373
0.239216 0.517647 0.235294
0.290196 0.513725 0.235294
0.349020 0.521569 0.239216
0.403922 0.517647 0.239216
0.470588 0.521569 0.247059
0.513725 0.521569 0.243137
0.576471 0.521569 0.247059
0.635294 0.529412 0.250980
0.682353 0.529412 0.250980
0.745098 0.529412 0.254902
0.800000 0.533333 0.247059
0.854902 0.533333 0.258824
0.905882 0.533333 0.247059
0.972549 0.537255 0.254902
0.133333 0.572549 0.235294
0.184314 0.568627 0.235294
0.239216 0.580392 0.239216
0.294118 0.572549 0.239216
0.352941 0.576471 0.239216
0.407843 0.576471 0.243137
0.462745 0.580392 0.247059
0.517647 0.580392 0.247059
0.576471 0.584314 0.250980
0.635294 0.584314 0.254902
0.686275 0.592157 0.247059
0.749020 0.588235 0.258824
0.800000 0.588235 0.247059
0.858824 0.592157 0.262745
0.917647 0.596078 0.258824
0.972549 0.588235 0.262745
0.125490 0.627451 0.235294
0.188235 0.627451 0.239216
0.239216 0.631373 0.239216
0.301961 0.631373 0.243137
0.356863 0.635294 0.247059
0.411765 0.635294 0.247059
0.466667 0.639216 0.250980
0.529412 0.639216 0.254902
0.576471 0.639216 0.243137
0.635294 0.647059 0.258824
0.694118 0.639216 0.247059
0.741176 0.643137 0.258824
0.807843 0.650980 0.258824
0.858824 0.647059 0.262745
0.921569 0.654902 0.262745
0.972549 0.650980 0.266667
0.133333 0.686275 0.247059
0.188235 0.690196 0.243137
0.243137 0.690196 0.247059
0.298039 0.694118 0.247059
0.356863 0.686275 0.247059
0.411765 0.698039 0.254902
0.470588 0.694118 0.243137
0.529412 0.698039 0.258824
0.580392 0.698039 0.247059
0.635294 0.698039 0.258824
0.701961 0.705882 0.258824
0.749020 0.701961 0.262745
0.811765 0.705882 0.258824
0.866667 0.705882 0.266667
0.921569 0.709804 0.262745
0.976471 0.709804 0.266667
0.137255 0.745098 0.247059
0.192157 0.749020 0.247059
0.250980 0.741176 0.247059
0.305882 0.752941 0.254902
0.360784 0.749020 0.243137
0.419608 0.749020 0.254902
0.474510 0.752941 0.247059
0.529412 0.752941 0.258824
0.592157 0.760784 0.258824
0.643137 0.756863 0.262745
0.698039 0.760784 0.258824
0.752941 0.760784 0.266667
0.807843 0.764706 0.262745
0.866667 0.760784 0.258824
0.921569 0.768627 0.266667
0.984314 0.768627 0.270588
0.137255 0.800000 0.247059
0.200000 0.807843 0.254902
0.250980 0.803922 0.250980
0.305882 0.807843 0.254902
0.360784 0.807843 0.254902
0.423529 0.807843 0.258824
0.474510 0.815686 0.250980
0.533333 0.811765 0.262745
0.592157 0.815686 0.258824
0.643137 0.811765 0.262745
0.701961 0.819608 0.262745
0.760784 0.815686 0.258824
0.815686 0.823529 0.266667
0.874510 0.823529 0.270588
0.929412 0.819608 0.266667
0.980392 0.831373 0.274510
0.145098 0.858824 0.250980
0.200000 0.858824 0.254902
0.254902 0.862745 0.254902
0.309804 0.866667 0.258824
0.368627 0.866667 0.262745
0.427451 0.866667 0.262745
0.478431 0.870588 0.266667
0.537255 0.866667 0.262745
0.596078 0.874510 0.262745
0.647059 0.870588 0.258824
0.701961 0.874510 0.262745
0.764706 0.882353 0.270588
0.815686 0.878431 0.266667
0.870588 0.882353 0.270588
0.933333 0.878431 0.274510
0.984314 0.886275 0.274510
0.149020 0.917647 0.254902
0.200000 0.921569 0.258824
0.258824 0.921569 0.262745
0.309804 0.917647 0.258824
0.372549 0.925490 0.266667
0.423529 0.921569 0.262745
0.490196 0.925490 0.270588
0.533333 0.929412 0.258824
0.596078 0.925490 0.270588
0.658824 0.933333 0.270588
0.709804 0.933333 0.266667
0.764706 0.933333 0.270588
0.819608 0.937255 0.274510
0.874510 0.941176 0.274510
0.933333 0.933333 0.274510
0.988235 0.945098 0.278431
0.152941 0.976471 0.262745
0.200000 0.976471 0.258824
0.266667 0.980392 0.266667
0.317647 0.976471 0.262745
0.372549 0.980392 0.266667
0.427451 0.984314 0.258824
0.490196 0.980392 0.270588
0.541176 0.988235 0.266667
0.596078 0.988235 0.274510
0.658824 0.988235 0.270588
0.705882 0.992157 0.282353
0.768627 0.992157 0.274510
0.819608 0.992157 0.274510
0.882353 1.000000 0.278431
0.937255 1.000000 0.282353
0.996078 0.996078 0.282353
0.113725 0.121569 0.274510
0.176471 0.113725 0.282353
0.223529 0.121569 0.274510
0.282353 0.121569 0.286275
0.333333 0.113725 0.270588
0.384314 0.117647 0.278431
0.439216 0.121569 0.270588
0.501961 0.117647 0.282353
0.552941 0.125490 0.278431
0.607843 0.117647 0.274510
0.670588 0.125490 0.282353
0.725490 0.129412 0.286275
0.776471 0.125490 0.282353
0.835294 0.133333 0.290196
0.886275 0.129412 0.286275
0.945098 0.133333 0.290196
0.117647 0.180392 0.278431
0.168627 0.168627 0.278431
0.223529 0.172549 0.270588
0.278431 0.168627 0.278431
0.333333 0.172549 0.270588
0.384314 0.168627 0.278431
0.443137 0.180392 0.278431
0.494118 0.176471 0.274510
0.552941 0.180392 0.278431
0.611765 0.184314 0.286275
0.670588 0.180392 0.282353
0.725490 0.188235 0.290196
0.780392 0.184314 0.286275
0.835294 0.188235 0.290196
0.894118 0.188235 0.294118
0.949020 0.192157 0.294118
0.121569 0.235294 0.286275
0.168627 0.227451 0.282353
0.227451 0.227451 0.270588
0.270588 0.227451 0.278431
0.337255 0.231373 0.278431
0.388235 0.231373 0.274510
0.447059 0.231373 0.278431
0.505882 0.239216 0.286275
0.564706 0.235294 0.282353
0.611765 0.239216 0.286275
0.674510 0.239216 0.286275
0.729412 0.239216 0.290196
0.780392 0.247059 0.294118
0.843137 0.243137 0.294118
0.898039 0.247059 0.298039
0.952941 0.250980 0.298039
0.125490 0.290196 0.290196
0.164706 0.282353 0.278431
0.227451 0.282353 0.282353
0.278431 0.286275 0.274510
0.333333 0.290196 0.278431
0.400000 0.294118 0.286275
0.443137 0.294118 0.282353
0.505882 0.294118 0.286275
0.560784 0.294118 0.286275
0.619608 0.298039 0.290196
0.670588 0.294118 0.286275
0.737255 0.298039 0.294118
0.784314 0.305882 0.298039
0.843137 0.298039 0.294118
0.901961 0.305882 0.294118
0.952941 0.301961 0.298039
0.113725 0.337255 0.282353
0.168627 0.341176 0.274510
0.227451 0.341176 0.286275
0.290196 0.345098 0.278431
0.337255 0.349020 0.290196
0.400000 0.349020 0.286275
0.450980 0.345098 0.282353
0.509804 0.352941 0.290196
0.564706 0.349020 0.286275
0.623529 0.356863 0.294118
0.678431 0.356863 0.298039
0.729412 0.356863 0.294118
0.792157 0.364706 0.294118
0.843137 0.360784 0.298039
0.905882 0.360784 0.294118
0.952941 0.364706 0.305882
0.121569 0.396078 0.286275
0.176471 0.400000 0.278431
0.231373 0.400000 0.290196
0.286275 0.403922 0.286275
0.337255 0.400000 0.290196
0.400000 0.407843 0.290196
0.454902 0.403922 0.294118
0.505882 0.407843 0.290196
0.572549 0.411765 0.298039
0.623529 0.411765 0.294118
0.686275 0.419608 0.294118
0.737255 0.415686 0.298039
0.796078 0.415686 0.294118
0.847059 0.419608 0.305882
0.909804 0.419608 0.298039
0.964706 0.419608 0.309804
0.121569 0.450980 0.286275
0.180392 0.458824 0.286275
0.231373 0.454902 0.290196
0.294118 0.462745 0.290196
0.345098 0.458824 0.294118
0.400000 0.462745 0.290196
0.466667 0.466667 0.298039
0.509804 0.466667 0.294118
0.572549 0.466667 0.298039
0.627451 0.470588 0.298039
0.686275 0.470588 0.301961
0.737255 0.470588 0.301961
0.796078 0.478431 0.298039
0.850980 0.478431 0.309804
