public/luts/pastel.cube
# Studiio — look « pastel », genere par scripts/lut/generer-luts.mjs
# Source : les coefficients de LOOKS_RENDUS, calcules par ffmpeg lui-meme.
# Aucune LUT tierce, aucun telechargement : provenance et licence du depot.
LUT_3D_SIZE 6
DOMAIN_MIN 0.0 0.0 0.0
DOMAIN_MAX 1.0 1.0 1.0
0.141176 0.137255 0.141176
0.282353 0.125490 0.121569
0.435294 0.113725 0.105882
0.603922 0.121569 0.113725
0.776471 0.125490 0.121569
0.941176 0.129412 0.117647
0.121569 0.290196 0.117647
0.290196 0.294118 0.121569
0.450980 0.290196 0.121569
0.615686 0.294118 0.117647
0.788235 0.298039 0.133333
0.956863 0.305882 0.133333
0.113725 0.454902 0.117647
0.290196 0.458824 0.125490
0.454902 0.466667 0.133333
0.631373 0.470588 0.141176
0.792157 0.474510 0.133333
0.960784 0.478431 0.141176
0.133333 0.623529 0.125490
0.298039 0.631373 0.133333
0.466667 0.639216 0.133333
0.631373 0.639216 0.145098
0.803922 0.650980 0.149020
0.976471 0.654902 0.156863
0.141176 0.803922 0.141176
0.305882 0.803922 0.145098
0.478431 0.807843 0.152941
0.647059 0.815686 0.152941
0.815686 0.815686 0.152941
0.980392 0.823529 0.160784
0.145098 0.976471 0.152941
0.321569 0.980392 0.152941
0.482353 0.984314 0.152941
0.650980 0.992157 0.160784
0.823529 0.996078 0.168627
0.988235 0.996078 0.172549
0.113725 0.121569 0.274510
0.282353 0.121569 0.286275
0.439216 0.121569 0.270588
0.607843 0.117647 0.274510
0.776471 0.125490 0.282353
0.945098 0.133333 0.290196
0.125490 0.290196 0.290196
0.278431 0.286275 0.274510
0.443137 0.294118 0.282353
0.619608 0.298039 0.290196
0.784314 0.305882 0.298039
0.952941 0.301961 0.298039
0.121569 0.450980 0.286275
0.294118 0.462745 0.290196
0.466667 0.466667 0.298039
0.627451 0.470588 0.298039
0.796078 0.478431 0.298039
0.968627 0.478431 0.313725
0.129412 0.631373 0.294118
0.294118 0.635294 0.294118
0.466667 0.635294 0.301961
0.635294 0.643137 0.309804
0.807843 0.647059 0.317647
0.976471 0.654902 0.317647
0.141176 0.803922 0.301961
0.313725 0.807843 0.309804
0.478431 0.807843 0.313725
0.647059 0.815686 0.313725
0.811765 0.823529 0.329412
0.980392 0.831373 0.325490
0.152941 0.972549 0.313725
0.321569 0.980392 0.321569
0.486275 0.988235 0.329412
0.662745 0.992157 0.333333
0.823529 0.996078 0.329412
0.996078 0.996078 0.337255
0.109804 0.109804 0.431373
0.274510 0.117647 0.439216
0.447059 0.113725 0.439216
0.611765 0.125490 0.439216
0.780392 0.129412 0.454902
0.949020 0.129412 0.450980
0.113725 0.286275 0.439216
0.282353 0.294118 0.439216
0.454902 0.294118 0.454902
0.615686 0.298039 0.450980
0.792157 0.301961 0.458824
0.956863 0.309804 0.466667
0.125490 0.454902 0.450980
0.290196 0.462745 0.458824
0.458824 0.470588 0.458824
0.627451 0.478431 0.466667
0.796078 0.474510 0.466667
0.964706 0.482353 0.474510
0.129412 0.631373 0.454902
0.301961 0.635294 0.466667
0.470588 0.643137 0.466667
0.639216 0.639216 0.470588
0.811765 0.650980 0.482353
0.980392 0.658824 0.482353
0.145098 0.807843 0.466667
0.309804 0.807843 0.470588
0.474510 0.815686 0.478431
0.650980 0.819608 0.486275
0.811765 0.823529 0.486275
0.984314 0.823529 0.494118
0.156863 0.976471 0.486275
0.325490 0.984314 0.486275
0.494118 0.984314 0.486275
0.658824 0.992157 0.494118
0.827451 1.000000 0.494118
0.992157 1.000000 0.505882
0.101961 0.113725 0.592157
0.274510 0.113725 0.607843
0.443137 0.121569 0.607843
0.603922 0.125490 0.607843
0.780392 0.129412 0.615686
0.945098 0.137255 0.615686
0.117647 0.290196 0.607843
0.286275 0.286275 0.607843
0.454902 0.294118 0.615686
0.627451 0.298039 0.623529
0.796078 0.305882 0.623529
0.956863 0.305882 0.635294
0.125490 0.454902 0.619608
0.298039 0.466667 0.623529
0.462745 0.474510 0.623529
0.631373 0.474510 0.635294
0.800000 0.482353 0.631373
0.972549 0.482353 0.639216
0.141176 0.631373 0.627451
0.301961 0.635294 0.627451
0.470588 0.639216 0.635294
0.639216 0.647059 0.635294
0.800000 0.650980 0.639216
0.980392 0.658824 0.650980
0.145098 0.807843 0.635294
0.313725 0.815686 0.635294
0.482353 0.811765 0.647059
0.647059 0.819608 0.647059
0.823529 0.823529 0.654902
0.988235 0.831373 0.658824
0.149020 0.980392 0.647059
0.321569 0.984314 0.647059
0.490196 0.992157 0.654902
0.658824 1.000000 0.658824
0.827451 0.996078 0.662745
0.996078 1.000000 0.670588
0.105882 0.117647 0.764706
0.278431 0.121569 0.772549
0.443137 0.125490 0.768627
0.615686 0.125490 0.772549
0.784314 0.133333 0.780392
0.945098 0.137255 0.784314
0.117647 0.286275 0.776471
0.286275 0.294118 0.772549
0.458824 0.298039 0.788235
0.619608 0.301961 0.784314
0.788235 0.309804 0.792157
0.960784 0.309804 0.800000
0.129412 0.458824 0.784314
0.290196 0.462745 0.780392
0.470588 0.470588 0.792157
0.635294 0.478431 0.800000
0.807843 0.474510 0.800000
0.972549 0.486275 0.800000
0.133333 0.635294 0.788235
0.305882 0.635294 0.803922
0.474510 0.647059 0.800000
0.635294 0.647059 0.796078
0.811765 0.650980 0.811765
0.984314 0.662745 0.815686
0.149020 0.811765 0.800000
0.317647 0.811765 0.803922
0.486275 0.815686 0.811765
0.650980 0.823529 0.819608
0.815686 0.827451 0.815686
0.984314 0.831373 0.819608
0.160784 0.980392 0.811765
0.325490 0.988235 0.819608
0.490196 0.992157 0.815686
0.662745 0.996078 0.827451
0.831373 1.000000 0.827451
1.000000 1.000000 0.831373
0.109804 0.113725 0.925490
0.278431 0.121569 0.933333
0.450980 0.125490 0.941176
0.615686 0.125490 0.933333
0.784314 0.133333 0.949020
0.956863 0.137255 0.949020
0.121569 0.294118 0.941176
0.282353 0.294118 0.941176
0.458824 0.298039 0.949020
0.623529 0.305882 0.949020
0.800000 0.309804 0.956863
0.960784 0.309804 0.960784
0.129412 0.458824 0.945098
0.294118 0.466667 0.952941
0.466667 0.478431 0.956863
0.635294 0.474510 0.968627
0.803922 0.482353 0.968627
0.972549 0.490196 0.972549
0.145098 0.635294 0.960784
0.305882 0.635294 0.964706
0.474510 0.647059 0.960784
0.647059 0.647059 0.968627
0.811765 0.650980 0.972549
0.988235 0.658824 0.984314
0.149020 0.807843 0.968627
0.313725 0.819608 0.968627
0.486275 0.815686 0.980392
0.650980 0.823529 0.980392
0.819608 0.831373 0.980392
0.992157 0.831373 0.996078
0.160784 0.980392 0.980392
0.325490 0.988235 0.980392
0.501961 0.992157 0.988235
0.666667 1.000000 0.996078
0.831373 1.000000 0.996078
1.000000 1.000000 0.996078
