public/luts/peau-naturelle.cube
# Studiio — look « peau-naturelle », genere par scripts/lut/generer-luts.mjs
# Source : les coefficients de LOOKS_RENDUS, calcules par ffmpeg lui-meme.
# Aucune LUT tierce, aucun telechargement : provenance et licence du depot.
LUT_3D_SIZE 16
DOMAIN_MIN 0.0 0.0 0.0
DOMAIN_MAX 1.0 1.0 1.0
0.000000 0.000000 0.000000
0.031373 0.000000 0.000000
0.105882 0.000000 0.000000
0.168627 0.000000 0.000000
0.243137 0.000000 0.000000
0.317647 0.003922 0.000000
0.407843 0.011765 0.000000
0.486275 0.011765 0.000000
0.552941 0.015686 0.000000
0.611765 0.011765 0.000000
0.686275 0.007843 0.000000
0.749020 0.003922 0.000000
0.815686 0.000000 0.000000
0.882353 0.000000 0.000000
0.949020 0.000000 0.000000
1.000000 0.000000 0.000000
0.000000 0.047059 0.000000
0.031373 0.043137 0.000000
0.105882 0.039216 0.000000
0.172549 0.043137 0.000000
0.250980 0.047059 0.000000
0.325490 0.047059 0.000000
0.403922 0.050980 0.000000
0.486275 0.054902 0.000000
0.545098 0.058824 0.000000
0.619608 0.062745 0.000000
0.678431 0.054902 0.000000
0.752941 0.050980 0.000000
0.811765 0.047059 0.000000
0.886275 0.047059 0.000000
0.952941 0.050980 0.000000
1.000000 0.047059 0.000000
0.000000 0.109804 0.000000
0.035294 0.113725 0.000000
0.101961 0.117647 0.000000
0.176471 0.109804 0.000000
0.247059 0.117647 0.000000
0.325490 0.113725 0.000000
0.396078 0.117647 0.000000
0.494118 0.133333 0.000000
0.556863 0.129412 0.000000
0.619608 0.125490 0.000000
0.682353 0.125490 0.000000
0.752941 0.121569 0.000000
0.819608 0.117647 0.000000
0.890196 0.117647 0.000000
0.949020 0.113725 0.000000
1.000000 0.121569 0.000000
0.000000 0.184314 0.000000
0.039216 0.180392 0.000000
0.101961 0.180392 0.000000
0.172549 0.180392 0.000000
0.247059 0.180392 0.000000
0.337255 0.192157 0.000000
0.403922 0.192157 0.000000
0.486275 0.192157 0.000000
0.556863 0.200000 0.000000
0.619608 0.200000 0.000000
0.686275 0.192157 0.000000
0.749020 0.192157 0.000000
0.811765 0.184314 0.000000
0.882353 0.184314 0.000000
0.956863 0.188235 0.000000
1.000000 0.188235 0.000000
0.003922 0.250980 0.000000
0.043137 0.254902 0.000000
0.109804 0.250980 0.000000
0.180392 0.254902 0.000000
0.250980 0.258824 0.000000
0.329412 0.258824 0.000000
0.403922 0.254902 0.000000
0.486275 0.270588 0.000000
0.556863 0.270588 0.000000
0.623529 0.266667 0.000000
0.690196 0.258824 0.000000
0.749020 0.254902 0.000000
0.819608 0.258824 0.000000
0.882353 0.258824 0.000000
0.956863 0.250980 0.000000
1.000000 0.254902 0.000000
0.015686 0.325490 0.000000
0.054902 0.325490 0.000000
0.129412 0.329412 0.000000
0.192157 0.329412 0.000000
0.258824 0.325490 0.000000
0.329412 0.333333 0.000000
0.411765 0.333333 0.000000
0.486275 0.333333 0.000000
0.552941 0.341176 0.000000
0.615686 0.333333 0.000000
0.690196 0.337255 0.000000
0.756863 0.329412 0.000000
0.811765 0.325490 0.000000
0.886275 0.325490 0.000000
0.949020 0.325490 0.000000
1.000000 0.325490 0.000000
0.027451 0.403922 0.000000
0.062745 0.403922 0.000000
0.129412 0.400000 0.000000
0.211765 0.403922 0.000000
0.270588 0.407843 0.000000
0.341176 0.403922 0.000000
0.415686 0.403922 0.000000
0.490196 0.403922 0.000000
0.556863 0.407843 0.000000
0.627451 0.403922 0.000000
0.682353 0.403922 0.000000
0.752941 0.392157 0.000000
0.815686 0.392157 0.000000
0.890196 0.392157 0.000000
0.956863 0.400000 0.000000
1.000000 0.396078 0.000000
0.035294 0.474510 0.000000
0.070588 0.470588 0.000000
0.141176 0.482353 0.000000
0.215686 0.474510 0.000000
0.278431 0.474510 0.000000
0.352941 0.474510 0.000000
0.419608 0.478431 0.000000
0.490196 0.478431 0.000000
0.560784 0.478431 0.000000
0.619608 0.470588 0.000000
0.686275 0.470588 0.000000
0.749020 0.470588 0.000000
0.819608 0.462745 0.000000
0.886275 0.466667 0.000000
0.956863 0.462745 0.000000
1.000000 0.466667 0.000000
0.035294 0.549020 0.000000
0.074510 0.545098 0.000000
0.141176 0.545098 0.000000
0.207843 0.549020 0.000000
0.286275 0.545098 0.000000
0.349020 0.545098 0.000000
0.423529 0.545098 0.000000
0.486275 0.545098 0.000000
0.560784 0.541176 0.000000
0.627451 0.545098 0.000000
0.690196 0.541176 0.000000
0.752941 0.537255 0.000000
0.823529 0.529412 0.000000
0.890196 0.533333 0.000000
0.956863 0.537255 0.000000
1.000000 0.533333 0.000000
0.031373 0.603922 0.000000
0.074510 0.611765 0.000000
0.145098 0.611765 0.000000
0.207843 0.611765 0.000000
0.286275 0.611765 0.000000
0.349020 0.607843 0.000000
0.411765 0.607843 0.000000
0.490196 0.615686 0.000000
0.549020 0.615686 0.000000
0.623529 0.607843 0.000000
0.686275 0.611765 0.000000
0.756863 0.607843 0.000000
0.819608 0.607843 0.000000
0.894118 0.600000 0.000000
0.956863 0.600000 0.000000
1.000000 0.600000 0.000000
0.027451 0.678431 0.000000
0.070588 0.674510 0.000000
0.133333 0.674510 0.000000
0.207843 0.674510 0.000000
0.270588 0.674510 0.000000
0.352941 0.678431 0.000000
0.415686 0.678431 0.000000
0.482353 0.674510 0.000000
0.549020 0.682353 0.000000
0.623529 0.682353 0.000000
0.690196 0.678431 0.000000
0.760784 0.674510 0.000000
0.819608 0.670588 0.000000
0.886275 0.666667 0.000000
0.964706 0.674510 0.000000
1.000000 0.674510 0.000000
0.023529 0.741176 0.000000
0.066667 0.741176 0.000000
0.133333 0.737255 0.000000
0.207843 0.741176 0.000000
0.274510 0.745098 0.000000
0.341176 0.741176 0.000000
0.411765 0.737255 0.000000
0.482353 0.749020 0.000000
0.549020 0.745098 0.000000
0.615686 0.749020 0.000000
0.686275 0.745098 0.000000
0.752941 0.741176 0.000000
0.827451 0.745098 0.000000
0.890196 0.741176 0.000000
0.956863 0.741176 0.000000
1.000000 0.741176 0.000000
0.019608 0.803922 0.000000
0.058824 0.811765 0.000000
0.137255 0.807843 0.000000
0.200000 0.807843 0.000000
0.270588 0.803922 0.000000
0.341176 0.811765 0.000000
0.407843 0.807843 0.000000
0.478431 0.807843 0.000000
0.549020 0.807843 0.000000
0.611765 0.807843 0.000000
0.690196 0.815686 0.000000
0.756863 0.811765 0.000000
0.827451 0.807843 0.000000
0.894118 0.811765 0.000000
0.952941 0.811765 0.000000
1.000000 0.811765 0.000000
0.019608 0.874510 0.000000
0.062745 0.878431 0.000000
0.129412 0.874510 0.000000
0.207843 0.882353 0.000000
0.278431 0.874510 0.000000
0.337255 0.878431 0.000000
0.403922 0.882353 0.000000
0.474510 0.878431 0.000000
0.545098 0.878431 0.000000
0.619608 0.878431 0.000000
0.682353 0.878431 0.000000
0.749020 0.878431 0.000000
0.823529 0.878431 0.000000
0.894118 0.882353 0.000000
0.960784 0.886275 0.000000
1.000000 0.882353 0.000000
0.019608 0.945098 0.000000
0.062745 0.941176 0.000000
0.133333 0.949020 0.000000
0.200000 0.945098 0.000000
0.270588 0.941176 0.000000
0.341176 0.945098 0.000000
0.407843 0.949020 0.000000
0.482353 0.949020 0.000000
0.545098 0.949020 0.000000
0.619608 0.945098 0.000000
0.686275 0.949020 0.000000
0.756863 0.949020 0.000000
0.819608 0.949020 0.000000
0.894118 0.952941 0.000000
0.960784 0.949020 0.000000
1.000000 0.952941 0.000000
0.019608 1.000000 0.000000
0.070588 1.000000 0.000000
0.133333 1.000000 0.000000
0.203922 1.000000 0.000000
0.270588 1.000000 0.000000
0.341176 1.000000 0.000000
0.411765 1.000000 0.000000
0.474510 1.000000 0.000000
0.545098 1.000000 0.000000
0.619608 1.000000 0.000000
0.690196 1.000000 0.000000
0.756863 1.000000 0.000000
0.823529 1.000000 0.000000
0.890196 1.000000 0.000000
0.968627 1.000000 0.000000
1.000000 1.000000 0.000000
0.000000 0.000000 0.031373
0.031373 0.000000 0.031373
0.105882 0.000000 0.027451
0.172549 0.000000 0.031373
0.243137 0.000000 0.023529
0.313725 0.003922 0.019608
0.411765 0.011765 0.015686
0.482353 0.011765 0.007843
0.556863 0.015686 0.007843
0.615686 0.011765 0.015686
0.678431 0.007843 0.019608
0.752941 0.003922 0.035294
0.811765 0.000000 0.039216
0.878431 0.000000 0.039216
0.945098 0.000000 0.031373
1.000000 0.000000 0.039216
0.000000 0.039216 0.035294
0.035294 0.047059 0.031373
0.101961 0.043137 0.027451
0.172549 0.039216 0.031373
0.254902 0.050980 0.027451
0.329412 0.050980 0.019608
0.400000 0.058824 0.007843
0.486275 0.058824 0.011765
0.552941 0.058824 0.007843
0.623529 0.054902 0.027451
0.682353 0.050980 0.027451
0.752941 0.039216 0.035294
0.815686 0.047059 0.031373
0.886275 0.047059 0.039216
0.949020 0.047059 0.035294
1.000000 0.050980 0.039216
0.000000 0.113725 0.035294
0.035294 0.109804 0.031373
0.105882 0.117647 0.043137
0.180392 0.109804 0.035294
0.250980 0.117647 0.023529
0.333333 0.121569 0.023529
0.407843 0.129412 0.011765
0.486275 0.129412 0.011765
0.556863 0.125490 0.011765
0.615686 0.121569 0.019608
0.678431 0.121569 0.015686
0.749020 0.121569 0.035294
0.819608 0.113725 0.035294
0.886275 0.117647 0.039216
0.952941 0.117647 0.035294
1.000000 0.113725 0.039216
0.000000 0.180392 0.035294
0.035294 0.184314 0.035294
0.105882 0.180392 0.039216
0.164706 0.180392 0.031373
0.262745 0.188235 0.035294
0.333333 0.192157 0.023529
0.415686 0.196078 0.023529
0.482353 0.200000 0.011765
0.556863 0.192157 0.000000
0.623529 0.196078 0.019608
0.690196 0.188235 0.023529
0.745098 0.188235 0.031373
0.815686 0.188235 0.035294
0.882353 0.184314 0.039216
0.956863 0.184314 0.035294
1.000000 0.188235 0.043137
0.003922 0.250980 0.035294
0.047059 0.250980 0.023529
0.125490 0.258824 0.031373
0.184314 0.258824 0.031373
0.254902 0.254902 0.035294
0.333333 0.258824 0.023529
0.415686 0.258824 0.019608
0.490196 0.274510 0.011765
0.556863 0.266667 0.019608
0.623529 0.258824 0.015686
0.686275 0.258824 0.023529
0.749020 0.250980 0.035294
0.811765 0.258824 0.035294
0.886275 0.258824 0.043137
0.952941 0.254902 0.039216
1.000000 0.250980 0.039216
0.015686 0.329412 0.031373
0.062745 0.329412 0.023529
0.129412 0.329412 0.027451
0.196078 0.329412 0.023529
0.262745 0.329412 0.027451
0.333333 0.333333 0.019608
0.415686 0.337255 0.019608
0.490196 0.337255 0.007843
0.552941 0.333333 0.011765
0.619608 0.329412 0.019608
0.690196 0.325490 0.035294
0.756863 0.325490 0.043137
0.815686 0.325490 0.039216
0.886275 0.321569 0.039216
0.956863 0.329412 0.043137
1.000000 0.325490 0.047059
0.023529 0.400000 0.023529
0.066667 0.400000 0.011765
0.141176 0.400000 0.019608
0.211765 0.403922 0.011765
0.278431 0.407843 0.015686
0.349020 0.403922 0.011765
0.407843 0.403922 0.015686
0.494118 0.403922 0.011765
0.560784 0.403922 0.019608
0.615686 0.400000 0.019608
0.686275 0.400000 0.039216
0.752941 0.392157 0.035294
0.819608 0.392157 0.047059
0.886275 0.396078 0.047059
0.956863 0.396078 0.043137
1.000000 0.400000 0.047059
0.035294 0.474510 0.015686
0.074510 0.478431 0.007843
0.141176 0.474510 0.007843
0.215686 0.478431 0.007843
0.282353 0.474510 0.011765
0.345098 0.474510 0.003922
0.423529 0.478431 0.015686
0.490196 0.478431 0.011765
0.560784 0.474510 0.023529
0.619608 0.470588 0.019608
0.690196 0.466667 0.039216
0.752941 0.466667 0.047059
0.823529 0.458824 0.050980
0.886275 0.458824 0.043137
0.956863 0.462745 0.043137
1.000000 0.466667 0.043137
0.035294 0.541176 0.007843
0.074510 0.545098 0.011765
0.145098 0.541176 0.015686
0.207843 0.541176 0.003922
0.286275 0.541176 0.019608
0.352941 0.541176 0.015686
0.419608 0.537255 0.019608
0.482353 0.545098 0.015686
0.556863 0.545098 0.023529
0.623529 0.541176 0.031373
0.686275 0.537255 0.043137
0.752941 0.529412 0.039216
0.815686 0.537255 0.043137
0.894118 0.533333 0.043137
0.956863 0.533333 0.043137
1.000000 0.537255 0.043137
0.031373 0.611765 0.019608
0.070588 0.603922 0.011765
0.137255 0.611765 0.027451
0.211765 0.607843 0.023529
0.270588 0.607843 0.027451
0.352941 0.607843 0.023529
0.415686 0.611765 0.031373
0.482353 0.607843 0.027451
0.549020 0.611765 0.035294
0.627451 0.603922 0.027451
0.686275 0.603922 0.027451
0.760784 0.603922 0.043137
0.819608 0.603922 0.043137
0.898039 0.603922 0.043137
0.960784 0.600000 0.047059
1.000000 0.603922 0.039216
0.027451 0.678431 0.027451
0.070588 0.670588 0.039216
0.137255 0.670588 0.035294
0.203922 0.666667 0.023529
0.274510 0.678431 0.039216
0.352941 0.670588 0.035294
0.415686 0.674510 0.043137
0.474510 0.674510 0.035294
0.549020 0.670588 0.031373
0.615686 0.682353 0.035294
0.690196 0.674510 0.035294
0.752941 0.670588 0.035294
0.823529 0.670588 0.047059
0.882353 0.670588 0.039216
0.964706 0.670588 0.047059
1.000000 0.674510 0.047059
0.023529 0.741176 0.035294
0.058824 0.737255 0.039216
0.137255 0.741176 0.047059
0.200000 0.737255 0.050980
0.270588 0.737255 0.043137
0.333333 0.741176 0.043137
0.411765 0.733333 0.035294
0.478431 0.741176 0.039216
0.549020 0.741176 0.043137
0.615686 0.741176 0.039216
0.682353 0.741176 0.047059
0.756863 0.737255 0.039216
0.823529 0.741176 0.047059
0.890196 0.745098 0.047059
0.960784 0.741176 0.050980
1.000000 0.737255 0.043137
0.019608 0.807843 0.047059
0.062745 0.807843 0.050980
0.129412 0.807843 0.043137
0.203922 0.807843 0.050980
0.270588 0.803922 0.039216
0.337255 0.807843 0.047059
0.411765 0.811765 0.043137
0.478431 0.807843 0.039216
0.541176 0.807843 0.043137
0.615686 0.807843 0.039216
0.682353 0.811765 0.047059
0.752941 0.815686 0.047059
0.823529 0.811765 0.050980
0.890196 0.807843 0.043137
0.960784 0.815686 0.054902
1.000000 0.811765 0.050980
0.019608 0.874510 0.043137
0.062745 0.870588 0.047059
0.129412 0.878431 0.039216
0.207843 0.874510 0.047059
0.274510 0.882353 0.043137
0.341176 0.878431 0.047059
0.403922 0.878431 0.043137
0.478431 0.878431 0.047059
0.549020 0.878431 0.047059
0.619608 0.878431 0.043137
0.686275 0.882353 0.050980
0.752941 0.878431 0.043137
0.827451 0.878431 0.050980
0.898039 0.882353 0.050980
0.960784 0.878431 0.050980
1.000000 0.886275 0.043137
0.019608 0.945098 0.039216
0.070588 0.945098 0.047059
0.129412 0.945098 0.039216
0.203922 0.945098 0.047059
0.270588 0.945098 0.043137
0.341176 0.941176 0.043137
0.411765 0.949020 0.047059
0.474510 0.949020 0.050980
0.549020 0.949020 0.050980
0.615686 0.945098 0.050980
0.690196 0.949020 0.050980
0.756863 0.952941 0.058824
0.823529 0.949020 0.050980
0.890196 0.949020 0.039216
0.964706 0.949020 0.047059
1.000000 0.952941 0.043137
0.019608 1.000000 0.039216
0.066667 1.000000 0.047059
0.133333 1.000000 0.043137
0.196078 1.000000 0.043137
0.274510 1.000000 0.047059
0.341176 1.000000 0.050980
0.411765 1.000000 0.043137
0.478431 1.000000 0.050980
0.549020 1.000000 0.050980
0.615686 1.000000 0.058824
0.690196 1.000000 0.050980
0.752941 1.000000 0.054902
0.827451 1.000000 0.047059
0.894118 1.000000 0.050980
0.960784 1.000000 0.047059
1.000000 1.000000 0.047059
0.000000 0.000000 0.101961
0.035294 0.000000 0.105882
0.109804 0.000000 0.105882
0.172549 0.000000 0.101961
0.243137 0.000000 0.098039
0.325490 0.003922 0.086275
0.407843 0.011765 0.086275
0.486275 0.011765 0.074510
0.549020 0.015686 0.074510
0.619608 0.011765 0.078431
0.682353 0.007843 0.094118
0.752941 0.003922 0.094118
0.815686 0.000000 0.109804
0.882353 0.000000 0.105882
0.945098 0.000000 0.109804
1.000000 0.000000 0.109804
0.000000 0.043137 0.105882
0.031373 0.043137 0.101961
0.098039 0.047059 0.101961
0.184314 0.047059 0.094118
0.250980 0.047059 0.094118
0.333333 0.054902 0.086275
0.407843 0.058824 0.078431
0.486275 0.054902 0.070588
0.556863 0.058824 0.086275
0.619608 0.050980 0.082353
0.682353 0.050980 0.098039
0.741176 0.047059 0.101961
0.811765 0.043137 0.109804
0.882353 0.050980 0.109804
0.952941 0.047059 0.113725
1.000000 0.050980 0.101961
0.000000 0.109804 0.094118
0.043137 0.113725 0.105882
0.101961 0.113725 0.101961
0.188235 0.121569 0.094118
0.262745 0.121569 0.086275
0.333333 0.125490 0.074510
0.419608 0.133333 0.082353
0.482353 0.129412 0.074510
0.552941 0.117647 0.086275
0.615686 0.121569 0.094118
0.678431 0.109804 0.105882
0.741176 0.117647 0.105882
0.819608 0.113725 0.113725
0.882353 0.117647 0.101961
0.956863 0.117647 0.105882
1.000000 0.121569 0.105882
0.000000 0.180392 0.101961
0.035294 0.180392 0.105882
0.117647 0.184314 0.094118
0.180392 0.184314 0.098039
0.270588 0.192157 0.094118
0.341176 0.196078 0.078431
0.419608 0.196078 0.078431
0.486275 0.196078 0.078431
0.549020 0.188235 0.090196
0.619608 0.188235 0.094118
0.682353 0.188235 0.109804
0.745098 0.188235 0.101961
0.807843 0.184314 0.101961
0.890196 0.188235 0.105882
0.952941 0.188235 0.109804
1.000000 0.188235 0.109804
0.007843 0.254902 0.098039
0.050980 0.250980 0.098039
0.125490 0.262745 0.090196
0.200000 0.262745 0.094118
0.258824 0.262745 0.090196
0.345098 0.258824 0.086275
0.415686 0.266667 0.082353
0.490196 0.262745 0.090196
0.552941 0.266667 0.098039
0.623529 0.258824 0.090196
0.678431 0.254902 0.098039
0.752941 0.258824 0.105882
0.815686 0.258824 0.109804
0.882353 0.254902 0.101961
0.956863 0.254902 0.109804
1.000000 0.254902 0.105882
0.015686 0.329412 0.094118
0.070588 0.329412 0.094118
0.137255 0.333333 0.082353
0.207843 0.329412 0.086275
0.274510 0.333333 0.086275
0.345098 0.333333 0.090196
0.419608 0.337255 0.082353
0.486275 0.333333 0.094118
0.549020 0.329412 0.082353
0.619608 0.325490 0.098039
0.690196 0.325490 0.109804
0.745098 0.325490 0.101961
0.819608 0.325490 0.109804
0.882353 0.325490 0.105882
0.952941 0.325490 0.113725
1.000000 0.329412 0.109804
0.027451 0.403922 0.086275
0.070588 0.400000 0.086275
0.141176 0.400000 0.074510
0.211765 0.407843 0.086275
0.282353 0.403922 0.082353
0.349020 0.407843 0.090196
0.415686 0.407843 0.074510
0.490196 0.403922 0.086275
0.556863 0.403922 0.094118
0.615686 0.396078 0.098039
0.682353 0.392157 0.101961
0.749020 0.392157 0.113725
0.823529 0.392157 0.113725
0.890196 0.400000 0.109804
0.956863 0.396078 0.113725
1.000000 0.396078 0.109804
0.035294 0.470588 0.074510
0.074510 0.478431 0.086275
0.145098 0.470588 0.086275
0.211765 0.466667 0.090196
0.286275 0.470588 0.074510
0.349020 0.474510 0.086275
0.419608 0.478431 0.086275
0.482353 0.474510 0.086275
0.556863 0.466667 0.086275
0.619608 0.466667 0.105882
0.682353 0.466667 0.109804
0.749020 0.462745 0.113725
0.819608 0.466667 0.113725
0.890196 0.458824 0.117647
0.949020 0.462745 0.109804
1.000000 0.466667 0.113725
0.035294 0.541176 0.082353
0.074510 0.537255 0.090196
0.137255 0.541176 0.086275
0.207843 0.541176 0.094118
0.278431 0.537255 0.090196
0.352941 0.537255 0.094118
0.411765 0.541176 0.090196
0.482353 0.533333 0.094118
0.556863 0.541176 0.098039
0.623529 0.533333 0.105882
0.686275 0.533333 0.113725
0.749020 0.529412 0.117647
0.811765 0.529412 0.109804
0.898039 0.533333 0.121569
0.956863 0.533333 0.117647
1.000000 0.529412 0.109804
0.031373 0.607843 0.074510
0.074510 0.607843 0.094118
0.137255 0.603922 0.098039
0.207843 0.603922 0.101961
0.270588 0.603922 0.098039
0.345098 0.600000 0.101961
0.411765 0.607843 0.105882
0.482353 0.603922 0.105882
0.549020 0.603922 0.101961
0.615686 0.603922 0.109804
0.686275 0.600000 0.105882
0.749020 0.600000 0.117647
0.819608 0.603922 0.117647
0.882353 0.603922 0.109804
0.960784 0.603922 0.109804
1.000000 0.607843 0.117647
0.027451 0.678431 0.101961
0.066667 0.670588 0.098039
0.137255 0.670588 0.105882
0.200000 0.666667 0.109804
0.270588 0.670588 0.105882
0.333333 0.674510 0.113725
0.411765 0.666667 0.109804
0.474510 0.670588 0.117647
0.549020 0.666667 0.109804
0.611765 0.670588 0.117647
0.690196 0.670588 0.117647
0.752941 0.670588 0.109804
0.819608 0.666667 0.105882
0.890196 0.678431 0.117647
0.964706 0.670588 0.113725
1.000000 0.674510 0.117647
0.023529 0.741176 0.105882
0.062745 0.737255 0.109804
0.137255 0.733333 0.113725
0.203922 0.741176 0.113725
0.270588 0.737255 0.109804
0.333333 0.737255 0.109804
0.411765 0.737255 0.109804
0.478431 0.737255 0.117647
0.545098 0.745098 0.117647
0.615686 0.741176 0.109804
0.674510 0.741176 0.105882
0.760784 0.745098 0.117647
0.823529 0.745098 0.113725
0.890196 0.741176 0.113725
0.956863 0.745098 0.113725
1.000000 0.737255 0.117647
0.019608 0.803922 0.113725
0.066667 0.811765 0.113725
0.125490 0.807843 0.117647
0.200000 0.803922 0.109804
0.266667 0.807843 0.117647
0.341176 0.807843 0.117647
0.403922 0.807843 0.113725
0.482353 0.807843 0.109804
0.545098 0.807843 0.105882
0.615686 0.807843 0.113725
0.682353 0.815686 0.113725
0.752941 0.811765 0.113725
0.823529 0.811765 0.113725
0.894118 0.807843 0.117647
0.960784 0.811765 0.113725
1.000000 0.815686 0.121569
0.019608 0.874510 0.117647
0.062745 0.874510 0.109804
0.125490 0.874510 0.113725
0.203922 0.878431 0.117647
0.270588 0.874510 0.121569
0.345098 0.878431 0.109804
0.407843 0.878431 0.113725
0.478431 0.878431 0.113725
0.552941 0.882353 0.113725
0.615686 0.878431 0.113725
0.682353 0.878431 0.109804
0.749020 0.882353 0.117647
0.823529 0.882353 0.113725
0.890196 0.878431 0.117647
0.964706 0.882353 0.117647
1.000000 0.878431 0.117647
0.019608 0.941176 0.113725
0.066667 0.949020 0.117647
0.133333 0.945098 0.121569
0.196078 0.949020 0.105882
0.274510 0.945098 0.113725
0.341176 0.949020 0.113725
0.415686 0.949020 0.121569
0.478431 0.949020 0.113725
0.545098 0.945098 0.117647
0.619608 0.949020 0.117647
0.690196 0.949020 0.113725
0.752941 0.949020 0.117647
0.827451 0.952941 0.117647
0.894118 0.945098 0.117647
0.964706 0.945098 0.113725
1.000000 0.952941 0.125490
0.019608 1.000000 0.121569
0.066667 1.000000 0.105882
0.137255 1.000000 0.113725
0.203922 1.000000 0.113725
0.274510 1.000000 0.113725
0.345098 1.000000 0.113725
0.415686 1.000000 0.117647
0.474510 1.000000 0.109804
0.549020 1.000000 0.121569
0.615686 1.000000 0.117647
0.690196 1.000000 0.125490
0.756863 1.000000 0.117647
0.819608 1.000000 0.121569
0.898039 1.000000 0.125490
0.964706 1.000000 0.113725
1.000000 1.000000 0.113725
0.000000 0.000000 0.168627
0.031373 0.000000 0.172549
0.105882 0.000000 0.172549
0.172549 0.000000 0.172549
0.239216 0.000000 0.164706
0.329412 0.007843 0.168627
0.403922 0.007843 0.152941
0.490196 0.015686 0.145098
0.552941 0.015686 0.141176
0.615686 0.011765 0.145098
0.682353 0.007843 0.156863
0.752941 0.003922 0.168627
0.811765 0.000000 0.172549
0.878431 0.000000 0.176471
0.952941 0.000000 0.176471
1.000000 0.000000 0.180392
0.000000 0.047059 0.172549
0.035294 0.043137 0.172549
0.098039 0.043137 0.168627
0.184314 0.043137 0.180392
0.254902 0.047059 0.164706
0.325490 0.050980 0.152941
0.411765 0.058824 0.145098
0.482353 0.058824 0.141176
0.556863 0.054902 0.145098
0.619608 0.054902 0.160784
0.682353 0.050980 0.160784
0.745098 0.047059 0.172549
0.819608 0.047059 0.176471
0.882353 0.047059 0.180392
0.956863 0.047059 0.180392
1.000000 0.047059 0.180392
0.000000 0.105882 0.176471
0.039216 0.117647 0.180392
0.117647 0.117647 0.164706
0.180392 0.117647 0.160784
0.266667 0.121569 0.152941
0.341176 0.125490 0.145098
0.419608 0.129412 0.141176
0.486275 0.129412 0.152941
0.556863 0.121569 0.156863
0.611765 0.113725 0.160784
0.686275 0.117647 0.176471
0.745098 0.117647 0.180392
0.811765 0.121569 0.180392
0.886275 0.113725 0.180392
0.949020 0.113725 0.176471
1.000000 0.121569 0.188235
0.000000 0.180392 0.180392
0.035294 0.180392 0.168627
0.117647 0.180392 0.164706
0.192157 0.192157 0.152941
0.270588 0.196078 0.145098
0.352941 0.200000 0.149020
0.415686 0.196078 0.145098
0.478431 0.188235 0.152941
0.545098 0.196078 0.164706
0.615686 0.184314 0.176471
0.674510 0.184314 0.172549
0.749020 0.184314 0.180392
0.811765 0.184314 0.176471
0.890196 0.184314 0.184314
0.956863 0.188235 0.172549
1.000000 0.184314 0.176471
0.007843 0.254902 0.168627
0.050980 0.254902 0.160784
0.125490 0.262745 0.160784
0.207843 0.262745 0.149020
0.274510 0.266667 0.156863
0.352941 0.262745 0.145098
0.419608 0.266667 0.145098
0.486275 0.262745 0.164706
0.545098 0.258824 0.160784
0.615686 0.254902 0.176471
0.678431 0.250980 0.176471
0.745098 0.254902 0.184314
0.819608 0.258824 0.172549
0.882353 0.258824 0.176471
0.956863 0.250980 0.172549
1.000000 0.258824 0.180392
0.015686 0.329412 0.164706
0.062745 0.325490 0.156863
0.141176 0.333333 0.156863
0.207843 0.337255 0.145098
0.282353 0.337255 0.152941
0.349020 0.341176 0.152941
0.423529 0.333333 0.156863
0.478431 0.329412 0.156863
0.549020 0.325490 0.176471
0.611765 0.325490 0.180392
0.686275 0.325490 0.172549
0.749020 0.325490 0.176471
0.815686 0.321569 0.172549
0.890196 0.329412 0.180392
0.956863 0.329412 0.176471
1.000000 0.325490 0.180392
0.023529 0.400000 0.152941
0.066667 0.403922 0.149020
0.149020 0.403922 0.152941
0.211765 0.407843 0.156863
0.286275 0.400000 0.156863
0.345098 0.403922 0.152941
0.415686 0.403922 0.160784
0.486275 0.400000 0.168627
0.552941 0.392157 0.176471
0.615686 0.396078 0.172549
0.678431 0.392157 0.180392
0.749020 0.388235 0.172549
0.819608 0.400000 0.176471
0.886275 0.396078 0.180392
