public/luts/peau-doree.cube
# Studiio — look « peau-doree », genere par scripts/lut/generer-luts.mjs
# Source : les coefficients de LOOKS_RENDUS, calcules par ffmpeg lui-meme.
# Aucune LUT tierce, aucun telechargement : provenance et licence du depot.
LUT_3D_SIZE 16
DOMAIN_MIN 0.0 0.0 0.0
DOMAIN_MAX 1.0 1.0 1.0
0.000000 0.000000 0.000000
0.019608 0.000000 0.000000
0.105882 0.000000 0.000000
0.172549 0.000000 0.000000
0.270588 0.015686 0.000000
0.360784 0.035294 0.000000
0.458824 0.058824 0.000000
0.537255 0.070588 0.000000
0.627451 0.066667 0.000000
0.698039 0.058824 0.000000
0.784314 0.050980 0.000000
0.858824 0.043137 0.000000
0.933333 0.043137 0.000000
1.000000 0.043137 0.000000
1.000000 0.043137 0.000000
1.000000 0.043137 0.000000
0.000000 0.039216 0.000000
0.023529 0.035294 0.000000
0.101961 0.035294 0.000000
0.180392 0.035294 0.000000
0.270588 0.047059 0.000000
0.356863 0.066667 0.000000
0.458824 0.094118 0.000000
0.537255 0.101961 0.000000
0.603922 0.098039 0.000000
0.701961 0.090196 0.000000
0.772549 0.078431 0.000000
0.862745 0.070588 0.000000
0.929412 0.070588 0.000000
1.000000 0.066667 0.000000
1.000000 0.066667 0.000000
1.000000 0.062745 0.000000
0.000000 0.117647 0.000000
0.023529 0.113725 0.000000
0.098039 0.117647 0.000000
0.180392 0.105882 0.000000
0.266667 0.125490 0.000000
0.356863 0.141176 0.000000
0.443137 0.160784 0.000000
0.537255 0.180392 0.000000
0.603922 0.176471 0.000000
0.698039 0.160784 0.000000
0.776471 0.152941 0.000000
0.858824 0.145098 0.000000
0.933333 0.145098 0.000000
1.000000 0.137255 0.000000
1.000000 0.137255 0.000000
1.000000 0.141176 0.000000
0.000000 0.192157 0.000000
0.023529 0.188235 0.000000
0.090196 0.184314 0.000000
0.180392 0.184314 0.000000
0.254902 0.192157 0.000000
0.360784 0.219608 0.000000
0.443137 0.235294 0.000000
0.533333 0.250980 0.000000
0.619608 0.247059 0.000000
0.694118 0.239216 0.000000
0.772549 0.223529 0.000000
0.850980 0.219608 0.000000
0.929412 0.219608 0.000000
0.996078 0.215686 0.000000
1.000000 0.215686 0.000000
1.000000 0.215686 0.000000
0.011765 0.274510 0.000000
0.027451 0.282353 0.000000
0.101961 0.278431 0.000000
0.176471 0.278431 0.000000
0.262745 0.274510 0.000000
0.345098 0.290196 0.000000
0.439216 0.305882 0.000000
0.529412 0.329412 0.000000
0.611765 0.317647 0.000000
0.690196 0.309804 0.000000
0.776471 0.301961 0.000000
0.847059 0.294118 0.000000
0.929412 0.294118 0.000000
1.000000 0.294118 0.000000
1.000000 0.286275 0.000000
1.000000 0.290196 0.000000
0.027451 0.372549 0.000000
0.043137 0.372549 0.000000
0.121569 0.372549 0.000000
0.200000 0.372549 0.000000
0.274510 0.364706 0.000000
0.352941 0.372549 0.000000
0.443137 0.384314 0.000000
0.521569 0.400000 0.000000
0.600000 0.403922 0.000000
0.690196 0.384314 0.000000
0.772549 0.384314 0.000000
0.850980 0.368627 0.000000
0.921569 0.372549 0.000000
1.000000 0.364706 0.000000
1.000000 0.364706 0.000000
1.000000 0.360784 0.000000
0.047059 0.470588 0.000000
0.062745 0.474510 0.000000
0.133333 0.474510 0.000000
0.223529 0.470588 0.000000
0.290196 0.470588 0.000000
0.360784 0.458824 0.000000
0.443137 0.470588 0.000000
0.525490 0.474510 0.000000
0.596078 0.478431 0.000000
0.690196 0.458824 0.000000
0.768627 0.454902 0.000000
0.847059 0.439216 0.000000
0.917647 0.443137 0.000000
1.000000 0.439216 0.000000
1.000000 0.439216 0.000000
1.000000 0.443137 0.000000
0.054902 0.560784 0.000000
0.062745 0.552941 0.000000
0.141176 0.560784 0.000000
0.223529 0.552941 0.000000
0.294118 0.552941 0.000000
0.376471 0.552941 0.000000
0.447059 0.552941 0.000000
0.521569 0.552941 0.000000
0.607843 0.552941 0.000000
0.678431 0.541176 0.000000
0.764706 0.529412 0.000000
0.843137 0.521569 0.000000
0.917647 0.513725 0.000000
0.992157 0.521569 0.000000
1.000000 0.513725 0.000000
1.000000 0.513725 0.000000
0.058824 0.631373 0.000000
0.062745 0.631373 0.000000
0.141176 0.627451 0.000000
0.215686 0.631373 0.000000
0.301961 0.627451 0.000000
0.364706 0.623529 0.000000
0.454902 0.627451 0.000000
0.517647 0.623529 0.000000
0.600000 0.619608 0.000000
0.678431 0.615686 0.000000
0.756863 0.603922 0.000000
0.843137 0.596078 0.000000
0.917647 0.592157 0.000000
0.992157 0.592157 0.000000
1.000000 0.592157 0.000000
1.000000 0.584314 0.000000
0.062745 0.698039 0.000000
0.070588 0.698039 0.000000
0.149020 0.698039 0.000000
0.223529 0.690196 0.000000
0.305882 0.694118 0.000000
0.376471 0.690196 0.000000
0.443137 0.690196 0.000000
0.529412 0.694118 0.000000
0.596078 0.690196 0.000000
0.682353 0.686275 0.000000
0.752941 0.682353 0.000000
0.839216 0.670588 0.000000
0.913725 0.670588 0.000000
0.996078 0.662745 0.000000
1.000000 0.666667 0.000000
1.000000 0.662745 0.000000
0.066667 0.768627 0.000000
0.070588 0.764706 0.000000
0.137255 0.760784 0.000000
0.227451 0.760784 0.000000
0.298039 0.760784 0.000000
0.380392 0.760784 0.000000
0.450980 0.756863 0.000000
0.529412 0.756863 0.000000
0.600000 0.760784 0.000000
0.686275 0.752941 0.000000
0.756863 0.752941 0.000000
0.839216 0.741176 0.000000
0.909804 0.745098 0.000000
0.992157 0.733333 0.000000
1.000000 0.741176 0.000000
1.000000 0.737255 0.000000
0.070588 0.827451 0.000000
0.078431 0.831373 0.000000
0.145098 0.827451 0.000000
0.231373 0.823529 0.000000
0.301961 0.827451 0.000000
0.384314 0.827451 0.000000
0.450980 0.823529 0.000000
0.529412 0.831373 0.000000
0.607843 0.819608 0.000000
0.682353 0.819608 0.000000
0.760784 0.819608 0.000000
0.831373 0.815686 0.000000
0.913725 0.823529 0.000000
0.980392 0.819608 0.000000
1.000000 0.811765 0.000000
1.000000 0.815686 0.000000
0.070588 0.905882 0.000000
0.070588 0.909804 0.000000
0.145098 0.905882 0.000000
0.219608 0.909804 0.000000
0.301961 0.898039 0.000000
0.376471 0.905882 0.000000
0.450980 0.898039 0.000000
0.521569 0.898039 0.000000
0.611765 0.898039 0.000000
0.678431 0.894118 0.000000
0.764706 0.898039 0.000000
0.831373 0.894118 0.000000
0.909804 0.894118 0.000000
0.984314 0.894118 0.000000
1.000000 0.890196 0.000000
1.000000 0.886275 0.000000
0.070588 0.976471 0.000000
0.070588 0.984314 0.000000
0.145098 0.976471 0.000000
0.227451 0.984314 0.000000
0.301961 0.976471 0.000000
0.372549 0.972549 0.000000
0.447059 0.980392 0.000000
0.521569 0.972549 0.000000
0.596078 0.972549 0.000000
0.682353 0.972549 0.000000
0.752941 0.972549 0.000000
0.827451 0.968627 0.000000
0.901961 0.968627 0.000000
0.988235 0.964706 0.000000
1.000000 0.964706 0.000000
1.000000 0.964706 0.000000
0.070588 1.000000 0.000000
0.070588 1.000000 0.000000
0.141176 1.000000 0.000000
0.219608 1.000000 0.000000
0.294118 1.000000 0.000000
0.372549 1.000000 0.000000
0.447059 1.000000 0.000000
0.525490 1.000000 0.000000
0.596078 1.000000 0.000000
0.678431 1.000000 0.000000
0.752941 1.000000 0.000000
0.831373 1.000000 0.000000
0.898039 1.000000 0.000000
0.976471 1.000000 0.000000
1.000000 1.000000 0.000000
1.000000 1.000000 0.000000
0.070588 1.000000 0.000000
0.070588 1.000000 0.000000
0.137255 1.000000 0.000000
0.223529 1.000000 0.000000
0.294118 1.000000 0.000000
0.364706 1.000000 0.000000
0.447059 1.000000 0.000000
0.513725 1.000000 0.000000
0.596078 1.000000 0.000000
0.674510 1.000000 0.000000
0.749020 1.000000 0.000000
0.827451 1.000000 0.000000
0.901961 1.000000 0.000000
0.972549 1.000000 0.000000
1.000000 1.000000 0.000000
1.000000 1.000000 0.000000
0.000000 0.000000 0.023529
0.027451 0.000000 0.031373
0.101961 0.000000 0.015686
0.180392 0.000000 0.027451
0.274510 0.015686 0.000000
0.356863 0.035294 0.000000
0.458824 0.058824 0.000000
0.537255 0.070588 0.000000
0.623529 0.066667 0.000000
0.701961 0.058824 0.000000
0.780392 0.050980 0.000000
0.862745 0.043137 0.000000
0.929412 0.043137 0.000000
1.000000 0.043137 0.000000
1.000000 0.043137 0.000000
1.000000 0.043137 0.000000
0.000000 0.035294 0.023529
0.031373 0.043137 0.027451
0.098039 0.039216 0.015686
0.172549 0.031373 0.019608
0.266667 0.054902 0.000000
0.364706 0.070588 0.000000
0.450980 0.090196 0.000000
0.537255 0.101961 0.000000
0.615686 0.098039 0.000000
0.705882 0.082353 0.000000
0.776471 0.078431 0.000000
0.858824 0.066667 0.000000
0.933333 0.070588 0.000000
1.000000 0.066667 0.000000
1.000000 0.062745 0.000000
1.000000 0.062745 0.000000
0.000000 0.113725 0.031373
0.023529 0.109804 0.019608
0.101961 0.113725 0.027451
0.176471 0.109804 0.015686
0.270588 0.125490 0.000000
0.368627 0.149020 0.000000
0.454902 0.168627 0.000000
0.537255 0.172549 0.000000
0.611765 0.172549 0.000000
0.690196 0.164706 0.000000
0.772549 0.149020 0.000000
0.854902 0.145098 0.000000
0.929412 0.141176 0.000000
1.000000 0.149020 0.000000
1.000000 0.137255 0.000000
1.000000 0.133333 0.000000
0.000000 0.184314 0.023529
0.019608 0.188235 0.015686
0.098039 0.188235 0.023529
0.164706 0.184314 0.015686
0.270588 0.203922 0.000000
0.356863 0.219608 0.000000
0.450980 0.239216 0.000000
0.533333 0.254902 0.000000
0.607843 0.247059 0.000000
0.690196 0.243137 0.000000
0.776471 0.223529 0.000000
0.850980 0.219608 0.000000
0.933333 0.219608 0.000000
1.000000 0.215686 0.000000
1.000000 0.211765 0.000000
1.000000 0.211765 0.000000
0.011765 0.278431 0.003922
0.031373 0.282353 0.000000
0.113725 0.282353 0.000000
0.184314 0.282353 0.000000
0.258824 0.266667 0.000000
0.356863 0.298039 0.000000
0.447059 0.309804 0.000000
0.533333 0.329412 0.000000
0.611765 0.317647 0.000000
0.694118 0.309804 0.000000
0.772549 0.305882 0.000000
0.850980 0.290196 0.000000
0.921569 0.294118 0.000000
1.000000 0.290196 0.000000
1.000000 0.294118 0.000000
1.000000 0.282353 0.000000
0.031373 0.380392 0.000000
0.050980 0.376471 0.000000
0.117647 0.376471 0.000000
0.200000 0.376471 0.000000
0.270588 0.372549 0.000000
0.356863 0.372549 0.000000
0.443137 0.392157 0.000000
0.529412 0.403922 0.000000
0.600000 0.400000 0.000000
0.690196 0.384314 0.000000
0.768627 0.376471 0.000000
0.850980 0.368627 0.000000
0.925490 0.372549 0.000000
1.000000 0.364706 0.000000
1.000000 0.372549 0.000000
1.000000 0.360784 0.000000
0.047059 0.470588 0.000000
0.062745 0.470588 0.000000
0.137255 0.474510 0.000000
0.215686 0.470588 0.000000
0.294118 0.466667 0.000000
0.372549 0.466667 0.000000
0.439216 0.462745 0.000000
0.529412 0.474510 0.000000
0.600000 0.474510 0.000000
0.674510 0.466667 0.000000
0.772549 0.454902 0.000000
0.843137 0.443137 0.000000
0.921569 0.439216 0.000000
0.996078 0.443137 0.000000
1.000000 0.435294 0.000000
1.000000 0.443137 0.000000
0.054902 0.556863 0.000000
0.066667 0.560784 0.000000
0.141176 0.552941 0.000000
0.215686 0.560784 0.000000
0.298039 0.552941 0.000000
0.368627 0.549020 0.000000
0.450980 0.552941 0.000000
0.517647 0.549020 0.000000
0.603922 0.552941 0.000000
0.674510 0.541176 0.000000
0.768627 0.525490 0.000000
0.843137 0.521569 0.000000
0.917647 0.513725 0.000000
0.992157 0.517647 0.000000
1.000000 0.509804 0.000000
1.000000 0.513725 0.000000
0.058824 0.627451 0.000000
0.070588 0.635294 0.000000
0.145098 0.627451 0.000000
0.215686 0.623529 0.000000
0.305882 0.623529 0.000000
0.368627 0.623529 0.000000
0.447059 0.623529 0.000000
0.521569 0.623529 0.000000
0.596078 0.623529 0.000000
0.682353 0.615686 0.000000
0.756863 0.603922 0.000000
0.843137 0.592157 0.000000
0.913725 0.592157 0.000000
0.996078 0.592157 0.000000
1.000000 0.588235 0.000000
1.000000 0.588235 0.000000
0.062745 0.698039 0.000000
0.066667 0.694118 0.000000
0.145098 0.701961 0.000000
0.219608 0.694118 0.000000
0.294118 0.698039 0.000000
0.376471 0.690196 0.000000
0.450980 0.690196 0.000000
0.525490 0.686275 0.000000
0.600000 0.690196 0.000000
0.682353 0.686275 0.000000
0.752941 0.678431 0.000000
0.843137 0.670588 0.000000
0.913725 0.666667 0.000000
0.996078 0.670588 0.000000
1.000000 0.666667 0.000000
1.000000 0.662745 0.000000
0.066667 0.764706 0.000000
0.074510 0.760784 0.000000
0.145098 0.764706 0.000000
0.219608 0.760784 0.000000
0.305882 0.760784 0.000000
0.380392 0.756863 0.000000
0.450980 0.756863 0.000000
0.525490 0.760784 0.000000
0.600000 0.752941 0.000000
0.678431 0.760784 0.000000
0.756863 0.749020 0.000000
0.831373 0.745098 0.000000
0.913725 0.745098 0.000000
0.984314 0.741176 0.000000
1.000000 0.733333 0.000000
1.000000 0.737255 0.000000
0.070588 0.835294 0.000000
0.070588 0.827451 0.000000
0.152941 0.831373 0.000000
0.219608 0.831373 0.000000
0.301961 0.819608 0.000000
0.380392 0.827451 0.000000
0.454902 0.823529 0.000000
0.525490 0.823529 0.000000
0.603922 0.823529 0.000000
0.678431 0.823529 0.000000
0.764706 0.819608 0.000000
0.831373 0.815686 0.000000
0.909804 0.815686 0.000000
0.984314 0.819608 0.000000
1.000000 0.811765 0.000000
1.000000 0.811765 0.000000
0.070588 0.909804 0.000000
0.070588 0.905882 0.000000
0.145098 0.901961 0.000000
0.223529 0.905882 0.000000
0.301961 0.898039 0.000000
0.376471 0.898039 0.000000
0.454902 0.898039 0.000000
0.529412 0.901961 0.000000
0.596078 0.898039 0.000000
0.682353 0.894118 0.000000
0.756863 0.894118 0.000000
0.835294 0.894118 0.000000
0.905882 0.894118 0.000000
0.980392 0.890196 0.000000
1.000000 0.894118 0.000000
1.000000 0.886275 0.000000
0.070588 0.980392 0.000000
0.070588 0.976471 0.000000
0.141176 0.980392 0.000000
0.219608 0.976471 0.000000
0.294118 0.980392 0.000000
0.376471 0.976471 0.000000
0.447059 0.976471 0.000000
0.525490 0.972549 0.000000
0.600000 0.972549 0.000000
0.678431 0.964706 0.000000
0.756863 0.972549 0.000000
0.831373 0.968627 0.000000
0.905882 0.968627 0.000000
0.984314 0.964706 0.000000
1.000000 0.964706 0.000000
1.000000 0.968627 0.000000
0.070588 1.000000 0.000000
0.070588 1.000000 0.000000
0.137255 1.000000 0.000000
0.223529 1.000000 0.000000
0.298039 1.000000 0.000000
0.372549 1.000000 0.000000
0.447059 1.000000 0.000000
0.517647 1.000000 0.000000
0.600000 1.000000 0.000000
0.670588 1.000000 0.000000
0.752941 1.000000 0.000000
0.827451 1.000000 0.000000
0.901961 1.000000 0.000000
0.976471 1.000000 0.000000
1.000000 1.000000 0.000000
1.000000 1.000000 0.000000
0.070588 1.000000 0.000000
0.070588 1.000000 0.000000
0.141176 1.000000 0.000000
0.207843 1.000000 0.000000
0.298039 1.000000 0.000000
0.364706 1.000000 0.000000
0.447059 1.000000 0.000000
0.517647 1.000000 0.000000
0.596078 1.000000 0.000000
0.670588 1.000000 0.000000
0.752941 1.000000 0.000000
0.823529 1.000000 0.000000
0.901961 1.000000 0.000000
0.976471 1.000000 0.000000
1.000000 1.000000 0.000000
1.000000 1.000000 0.000000
0.000000 0.000000 0.098039
0.031373 0.000000 0.101961
0.105882 0.000000 0.105882
0.180392 0.000000 0.098039
0.258824 0.011765 0.086275
0.364706 0.035294 0.043137
0.458824 0.058824 0.023529
0.541176 0.070588 0.000000
0.611765 0.066667 0.000000
0.698039 0.058824 0.011765
0.776471 0.050980 0.023529
0.862745 0.043137 0.031373
0.937255 0.043137 0.043137
1.000000 0.043137 0.031373
1.000000 0.043137 0.035294
1.000000 0.043137 0.031373
0.000000 0.035294 0.105882
0.027451 0.035294 0.098039
0.101961 0.035294 0.101961
0.184314 0.043137 0.090196
0.262745 0.050980 0.070588
0.368627 0.074510 0.027451
0.458824 0.098039 0.003922
0.537255 0.094118 0.000000
0.619608 0.094118 0.003922
0.698039 0.082353 0.007843
0.784314 0.074510 0.035294
0.854902 0.070588 0.031373
0.929412 0.062745 0.035294
1.000000 0.070588 0.031373
1.000000 0.062745 0.031373
1.000000 0.066667 0.023529
0.000000 0.109804 0.098039
0.031373 0.113725 0.101961
0.098039 0.109804 0.098039
0.184314 0.129412 0.070588
0.282353 0.149020 0.039216
0.360784 0.160784 0.011765
0.462745 0.180392 0.000000
0.537255 0.172549 0.000000
0.619608 0.160784 0.015686
0.698039 0.156863 0.019608
0.780392 0.137255 0.035294
0.854902 0.141176 0.023529
0.933333 0.141176 0.031373
1.000000 0.141176 0.023529
1.000000 0.141176 0.031373
1.000000 0.141176 0.027451
0.000000 0.184314 0.098039
0.015686 0.180392 0.098039
0.117647 0.207843 0.066667
0.184314 0.203922 0.070588
0.282353 0.227451 0.039216
0.372549 0.239216 0.007843
0.462745 0.250980 0.000000
0.537255 0.250980 0.000000
0.615686 0.235294 0.007843
0.694118 0.231373 0.007843
0.768627 0.223529 0.027451
0.854902 0.219608 0.023529
0.925490 0.215686 0.027451
1.000000 0.219608 0.027451
1.000000 0.215686 0.023529
1.000000 0.215686 0.027451
0.011765 0.278431 0.074510
0.035294 0.278431 0.070588
0.121569 0.301961 0.035294
0.203922 0.298039 0.039216
0.278431 0.305882 0.035294
0.372549 0.309804 0.007843
0.450980 0.325490 0.000000
0.537255 0.321569 0.000000
0.611765 0.313725 0.003922
0.694118 0.305882 0.007843
0.768627 0.294118 0.023529
0.858824 0.294118 0.027451
0.925490 0.294118 0.023529
1.000000 0.286275 0.019608
1.000000 0.290196 0.031373
1.000000 0.282353 0.015686
0.031373 0.380392 0.039216
0.054902 0.380392 0.035294
0.145098 0.400000 0.007843
0.215686 0.392157 0.003922
0.286275 0.392157 0.003922
0.372549 0.388235 0.003922
0.450980 0.400000 0.000000
0.537255 0.396078 0.000000
0.607843 0.388235 0.000000
0.694118 0.376471 0.015686
0.776471 0.368627 0.019608
0.843137 0.364706 0.019608
0.929412 0.368627 0.031373
0.996078 0.368627 0.015686
1.000000 0.364706 0.023529
1.000000 0.368627 0.015686
0.047059 0.474510 0.011765
0.070588 0.470588 0.003922
0.141176 0.478431 0.000000
0.219608 0.482353 0.000000
0.294118 0.478431 0.000000
0.372549 0.482353 0.000000
0.450980 0.474510 0.000000
0.525490 0.470588 0.000000
0.611765 0.462745 0.000000
0.682353 0.450980 0.011765
0.772549 0.439216 0.019608
0.847059 0.443137 0.023529
0.925490 0.439216 0.023529
0.996078 0.443137 0.015686
1.000000 0.443137 0.023529
1.000000 0.439216 0.007843
0.054902 0.552941 0.000000
0.066667 0.560784 0.000000
0.145098 0.549020 0.000000
0.219608 0.549020 0.000000
0.298039 0.552941 0.000000
0.376471 0.549020 0.000000
0.458824 0.549020 0.000000
0.525490 0.545098 0.000000
0.603922 0.537255 0.000000
0.686275 0.529412 0.007843
0.760784 0.521569 0.019608
0.843137 0.513725 0.019608
0.921569 0.521569 0.023529
0.996078 0.513725 0.023529
1.000000 0.513725 0.011765
1.000000 0.513725 0.015686
0.058824 0.627451 0.000000
0.070588 0.627451 0.000000
0.145098 0.623529 0.003922
0.227451 0.619608 0.007843
0.294118 0.619608 0.000000
0.380392 0.611765 0.000000
0.450980 0.615686 0.000000
0.521569 0.611765 0.000000
0.603922 0.615686 0.000000
0.678431 0.607843 0.000000
0.764706 0.600000 0.019608
0.843137 0.588235 0.023529
0.913725 0.588235 0.011765
0.996078 0.592157 0.023529
1.000000 0.588235 0.007843
1.000000 0.584314 0.015686
0.062745 0.694118 0.000000
0.074510 0.698039 0.007843
0.149020 0.686275 0.003922
0.227451 0.686275 0.015686
0.298039 0.686275 0.007843
0.380392 0.678431 0.003922
0.458824 0.686275 0.007843
0.533333 0.678431 0.003922
0.603922 0.682353 0.000000
0.678431 0.682353 0.007843
0.760784 0.670588 0.003922
0.835294 0.666667 0.019608
0.913725 0.666667 0.007843
0.988235 0.666667 0.015686
1.000000 0.666667 0.015686
1.000000 0.666667 0.015686
0.066667 0.760784 0.019608
0.066667 0.760784 0.007843
0.152941 0.756863 0.023529
0.223529 0.752941 0.015686
0.301961 0.752941 0.015686
0.372549 0.752941 0.015686
0.458824 0.749020 0.011765
0.533333 0.749020 0.019608
0.607843 0.745098 0.007843
0.678431 0.745098 0.015686
0.760784 0.745098 0.000000
0.839216 0.741176 0.015686
0.913725 0.737255 0.011765
0.988235 0.745098 0.015686
1.000000 0.737255 0.007843
1.000000 0.745098 0.011765
0.070588 0.831373 0.031373
0.070588 0.827451 0.015686
0.149020 0.827451 0.027451
0.223529 0.831373 0.019608
0.301961 0.827451 0.015686
0.376471 0.819608 0.019608
0.454902 0.823529 0.011765
0.529412 0.823529 0.019608
0.603922 0.827451 0.007843
0.682353 0.823529 0.015686
0.749020 0.819608 0.011765
0.839216 0.819608 0.015686
0.909804 0.819608 0.007843
0.984314 0.811765 0.003922
1.000000 0.819608 0.007843
1.000000 0.807843 0.007843
0.070588 0.901961 0.027451
0.074510 0.905882 0.019608
0.145098 0.905882 0.023529
0.219608 0.901961 0.019608
0.294118 0.901961 0.019608
0.380392 0.898039 0.019608
0.447059 0.898039 0.003922
0.529412 0.898039 0.015686
0.600000 0.898039 0.011765
0.678431 0.894118 0.007843
0.752941 0.898039 0.007843
0.831373 0.890196 0.003922
0.909804 0.894118 0.007843
0.984314 0.886275 0.007843
1.000000 0.890196 0.000000
1.000000 0.890196 0.007843
0.070588 0.984314 0.023529
0.070588 0.976471 0.019608
0.137255 0.976471 0.015686
0.223529 0.976471 0.019608
0.290196 0.972549 0.019608
0.380392 0.976471 0.015686
0.450980 0.972549 0.019608
0.529412 0.972549 0.007843
0.600000 0.972549 0.007843
0.670588 0.972549 0.003922
0.756863 0.968627 0.003922
0.827451 0.968627 0.007843
0.905882 0.968627 0.000000
0.976471 0.964706 0.003922
1.000000 0.968627 0.000000
1.000000 0.964706 0.000000
0.070588 1.000000 0.015686
0.070588 1.000000 0.019608
0.141176 1.000000 0.019608
0.211765 1.000000 0.011765
0.294118 1.000000 0.019608
0.364706 1.000000 0.007843
0.450980 1.000000 0.015686
0.517647 1.000000 0.003922
0.600000 1.000000 0.011765
0.670588 1.000000 0.007843
0.756863 1.000000 0.000000
0.823529 1.000000 0.003922
0.909804 1.000000 0.000000
0.976471 1.000000 0.000000
1.000000 1.000000 0.000000
1.000000 1.000000 0.000000
0.070588 1.000000 0.019608
0.070588 1.000000 0.011765
0.141176 1.000000 0.019608
0.215686 1.000000 0.007843
0.290196 1.000000 0.011765
0.368627 1.000000 0.003922
0.447059 1.000000 0.011765
0.517647 1.000000 0.003922
0.596078 1.000000 0.007843
0.670588 1.000000 0.003922
0.745098 1.000000 0.015686
0.827451 1.000000 0.000000
0.894118 1.000000 0.003922
0.980392 1.000000 0.000000
1.000000 1.000000 0.000000
1.000000 1.000000 0.000000
0.000000 0.000000 0.176471
0.031373 0.000000 0.180392
0.101961 0.000000 0.176471
0.180392 0.000000 0.176471
0.258824 0.011765 0.156863
0.360784 0.035294 0.133333
0.450980 0.054902 0.090196
0.545098 0.070588 0.082353
0.619608 0.066667 0.074510
0.698039 0.058824 0.086275
0.780392 0.050980 0.094118
0.862745 0.043137 0.113725
0.937255 0.043137 0.113725
1.000000 0.043137 0.109804
1.000000 0.043137 0.109804
1.000000 0.043137 0.113725
0.000000 0.039216 0.176471
0.031373 0.035294 0.176471
0.098039 0.031373 0.172549
0.188235 0.039216 0.180392
0.266667 0.050980 0.141176
0.360784 0.078431 0.117647
0.462745 0.098039 0.074510
0.533333 0.098039 0.070588
0.615686 0.094118 0.070588
0.694118 0.086275 0.090196
0.776471 0.074510 0.101961
0.854902 0.070588 0.109804
0.937255 0.066667 0.109804
1.000000 0.062745 0.113725
1.000000 0.066667 0.109804
1.000000 0.062745 0.109804
0.000000 0.109804 0.180392
0.027451 0.113725 0.184314
0.117647 0.125490 0.145098
0.192157 0.133333 0.145098
0.290196 0.152941 0.105882
0.372549 0.168627 0.082353
0.462745 0.172549 0.062745
0.537255 0.168627 0.078431
0.623529 0.156863 0.090196
0.694118 0.149020 0.094118
0.780392 0.145098 0.109804
0.854902 0.137255 0.113725
0.933333 0.145098 0.109804
1.000000 0.141176 0.109804
1.000000 0.137255 0.098039
1.000000 0.141176 0.109804
0.000000 0.188235 0.176471
0.023529 0.188235 0.176471
0.113725 0.200000 0.145098
0.203922 0.223529 0.113725
0.286275 0.243137 0.082353
0.380392 0.254902 0.070588
0.454902 0.250980 0.074510
0.541176 0.235294 0.078431
0.623529 0.235294 0.098039
0.701961 0.219608 0.113725
0.768627 0.215686 0.098039
0.858824 0.215686 0.109804
0.925490 0.215686 0.098039
1.000000 0.211765 0.105882
1.000000 0.215686 0.098039
1.000000 0.211765 0.101961
0.011765 0.278431 0.152941
0.039216 0.278431 0.141176
0.125490 0.298039 0.121569
0.215686 0.313725 0.082353
0.298039 0.321569 0.086275
0.376471 0.325490 0.062745
0.458824 0.321569 0.066667
0.541176 0.309804 0.090196
0.615686 0.301961 0.082353
0.701961 0.294118 0.109804
0.768627 0.294118 0.098039
0.843137 0.294118 0.105882
0.929412 0.294118 0.098039
1.000000 0.294118 0.101961
1.000000 0.286275 0.098039
1.000000 0.294118 0.101961
0.031373 0.380392 0.125490
0.050980 0.372549 0.109804
0.149020 0.400000 0.086275
0.219608 0.407843 0.062745
0.298039 0.403922 0.070588
0.372549 0.403922 0.070588
0.450980 0.392157 0.066667
0.533333 0.388235 0.078431
0.615686 0.376471 0.090196
0.694118 0.372549 0.101961
0.772549 0.372549 0.098039
0.847059 0.372549 0.101961
0.925490 0.364706 0.098039
1.000000 0.368627 0.101961
1.000000 0.364706 0.094118
1.000000 0.360784 0.098039
0.047059 0.470588 0.094118
0.066667 0.474510 0.074510
0.149020 0.478431 0.070588
0.223529 0.478431 0.074510
0.298039 0.470588 0.066667
0.372549 0.474510 0.066667
0.458824 0.470588 0.066667
0.533333 0.462745 0.078431
0.611765 0.447059 0.090196
0.694118 0.447059 0.098039
0.768627 0.443137 0.105882
0.843137 0.439216 0.094118
0.921569 0.443137 0.094118
0.996078 0.435294 0.098039
