public/luts/peau-chaude.cube
# Studiio — look « peau-chaude », genere par scripts/lut/generer-luts.mjs
# Source : les coefficients de LOOKS_RENDUS, calcules par ffmpeg lui-meme.
# Aucune LUT tierce, aucun telechargement : provenance et licence du depot.
LUT_3D_SIZE 16
DOMAIN_MIN 0.0 0.0 0.0
DOMAIN_MAX 1.0 1.0 1.0
0.058824 0.027451 0.015686
0.129412 0.023529 0.007843
0.207843 0.023529 0.015686
0.274510 0.027451 0.000000
0.372549 0.031373 0.000000
0.462745 0.047059 0.000000
0.556863 0.054902 0.000000
0.627451 0.062745 0.000000
0.678431 0.047059 0.000000
0.717647 0.031373 0.000000
0.760784 0.011765 0.000000
0.800000 0.007843 0.000000
0.874510 0.000000 0.000000
0.945098 0.003922 0.000000
1.000000 0.000000 0.000000
1.000000 0.000000 0.000000
0.062745 0.094118 0.015686
0.125490 0.094118 0.019608
0.200000 0.090196 0.003922
0.282353 0.094118 0.000000
0.376471 0.105882 0.000000
0.450980 0.113725 0.000000
0.556863 0.121569 0.000000
0.627451 0.125490 0.000000
0.674510 0.113725 0.000000
0.717647 0.105882 0.000000
0.752941 0.090196 0.000000
0.803922 0.074510 0.000000
0.870588 0.070588 0.000000
0.941176 0.070588 0.000000
1.000000 0.070588 0.000000
1.000000 0.062745 0.000000
0.050980 0.168627 0.003922
0.129412 0.164706 0.011765
0.192157 0.164706 0.007843
0.270588 0.160784 0.000000
0.360784 0.176471 0.000000
0.454902 0.180392 0.000000
0.537255 0.192157 0.000000
0.623529 0.196078 0.000000
0.674510 0.184314 0.000000
0.717647 0.168627 0.000000
0.752941 0.160784 0.000000
0.796078 0.145098 0.000000
0.866667 0.145098 0.000000
0.941176 0.137255 0.000000
1.000000 0.137255 0.000000
1.000000 0.141176 0.000000
0.054902 0.247059 0.000000
0.129412 0.235294 0.000000
0.192157 0.231373 0.000000
0.274510 0.231373 0.000000
0.349020 0.239216 0.000000
0.454902 0.250980 0.000000
0.541176 0.262745 0.000000
0.623529 0.258824 0.000000
0.674510 0.254902 0.000000
0.713725 0.243137 0.000000
0.752941 0.223529 0.000000
0.792157 0.215686 0.000000
0.862745 0.211765 0.000000
0.929412 0.207843 0.000000
1.000000 0.200000 0.000000
1.000000 0.200000 0.000000
0.070588 0.317647 0.000000
0.141176 0.321569 0.000000
0.211765 0.317647 0.000000
0.278431 0.313725 0.000000
0.356863 0.313725 0.000000
0.435294 0.317647 0.000000
0.529412 0.325490 0.000000
0.615686 0.333333 0.000000
0.674510 0.321569 0.000000
0.709804 0.313725 0.000000
0.749020 0.294118 0.000000
0.788235 0.282353 0.000000
0.858824 0.274510 0.000000
0.921569 0.274510 0.000000
0.996078 0.266667 0.000000
1.000000 0.270588 0.000000
0.086275 0.400000 0.000000
0.152941 0.396078 0.000000
0.235294 0.396078 0.000000
0.294118 0.396078 0.000000
0.368627 0.392157 0.000000
0.443137 0.392157 0.000000
0.537255 0.400000 0.000000
0.607843 0.400000 0.000000
0.670588 0.400000 0.000000
0.709804 0.376471 0.000000
0.745098 0.368627 0.000000
0.784314 0.352941 0.000000
0.847059 0.345098 0.000000
0.925490 0.345098 0.000000
0.992157 0.341176 0.000000
1.000000 0.337255 0.000000
0.105882 0.482353 0.000000
0.172549 0.482353 0.000000
0.239216 0.478431 0.000000
0.317647 0.474510 0.000000
0.380392 0.478431 0.000000
0.454902 0.470588 0.000000
0.529412 0.474510 0.000000
0.611765 0.470588 0.000000
0.662745 0.462745 0.000000
0.705882 0.447059 0.000000
0.741176 0.435294 0.000000
0.784314 0.415686 0.000000
0.843137 0.415686 0.000000
0.917647 0.411765 0.000000
0.992157 0.411765 0.000000
1.000000 0.411765 0.000000
0.113725 0.556863 0.000000
0.180392 0.549020 0.000000
0.243137 0.556863 0.000000
0.321569 0.549020 0.000000
0.388235 0.545098 0.000000
0.466667 0.541176 0.000000
0.525490 0.541176 0.000000
0.596078 0.541176 0.000000
0.662745 0.529412 0.000000
0.701961 0.513725 0.000000
0.741176 0.505882 0.000000
0.780392 0.490196 0.000000
0.843137 0.482353 0.000000
0.913725 0.482353 0.000000
0.984314 0.478431 0.000000
1.000000 0.474510 0.000000
0.094118 0.619608 0.000000
0.149020 0.615686 0.000000
0.227451 0.611765 0.000000
0.290196 0.615686 0.000000
0.368627 0.607843 0.000000
0.439216 0.603922 0.000000
0.517647 0.603922 0.000000
0.580392 0.603922 0.000000
0.654902 0.600000 0.000000
0.698039 0.588235 0.000000
0.741176 0.568627 0.000000
0.776471 0.560784 0.000000
0.839216 0.552941 0.000000
0.909804 0.549020 0.000000
0.980392 0.552941 0.000000
1.000000 0.549020 0.000000
0.066667 0.670588 0.000000
0.117647 0.674510 0.000000
0.188235 0.666667 0.000000
0.258824 0.666667 0.000000
0.337255 0.666667 0.000000
0.400000 0.666667 0.000000
0.470588 0.662745 0.000000
0.549020 0.662745 0.000000
0.619608 0.658824 0.000000
0.690196 0.654902 0.000000
0.737255 0.647059 0.000000
0.776471 0.627451 0.000000
0.835294 0.623529 0.000000
0.905882 0.619608 0.000000
0.972549 0.619608 0.000000
1.000000 0.615686 0.000000
0.031373 0.729412 0.000000
0.082353 0.725490 0.000000
0.145098 0.725490 0.000000
0.223529 0.725490 0.000000
0.294118 0.725490 0.000000
0.376471 0.721569 0.000000
0.439216 0.721569 0.000000
0.517647 0.713725 0.000000
0.584314 0.717647 0.000000
0.662745 0.709804 0.000000
0.725490 0.713725 0.000000
0.776471 0.698039 0.000000
0.831373 0.694118 0.000000
0.905882 0.686275 0.000000
0.972549 0.690196 0.000000
1.000000 0.686275 0.000000
0.003922 0.784314 0.000000
0.047059 0.784314 0.000000
0.117647 0.780392 0.000000
0.196078 0.780392 0.000000
0.258824 0.780392 0.000000
0.337255 0.776471 0.000000
0.403922 0.776471 0.000000
0.478431 0.776471 0.000000
0.549020 0.772549 0.000000
0.623529 0.772549 0.000000
0.698039 0.768627 0.000000
0.768627 0.764706 0.000000
0.827451 0.764706 0.000000
0.894118 0.760784 0.000000
0.968627 0.756863 0.000000
1.000000 0.756863 0.000000
0.000000 0.854902 0.000000
0.031373 0.854902 0.000000
0.109804 0.850980 0.000000
0.180392 0.850980 0.000000
0.254902 0.843137 0.000000
0.321569 0.850980 0.000000
0.396078 0.843137 0.000000
0.462745 0.839216 0.000000
0.541176 0.839216 0.000000
0.603922 0.839216 0.000000
0.682353 0.835294 0.000000
0.752941 0.831373 0.000000
0.827451 0.827451 0.000000
0.894118 0.831373 0.000000
0.960784 0.831373 0.000000
1.000000 0.823529 0.000000
0.000000 0.921569 0.000000
0.035294 0.921569 0.000000
0.109804 0.917647 0.000000
0.176471 0.921569 0.000000
0.250980 0.913725 0.000000
0.317647 0.913725 0.000000
0.392157 0.913725 0.000000
0.458824 0.909804 0.000000
0.529412 0.905882 0.000000
0.607843 0.905882 0.000000
0.674510 0.901961 0.000000
0.745098 0.901961 0.000000
0.815686 0.901961 0.000000
0.890196 0.894118 0.000000
0.964706 0.898039 0.000000
1.000000 0.894118 0.000000
0.000000 0.996078 0.000000
0.027451 0.992157 0.000000
0.101961 0.992157 0.000000
0.176471 0.984314 0.000000
0.235294 0.988235 0.000000
0.317647 0.984314 0.000000
0.384314 0.980392 0.000000
0.462745 0.980392 0.000000
0.525490 0.980392 0.000000
0.600000 0.972549 0.000000
0.674510 0.976471 0.000000
0.749020 0.968627 0.000000
0.811765 0.968627 0.000000
0.882353 0.972549 0.000000
0.956863 0.964706 0.000000
1.000000 0.956863 0.000000
0.000000 1.000000 0.000000
0.031373 1.000000 0.000000
0.094118 1.000000 0.000000
0.172549 1.000000 0.000000
0.239216 1.000000 0.000000
0.309804 1.000000 0.000000
0.380392 1.000000 0.000000
0.450980 1.000000 0.000000
0.525490 1.000000 0.000000
0.596078 1.000000 0.000000
0.666667 1.000000 0.000000
0.737255 1.000000 0.000000
0.811765 1.000000 0.000000
0.878431 1.000000 0.000000
0.949020 1.000000 0.000000
1.000000 1.000000 0.000000
0.062745 0.027451 0.086275
0.129412 0.023529 0.090196
0.203922 0.019608 0.074510
0.282353 0.031373 0.066667
0.376471 0.035294 0.035294
0.462745 0.043137 0.011765
0.564706 0.054902 0.000000
0.627451 0.054902 0.000000
0.674510 0.043137 0.000000
0.713725 0.027451 0.011765
0.756863 0.015686 0.019608
0.800000 0.007843 0.043137
0.870588 0.003922 0.035294
0.945098 0.000000 0.039216
1.000000 0.000000 0.031373
1.000000 0.000000 0.031373
0.062745 0.090196 0.094118
0.129412 0.094118 0.082353
0.200000 0.098039 0.070588
0.298039 0.101961 0.043137
0.380392 0.121569 0.007843
0.474510 0.125490 0.000000
0.552941 0.125490 0.000000
0.607843 0.113725 0.000000
0.647059 0.105882 0.000000
0.686275 0.090196 0.023529
0.725490 0.078431 0.035294
0.800000 0.070588 0.039216
0.866667 0.074510 0.031373
0.941176 0.066667 0.031373
1.000000 0.066667 0.027451
1.000000 0.062745 0.035294
0.050980 0.164706 0.086275
0.133333 0.168627 0.066667
0.203922 0.172549 0.070588
0.290196 0.172549 0.039216
0.380392 0.184314 0.007843
0.482353 0.192157 0.000000
0.549020 0.200000 0.000000
0.607843 0.184314 0.000000
0.650980 0.172549 0.000000
0.682353 0.156863 0.019608
0.729412 0.149020 0.015686
0.792157 0.145098 0.031373
0.866667 0.141176 0.027451
0.941176 0.141176 0.035294
1.000000 0.137255 0.019608
1.000000 0.129412 0.019608
0.054902 0.235294 0.070588
0.145098 0.250980 0.035294
0.219608 0.243137 0.039216
0.278431 0.243137 0.035294
0.376471 0.254902 0.015686
0.462745 0.258824 0.000000
0.552941 0.266667 0.000000
0.603922 0.262745 0.000000
0.650980 0.247059 0.000000
0.686275 0.235294 0.007843
0.729412 0.215686 0.023529
0.784314 0.211765 0.027451
0.862745 0.211765 0.019608
0.929412 0.203922 0.019608
1.000000 0.196078 0.011765
1.000000 0.200000 0.019608
0.074510 0.317647 0.039216
0.152941 0.329412 0.007843
0.235294 0.325490 0.011765
0.301961 0.325490 0.003922
0.372549 0.313725 0.007843
0.458824 0.329412 0.000000
0.545098 0.333333 0.000000
0.607843 0.329412 0.000000
0.647059 0.309804 0.000000
0.682353 0.301961 0.000000
0.729412 0.294118 0.011765
0.784314 0.278431 0.019608
0.850980 0.274510 0.011765
0.925490 0.274510 0.019608
0.992157 0.274510 0.007843
1.000000 0.266667 0.007843
0.094118 0.400000 0.011765
0.176471 0.411765 0.000000
0.239216 0.407843 0.000000
0.317647 0.407843 0.000000
0.388235 0.403922 0.000000
0.458824 0.396078 0.000000
0.537255 0.407843 0.000000
0.603922 0.396078 0.000000
0.639216 0.380392 0.000000
0.686275 0.368627 0.000000
0.721569 0.356863 0.007843
0.780392 0.349020 0.019608
0.850980 0.345098 0.007843
0.925490 0.337255 0.007843
0.992157 0.345098 0.007843
1.000000 0.337255 0.011765
0.105882 0.482353 0.000000
0.176471 0.482353 0.000000
0.250980 0.482353 0.000000
0.325490 0.478431 0.000000
0.392157 0.482353 0.000000
0.466667 0.474510 0.000000
0.533333 0.470588 0.000000
0.607843 0.466667 0.000000
0.639216 0.454902 0.000000
0.682353 0.439216 0.000000
0.721569 0.423529 0.011765
0.772549 0.415686 0.007843
0.843137 0.411765 0.011765
0.913725 0.411765 0.011765
0.988235 0.407843 0.000000
1.000000 0.407843 0.003922
0.113725 0.552941 0.000000
0.156863 0.552941 0.000000
0.231373 0.545098 0.000000
0.305882 0.549020 0.000000
0.380392 0.541176 0.000000
0.450980 0.541176 0.000000
0.529412 0.537255 0.000000
0.596078 0.537255 0.000000
0.643137 0.521569 0.000000
0.682353 0.517647 0.000000
0.721569 0.494118 0.000000
0.772549 0.486275 0.011765
0.847059 0.478431 0.011765
0.905882 0.482353 0.000000
0.988235 0.478431 0.007843
1.000000 0.474510 0.000000
0.094118 0.615686 0.000000
0.129412 0.607843 0.000000
0.203922 0.600000 0.000000
0.270588 0.603922 0.000000
0.349020 0.600000 0.000000
0.419608 0.596078 0.000000
0.494118 0.592157 0.000000
0.564706 0.596078 0.000000
0.635294 0.592157 0.000000
0.682353 0.580392 0.000000
0.721569 0.568627 0.000000
0.764706 0.552941 0.000000
0.835294 0.556863 0.007843
0.909804 0.549020 0.000000
0.980392 0.545098 0.003922
1.000000 0.549020 0.000000
0.062745 0.678431 0.000000
0.094118 0.666667 0.000000
0.164706 0.662745 0.000000
0.247059 0.658824 0.000000
0.301961 0.658824 0.000000
0.388235 0.658824 0.000000
0.454902 0.654902 0.000000
0.537255 0.650980 0.000000
0.600000 0.650980 0.000000
0.682353 0.650980 0.000000
0.717647 0.635294 0.000000
0.768627 0.623529 0.000000
0.827451 0.623529 0.003922
0.909804 0.623529 0.000000
0.976471 0.619608 0.000000
1.000000 0.615686 0.000000
0.035294 0.725490 0.000000
0.066667 0.713725 0.015686
0.129412 0.717647 0.011765
0.211765 0.713725 0.000000
0.278431 0.717647 0.000000
0.356863 0.709804 0.000000
0.419608 0.713725 0.000000
0.498039 0.717647 0.000000
0.572549 0.709804 0.000000
0.647059 0.709804 0.000000
0.717647 0.705882 0.000000
0.760784 0.698039 0.000000
0.831373 0.690196 0.000000
0.901961 0.690196 0.000000
0.968627 0.686275 0.000000
1.000000 0.686275 0.000000
0.003922 0.784314 0.015686
0.035294 0.784314 0.011765
0.117647 0.780392 0.011765
0.176471 0.780392 0.015686
0.250980 0.776471 0.007843
0.325490 0.776471 0.000000
0.400000 0.772549 0.003922
0.462745 0.772549 0.000000
0.541176 0.768627 0.003922
0.607843 0.768627 0.000000
0.690196 0.764706 0.000000
0.752941 0.764706 0.000000
0.827451 0.756863 0.000000
0.898039 0.760784 0.000000
0.972549 0.752941 0.000000
1.000000 0.752941 0.000000
0.000000 0.854902 0.011765
0.035294 0.854902 0.015686
0.109804 0.847059 0.007843
0.180392 0.850980 0.007843
0.254902 0.843137 0.003922
0.317647 0.843137 0.003922
0.396078 0.843137 0.003922
0.466667 0.839216 0.000000
0.533333 0.835294 0.000000
0.607843 0.839216 0.000000
0.674510 0.835294 0.000000
0.752941 0.835294 0.000000
0.823529 0.831373 0.000000
0.890196 0.827451 0.000000
0.964706 0.827451 0.000000
1.000000 0.823529 0.000000
0.000000 0.925490 0.007843
0.031373 0.917647 0.003922
0.098039 0.925490 0.003922
0.172549 0.917647 0.003922
0.247059 0.917647 0.003922
0.321569 0.913725 0.000000
0.384314 0.913725 0.000000
0.462745 0.909804 0.000000
0.529412 0.905882 0.000000
0.607843 0.901961 0.000000
0.674510 0.905882 0.000000
0.749020 0.901961 0.000000
0.815686 0.898039 0.000000
0.894118 0.898039 0.000000
0.956863 0.898039 0.000000
1.000000 0.898039 0.000000
0.000000 0.996078 0.003922
0.031373 0.988235 0.003922
0.098039 0.988235 0.000000
0.176471 0.984314 0.000000
0.239216 0.988235 0.000000
0.313725 0.980392 0.000000
0.388235 0.980392 0.000000
0.454902 0.976471 0.000000
0.529412 0.980392 0.000000
0.596078 0.976471 0.000000
0.670588 0.968627 0.000000
0.745098 0.972549 0.000000
0.811765 0.968627 0.000000
0.882353 0.968627 0.000000
0.960784 0.964706 0.000000
1.000000 0.956863 0.000000
0.000000 1.000000 0.000000
0.019608 1.000000 0.000000
0.094118 1.000000 0.000000
0.164706 1.000000 0.000000
0.243137 1.000000 0.000000
0.305882 1.000000 0.000000
0.380392 1.000000 0.000000
0.454902 1.000000 0.000000
0.529412 1.000000 0.000000
0.596078 1.000000 0.000000
0.670588 1.000000 0.000000
0.737255 1.000000 0.000000
0.815686 1.000000 0.000000
0.874510 1.000000 0.000000
0.941176 1.000000 0.000000
1.000000 1.000000 0.000000
0.062745 0.019608 0.164706
0.133333 0.023529 0.152941
0.207843 0.015686 0.156863
0.278431 0.027451 0.137255
0.376471 0.039216 0.113725
0.470588 0.047059 0.074510
0.556863 0.062745 0.054902
0.631373 0.054902 0.047059
0.674510 0.043137 0.066667
0.717647 0.027451 0.078431
0.752941 0.019608 0.098039
0.800000 0.000000 0.109804
0.874510 0.000000 0.117647
0.949020 0.000000 0.101961
1.000000 0.000000 0.105882
1.000000 0.000000 0.105882
0.050980 0.098039 0.156863
0.133333 0.094118 0.141176
0.207843 0.098039 0.141176
0.305882 0.105882 0.101961
0.384314 0.113725 0.082353
0.486275 0.129412 0.047059
0.552941 0.125490 0.050980
0.603922 0.113725 0.054902
0.639216 0.105882 0.078431
0.682353 0.086275 0.090196
0.729412 0.074510 0.117647
0.796078 0.074510 0.101961
0.866667 0.070588 0.105882
0.937255 0.070588 0.105882
1.000000 0.062745 0.105882
1.000000 0.062745 0.094118
0.050980 0.160784 0.152941
0.137255 0.164706 0.145098
0.219608 0.176471 0.109804
0.309804 0.188235 0.082353
0.407843 0.192157 0.054902
0.470588 0.200000 0.039216
0.533333 0.188235 0.054902
0.572549 0.176471 0.066667
0.611765 0.156863 0.094118
0.654902 0.152941 0.098039
0.721569 0.145098 0.105882
0.792157 0.141176 0.101961
0.870588 0.137255 0.105882
0.933333 0.141176 0.094118
1.000000 0.137255 0.101961
1.000000 0.129412 0.090196
0.054902 0.235294 0.137255
0.141176 0.243137 0.113725
0.243137 0.254902 0.082353
0.305882 0.254902 0.086275
0.400000 0.266667 0.050980
0.474510 0.266667 0.039216
0.533333 0.250980 0.050980
0.572549 0.250980 0.054902
0.611765 0.231373 0.082353
0.654902 0.219608 0.098039
0.717647 0.215686 0.105882
0.788235 0.211765 0.094118
0.854902 0.207843 0.098039
0.929412 0.203922 0.090196
1.000000 0.200000 0.094118
1.000000 0.203922 0.086275
0.078431 0.317647 0.109804
0.156863 0.329412 0.090196
0.243137 0.337255 0.047059
0.325490 0.337255 0.050980
0.384314 0.337255 0.050980
0.466667 0.333333 0.043137
0.529412 0.333333 0.039216
0.568627 0.313725 0.066667
0.607843 0.305882 0.078431
0.654902 0.290196 0.086275
0.713725 0.282353 0.098039
0.788235 0.278431 0.090196
0.847059 0.274510 0.094118
0.921569 0.270588 0.078431
0.996078 0.270588 0.086275
1.000000 0.266667 0.082353
0.086275 0.400000 0.074510
0.180392 0.407843 0.050980
0.250980 0.411765 0.043137
0.325490 0.407843 0.043137
0.396078 0.407843 0.035294
0.470588 0.403922 0.039216
0.529412 0.400000 0.035294
0.568627 0.384314 0.066667
0.611765 0.372549 0.070588
0.654902 0.349020 0.086275
0.705882 0.349020 0.094118
0.772549 0.349020 0.078431
0.850980 0.345098 0.086275
0.921569 0.341176 0.082353
0.988235 0.337255 0.082353
1.000000 0.341176 0.074510
0.105882 0.482353 0.047059
0.180392 0.478431 0.043137
0.235294 0.474510 0.039216
0.298039 0.474510 0.047059
0.380392 0.470588 0.035294
0.450980 0.470588 0.047059
0.529412 0.466667 0.031373
0.564706 0.454902 0.039216
0.611765 0.443137 0.062745
0.647059 0.427451 0.082353
0.701961 0.415686 0.082353
0.768627 0.415686 0.090196
0.843137 0.411765 0.082353
0.917647 0.415686 0.074510
0.992157 0.407843 0.078431
1.000000 0.407843 0.070588
0.113725 0.552941 0.031373
0.156863 0.549020 0.047059
0.203922 0.533333 0.058824
0.270588 0.529412 0.062745
0.352941 0.529412 0.050980
0.415686 0.525490 0.047059
0.494118 0.525490 0.043137
0.568627 0.521569 0.043137
0.615686 0.505882 0.047059
0.647059 0.498039 0.078431
0.694118 0.486275 0.082353
0.768627 0.482353 0.086275
0.843137 0.482353 0.078431
0.909804 0.478431 0.078431
0.980392 0.478431 0.074510
1.000000 0.478431 0.066667
0.094118 0.615686 0.043137
0.129412 0.603922 0.062745
0.164706 0.596078 0.074510
0.239216 0.584314 0.066667
0.309804 0.588235 0.058824
0.388235 0.584314 0.062745
0.454902 0.588235 0.050980
0.529412 0.580392 0.050980
0.603922 0.580392 0.047059
0.647059 0.560784 0.070588
0.690196 0.560784 0.078431
0.764706 0.552941 0.078431
0.835294 0.549020 0.074510
0.913725 0.549020 0.082353
0.976471 0.549020 0.066667
1.000000 0.541176 0.070588
0.062745 0.674510 0.050980
0.094118 0.658824 0.066667
0.133333 0.647059 0.078431
0.211765 0.643137 0.086275
0.278431 0.647059 0.070588
0.352941 0.639216 0.074510
0.427451 0.643137 0.070588
0.505882 0.635294 0.070588
0.572549 0.643137 0.058824
0.639216 0.639216 0.062745
0.690196 0.623529 0.074510
0.760784 0.619608 0.078431
0.831373 0.623529 0.066667
0.901961 0.619608 0.070588
0.980392 0.619608 0.070588
1.000000 0.611765 0.070588
0.035294 0.725490 0.074510
0.054902 0.721569 0.078431
0.113725 0.713725 0.082353
0.184314 0.709804 0.086275
0.258824 0.701961 0.078431
0.325490 0.705882 0.086275
0.400000 0.701961 0.074510
0.470588 0.701961 0.078431
0.545098 0.698039 0.074510
0.607843 0.698039 0.078431
0.686275 0.698039 0.066667
0.756863 0.694118 0.070588
0.831373 0.686275 0.066667
0.898039 0.690196 0.070588
0.972549 0.686275 0.058824
1.000000 0.686275 0.066667
0.003922 0.784314 0.086275
0.039216 0.784314 0.086275
0.113725 0.776471 0.086275
0.180392 0.780392 0.086275
0.254902 0.776471 0.074510
0.325490 0.772549 0.074510
0.403922 0.772549 0.074510
0.466667 0.768627 0.078431
0.537255 0.772549 0.066667
0.611765 0.764706 0.070588
0.682353 0.764706 0.066667
0.752941 0.764706 0.070588
0.823529 0.760784 0.058824
0.898039 0.756863 0.062745
0.968627 0.756863 0.058824
1.000000 0.752941 0.062745
0.000000 0.847059 0.086275
0.035294 0.854902 0.086275
0.105882 0.850980 0.082353
0.180392 0.847059 0.074510
0.247059 0.847059 0.082353
0.321569 0.843137 0.078431
0.388235 0.843137 0.062745
0.466667 0.839216 0.070588
0.529412 0.839216 0.066667
0.603922 0.831373 0.066667
0.678431 0.835294 0.058824
0.752941 0.827451 0.062745
0.819608 0.835294 0.058824
0.894118 0.827451 0.062745
0.960784 0.823529 0.050980
1.000000 0.827451 0.054902
0.000000 0.925490 0.082353
0.035294 0.917647 0.074510
0.098039 0.917647 0.078431
0.176471 0.917647 0.078431
0.247059 0.913725 0.070588
0.325490 0.913725 0.070588
0.388235 0.909804 0.074510
0.462745 0.905882 0.066667
0.533333 0.909804 0.058824
0.603922 0.905882 0.062745
0.670588 0.901961 0.054902
0.745098 0.901961 0.062745
0.819608 0.898039 0.050980
0.886275 0.894118 0.050980
0.960784 0.898039 0.050980
1.000000 0.890196 0.054902
0.000000 0.992157 0.078431
0.027451 0.992157 0.078431
0.101961 0.988235 0.070588
0.164706 0.988235 0.066667
0.243137 0.984314 0.074510
0.309804 0.980392 0.066667
0.392157 0.980392 0.066667
0.450980 0.980392 0.062745
0.525490 0.972549 0.062745
0.600000 0.976471 0.062745
0.674510 0.972549 0.050980
0.737255 0.972549 0.050980
0.815686 0.968627 0.050980
0.882353 0.964706 0.054902
0.952941 0.956863 0.035294
1.000000 0.960784 0.043137
0.000000 1.000000 0.070588
0.019608 1.000000 0.066667
0.098039 1.000000 0.074510
0.168627 1.000000 0.066667
0.243137 1.000000 0.062745
0.309804 1.000000 0.062745
0.384314 1.000000 0.062745
0.450980 1.000000 0.058824
0.525490 1.000000 0.058824
0.592157 1.000000 0.050980
0.666667 1.000000 0.058824
0.741176 1.000000 0.054902
0.803922 1.000000 0.043137
0.878431 1.000000 0.043137
0.945098 1.000000 0.035294
1.000000 1.000000 0.039216
0.066667 0.035294 0.211765
0.145098 0.027451 0.215686
0.211765 0.031373 0.211765
0.282353 0.023529 0.215686
0.368627 0.035294 0.176471
0.470588 0.043137 0.152941
0.549020 0.050980 0.125490
0.631373 0.054902 0.129412
0.674510 0.039216 0.129412
0.717647 0.023529 0.152941
0.752941 0.015686 0.172549
0.803922 0.000000 0.188235
0.870588 0.000000 0.176471
0.945098 0.000000 0.184314
1.000000 0.000000 0.176471
1.000000 0.000000 0.180392
0.062745 0.101961 0.215686
0.160784 0.109804 0.188235
0.223529 0.105882 0.180392
0.309804 0.105882 0.180392
0.384314 0.113725 0.152941
0.474510 0.121569 0.129412
0.556863 0.125490 0.113725
0.596078 0.117647 0.129412
0.643137 0.098039 0.145098
0.682353 0.086275 0.168627
0.729412 0.070588 0.176471
0.796078 0.074510 0.184314
0.870588 0.070588 0.176471
0.937255 0.066667 0.180392
1.000000 0.066667 0.172549
1.000000 0.066667 0.172549
0.062745 0.168627 0.219608
0.145098 0.180392 0.188235
0.239216 0.188235 0.156863
0.309804 0.184314 0.156863
0.407843 0.200000 0.113725
0.474510 0.200000 0.117647
0.529412 0.184314 0.125490
0.568627 0.172549 0.149020
0.611765 0.156863 0.156863
0.647059 0.145098 0.180392
0.725490 0.145098 0.176471
0.792157 0.137255 0.180392
0.866667 0.141176 0.172549
0.933333 0.137255 0.172549
1.000000 0.137255 0.168627
1.000000 0.129412 0.172549
0.058824 0.235294 0.215686
0.141176 0.243137 0.188235
0.235294 0.250980 0.160784
0.321569 0.266667 0.121569
0.400000 0.270588 0.113725
0.458824 0.258824 0.129412
0.498039 0.250980 0.129412
0.537255 0.235294 0.156863
0.580392 0.219608 0.172549
0.650980 0.211765 0.180392
0.709804 0.215686 0.168627
0.792157 0.211765 0.172549
0.858824 0.207843 0.168627
0.929412 0.196078 0.164706
0.996078 0.203922 0.156863
1.000000 0.196078 0.160784
0.066667 0.317647 0.188235
0.164706 0.329412 0.149020
0.247059 0.337255 0.129412
0.329412 0.333333 0.113725
0.396078 0.337255 0.121569
0.458824 0.329412 0.117647
0.501961 0.317647 0.125490
0.541176 0.298039 0.156863
0.580392 0.290196 0.160784
0.647059 0.286275 0.172549
0.713725 0.282353 0.168627
0.780392 0.274510 0.164706
0.850980 0.278431 0.156863
0.921569 0.274510 0.160784
0.996078 0.266667 0.152941
1.000000 0.266667 0.160784
0.086275 0.400000 0.156863
0.176471 0.403922 0.121569
0.250980 0.411765 0.121569
0.305882 0.403922 0.117647
0.384314 0.400000 0.117647
0.447059 0.400000 0.117647
0.494118 0.384314 0.141176
0.537255 0.376471 0.137255
0.580392 0.356863 0.172549
0.627451 0.349020 0.164706
0.705882 0.349020 0.156863
0.776471 0.345098 0.160784
0.850980 0.341176 0.152941
0.917647 0.345098 0.160784
0.992157 0.341176 0.149020
1.000000 0.337255 0.149020
0.105882 0.478431 0.125490
0.176471 0.482353 0.109804
0.235294 0.470588 0.117647
0.270588 0.462745 0.137255
0.345098 0.454902 0.141176
0.423529 0.458824 0.121569
0.498039 0.454902 0.129412
0.537255 0.443137 0.133333
0.576471 0.423529 0.156863
0.631373 0.419608 0.160784
0.705882 0.411765 0.160784
0.768627 0.411765 0.156863
0.843137 0.415686 0.149020
0.917647 0.407843 0.149020
