public/luts/peau-chaude.cube
# Studiio — look « peau-chaude », genere par scripts/lut/generer-luts.mjs
# Source : les coefficients de LOOKS_RENDUS, calcules par ffmpeg lui-meme.
# Aucune LUT tierce, aucun telechargement : provenance et licence du depot.
LUT_3D_SIZE 6
DOMAIN_MIN 0.0 0.0 0.0
DOMAIN_MAX 1.0 1.0 1.0
0.058824 0.027451 0.015686
0.274510 0.027451 0.000000
0.556863 0.054902 0.000000
0.717647 0.031373 0.000000
0.874510 0.000000 0.000000
1.000000 0.000000 0.000000
0.054902 0.247059 0.000000
0.274510 0.231373 0.000000
0.541176 0.262745 0.000000
0.713725 0.243137 0.000000
0.862745 0.211765 0.000000
1.000000 0.200000 0.000000
0.105882 0.482353 0.000000
0.317647 0.474510 0.000000
0.529412 0.474510 0.000000
0.705882 0.447059 0.000000
0.843137 0.415686 0.000000
1.000000 0.411765 0.000000
0.066667 0.670588 0.000000
0.258824 0.666667 0.000000
0.470588 0.662745 0.000000
0.690196 0.654902 0.000000
0.835294 0.623529 0.000000
1.000000 0.615686 0.000000
0.000000 0.854902 0.000000
0.180392 0.850980 0.000000
0.396078 0.843137 0.000000
0.603922 0.839216 0.000000
0.827451 0.827451 0.000000
1.000000 0.823529 0.000000
0.000000 1.000000 0.000000
0.172549 1.000000 0.000000
0.380392 1.000000 0.000000
0.596078 1.000000 0.000000
0.811765 1.000000 0.000000
1.000000 1.000000 0.000000
0.066667 0.035294 0.211765
0.282353 0.023529 0.215686
0.549020 0.050980 0.125490
0.717647 0.023529 0.152941
0.870588 0.000000 0.176471
1.000000 0.000000 0.180392
0.058824 0.235294 0.215686
0.321569 0.266667 0.121569
0.498039 0.250980 0.129412
0.650980 0.211765 0.180392
0.858824 0.207843 0.168627
1.000000 0.196078 0.160784
0.105882 0.478431 0.125490
0.270588 0.462745 0.137255
0.498039 0.454902 0.129412
0.631373 0.419608 0.160784
0.843137 0.415686 0.149020
1.000000 0.407843 0.152941
0.062745 0.674510 0.133333
0.184314 0.643137 0.156863
0.403922 0.627451 0.160784
0.615686 0.623529 0.149020
0.835294 0.623529 0.149020
1.000000 0.619608 0.137255
0.000000 0.854902 0.160784
0.184314 0.843137 0.156863
0.392157 0.839216 0.145098
0.600000 0.835294 0.133333
0.819608 0.827451 0.137255
1.000000 0.819608 0.125490
0.000000 1.000000 0.145098
0.168627 1.000000 0.141176
0.380392 1.000000 0.137255
0.596078 1.000000 0.133333
0.800000 1.000000 0.117647
1.000000 1.000000 0.101961
0.133333 0.062745 0.356863
0.341176 0.058824 0.345098
0.552941 0.047059 0.345098
0.713725 0.027451 0.360784
0.862745 0.000000 0.403922
1.000000 0.000000 0.392157
0.109804 0.270588 0.345098
0.282353 0.250980 0.356863
0.498039 0.239216 0.364706
0.639216 0.215686 0.392157
0.858824 0.200000 0.384314
1.000000 0.196078 0.372549
0.105882 0.474510 0.337255
0.274510 0.458824 0.356863
0.415686 0.423529 0.384314
0.623529 0.419608 0.372549
0.847059 0.407843 0.376471
1.000000 0.403922 0.364706
0.066667 0.666667 0.337255
0.188235 0.635294 0.384314
0.396078 0.631373 0.372549
0.619608 0.619608 0.368627
0.831373 0.619608 0.360784
1.000000 0.615686 0.349020
0.000000 0.850980 0.372549
0.172549 0.847059 0.368627
0.384314 0.843137 0.356863
0.607843 0.831373 0.360784
0.815686 0.827451 0.349020
1.000000 0.819608 0.345098
0.000000 1.000000 0.364706
0.160784 1.000000 0.360784
0.384314 1.000000 0.356863
0.592157 1.000000 0.345098
0.800000 1.000000 0.329412
1.000000 1.000000 0.333333
0.062745 0.039216 0.611765
0.278431 0.031373 0.607843
0.501961 0.031373 0.592157
0.713725 0.023529 0.584314
0.866667 0.000000 0.619608
1.000000 0.000000 0.607843
0.062745 0.254902 0.588235
0.219608 0.219608 0.631373
0.427451 0.215686 0.619608
0.643137 0.207843 0.615686
0.850980 0.200000 0.596078
1.000000 0.192157 0.600000
0.066667 0.458824 0.580392
0.207843 0.431373 0.615686
0.411765 0.423529 0.596078
0.627451 0.415686 0.600000
0.835294 0.411765 0.588235
1.000000 0.400000 0.584314
0.070588 0.662745 0.564706
0.184314 0.631373 0.596078
0.400000 0.623529 0.592157
0.611765 0.619608 0.580392
0.819608 0.619608 0.568627
1.000000 0.607843 0.576471
0.000000 0.847059 0.592157
0.172549 0.843137 0.580392
0.388235 0.835294 0.584314
0.596078 0.831373 0.572549
0.819608 0.819608 0.568627
1.000000 0.815686 0.556863
0.000000 1.000000 0.584314
0.164706 1.000000 0.572549
0.376471 1.000000 0.568627
0.584314 1.000000 0.556863
0.803922 1.000000 0.556863
1.000000 1.000000 0.545098
0.007843 0.019608 0.862745
0.223529 0.011765 0.850980
0.431373 0.007843 0.847059
0.654902 0.000000 0.843137
0.866667 0.000000 0.831373
1.000000 0.000000 0.823529
0.000000 0.223529 0.854902
0.211765 0.219608 0.843137
0.427451 0.211765 0.839216
0.639216 0.203922 0.823529
0.847059 0.196078 0.819608
1.000000 0.188235 0.815686
0.000000 0.431373 0.835294
0.188235 0.423529 0.815686
0.415686 0.415686 0.827451
0.623529 0.411765 0.815686
0.839216 0.403922 0.811765
1.000000 0.400000 0.800000
0.000000 0.639216 0.819608
0.184314 0.631373 0.815686
0.400000 0.623529 0.803922
0.607843 0.619608 0.792157
0.823529 0.611765 0.796078
1.000000 0.611765 0.792157
0.000000 0.850980 0.803922
0.176471 0.835294 0.807843
0.384314 0.835294 0.796078
0.600000 0.823529 0.792157
0.811765 0.823529 0.780392
1.000000 0.815686 0.764706
0.000000 1.000000 0.796078
0.164706 1.000000 0.792157
0.372549 1.000000 0.780392
0.584314 1.000000 0.780392
0.792157 1.000000 0.768627
1.000000 1.000000 0.764706
0.003922 0.015686 0.972549
0.219608 0.007843 0.972549
0.435294 0.000000 0.972549
0.647059 0.000000 0.972549
0.854902 0.000000 0.972549
1.000000 0.000000 0.972549
0.000000 0.223529 0.972549
0.207843 0.219608 0.972549
0.423529 0.211765 0.972549
0.631373 0.203922 0.972549
0.850980 0.192157 0.972549
1.000000 0.188235 0.972549
0.000000 0.431373 0.972549
0.192157 0.415686 0.972549
0.407843 0.419608 0.972549
0.623529 0.411765 0.972549
0.839216 0.403922 0.972549
1.000000 0.400000 0.972549
0.000000 0.631373 0.972549
0.180392 0.627451 0.972549
0.388235 0.623529 0.972549
0.611765 0.611765 0.972549
0.823529 0.607843 0.972549
1.000000 0.603922 0.972549
0.000000 0.843137 0.972549
0.168627 0.839216 0.972549
0.384314 0.831373 0.972549
0.600000 0.823529 0.972549
0.807843 0.819608 0.972549
1.000000 0.807843 0.972549
0.000000 1.000000 0.972549
0.156863 1.000000 0.972549
0.376471 1.000000 0.972549
0.580392 1.000000 0.972549
0.796078 1.000000 0.972549
1.000000 1.000000 0.972549
