public/luts/peau-doree.cube
# Studiio — look « peau-doree », genere par scripts/lut/generer-luts.mjs
# Source : les coefficients de LOOKS_RENDUS, calcules par ffmpeg lui-meme.
# Aucune LUT tierce, aucun telechargement : provenance et licence du depot.
LUT_3D_SIZE 6
DOMAIN_MIN 0.0 0.0 0.0
DOMAIN_MAX 1.0 1.0 1.0
0.000000 0.000000 0.000000
0.172549 0.000000 0.000000
0.458824 0.058824 0.000000
0.698039 0.058824 0.000000
0.933333 0.043137 0.000000
1.000000 0.043137 0.000000
0.000000 0.192157 0.000000
0.180392 0.184314 0.000000
0.443137 0.235294 0.000000
0.694118 0.239216 0.000000
0.929412 0.219608 0.000000
1.000000 0.215686 0.000000
0.047059 0.470588 0.000000
0.223529 0.470588 0.000000
0.443137 0.470588 0.000000
0.690196 0.458824 0.000000
0.917647 0.443137 0.000000
1.000000 0.443137 0.000000
0.062745 0.698039 0.000000
0.223529 0.690196 0.000000
0.443137 0.690196 0.000000
0.682353 0.686275 0.000000
0.913725 0.670588 0.000000
1.000000 0.662745 0.000000
0.070588 0.905882 0.000000
0.219608 0.909804 0.000000
0.450980 0.898039 0.000000
0.678431 0.894118 0.000000
0.909804 0.894118 0.000000
1.000000 0.886275 0.000000
0.070588 1.000000 0.000000
0.223529 1.000000 0.000000
0.447059 1.000000 0.000000
0.674510 1.000000 0.000000
0.901961 1.000000 0.000000
1.000000 1.000000 0.000000
0.000000 0.000000 0.176471
0.180392 0.000000 0.176471
0.450980 0.054902 0.090196
0.698039 0.058824 0.086275
0.937255 0.043137 0.113725
1.000000 0.043137 0.113725
0.000000 0.188235 0.176471
0.203922 0.223529 0.113725
0.454902 0.250980 0.074510
0.701961 0.219608 0.113725
0.925490 0.215686 0.098039
1.000000 0.211765 0.101961
0.047059 0.470588 0.094118
0.223529 0.478431 0.074510
0.458824 0.470588 0.066667
0.694118 0.447059 0.098039
0.921569 0.443137 0.094118
1.000000 0.435294 0.098039
0.062745 0.698039 0.074510
0.227451 0.678431 0.098039
0.458824 0.670588 0.094118
0.682353 0.666667 0.086275
0.921569 0.666667 0.101961
1.000000 0.666667 0.086275
0.070588 0.909804 0.098039
0.223529 0.898039 0.098039
0.450980 0.894118 0.094118
0.674510 0.898039 0.082353
0.909804 0.890196 0.082353
1.000000 0.886275 0.074510
0.070588 1.000000 0.094118
0.219608 1.000000 0.098039
0.439216 1.000000 0.082353
0.670588 1.000000 0.082353
0.901961 1.000000 0.082353
1.000000 1.000000 0.074510
0.047059 0.058824 0.333333
0.215686 0.054902 0.325490
0.458824 0.058824 0.333333
0.701961 0.058824 0.313725
0.929412 0.043137 0.341176
1.000000 0.043137 0.337255
0.047059 0.247059 0.333333
0.227451 0.254902 0.301961
0.458824 0.243137 0.301961
0.701961 0.219608 0.337255
0.929412 0.215686 0.337255
1.000000 0.207843 0.333333
0.043137 0.462745 0.313725
0.227451 0.478431 0.309804
0.466667 0.450980 0.337255
0.686275 0.447059 0.333333
0.917647 0.439216 0.333333
1.000000 0.439216 0.321569
0.062745 0.698039 0.305882
0.223529 0.674510 0.329412
0.450980 0.670588 0.329412
0.690196 0.666667 0.325490
0.913725 0.666667 0.321569
1.000000 0.662745 0.313725
0.070588 0.901961 0.329412
0.219608 0.905882 0.325490
0.447059 0.898039 0.317647
0.678431 0.890196 0.317647
0.905882 0.894118 0.317647
1.000000 0.882353 0.317647
0.070588 1.000000 0.325490
0.211765 1.000000 0.317647
0.447059 1.000000 0.325490
0.674510 1.000000 0.317647
0.894118 1.000000 0.301961
1.000000 1.000000 0.301961
0.062745 0.058824 0.568627
0.243137 0.058824 0.568627
0.466667 0.058824 0.549020
0.690196 0.058824 0.541176
0.937255 0.043137 0.572549
1.000000 0.043137 0.568627
0.062745 0.247059 0.549020
0.243137 0.223529 0.576471
0.466667 0.223529 0.572549
0.701961 0.215686 0.576471
0.925490 0.211765 0.560784
1.000000 0.211765 0.564706
0.062745 0.466667 0.549020
0.239216 0.450980 0.576471
0.458824 0.450980 0.560784
0.694118 0.443137 0.564706
0.921569 0.439216 0.556863
1.000000 0.431373 0.556863
0.062745 0.690196 0.545098
0.227451 0.674510 0.560784
0.454902 0.670588 0.560784
0.682353 0.662745 0.552941
0.901961 0.662745 0.545098
1.000000 0.662745 0.556863
0.070588 0.905882 0.560784
0.215686 0.901961 0.552941
0.443137 0.894118 0.552941
0.674510 0.894118 0.552941
0.909804 0.886275 0.545098
1.000000 0.882353 0.537255
0.070588 1.000000 0.552941
0.219608 1.000000 0.552941
0.439216 1.000000 0.545098
0.666667 1.000000 0.537255
0.901961 1.000000 0.541176
1.000000 1.000000 0.533333
0.070588 0.043137 0.819608
0.243137 0.043137 0.811765
0.474510 0.043137 0.807843
0.701961 0.043137 0.811765
0.929412 0.043137 0.796078
1.000000 0.043137 0.800000
0.070588 0.227451 0.815686
0.239216 0.223529 0.811765
0.470588 0.215686 0.811765
0.698039 0.219608 0.800000
0.921569 0.215686 0.792157
1.000000 0.203922 0.792157
0.070588 0.447059 0.807843
0.223529 0.447059 0.792157
0.466667 0.447059 0.800000
0.686275 0.443137 0.792157
0.921569 0.435294 0.792157
1.000000 0.435294 0.784314
0.070588 0.678431 0.796078
0.223529 0.670588 0.796078
0.450980 0.666667 0.788235
0.678431 0.670588 0.780392
0.909804 0.658824 0.780392
1.000000 0.658824 0.776471
0.070588 0.901961 0.788235
0.219608 0.898039 0.796078
0.447059 0.894118 0.780392
0.674510 0.890196 0.780392
0.905882 0.886275 0.776471
1.000000 0.886275 0.768627
0.070588 1.000000 0.780392
0.211765 1.000000 0.780392
0.443137 1.000000 0.776471
0.666667 1.000000 0.776471
0.894118 1.000000 0.772549
1.000000 1.000000 0.764706
0.070588 0.043137 0.945098
0.247059 0.043137 0.945098
0.474510 0.043137 0.945098
0.698039 0.043137 0.945098
0.925490 0.043137 0.945098
1.000000 0.043137 0.945098
0.070588 0.227451 0.945098
0.235294 0.219608 0.945098
0.466667 0.219608 0.945098
0.694118 0.215686 0.945098
0.921569 0.207843 0.945098
1.000000 0.207843 0.945098
0.070588 0.450980 0.945098
0.231373 0.443137 0.945098
0.458824 0.443137 0.945098
0.694118 0.439216 0.945098
0.917647 0.439216 0.945098
1.000000 0.435294 0.945098
0.070588 0.670588 0.945098
0.227451 0.670588 0.945098
0.447059 0.670588 0.945098
0.682353 0.658824 0.945098
0.901961 0.658824 0.945098
1.000000 0.658824 0.945098
0.070588 0.901961 0.945098
0.219608 0.898039 0.945098
0.443137 0.890196 0.945098
0.674510 0.890196 0.945098
0.898039 0.890196 0.945098
1.000000 0.878431 0.945098
0.070588 1.000000 0.945098
0.211765 1.000000 0.945098
0.439216 1.000000 0.945098
0.666667 1.000000 0.945098
0.898039 1.000000 0.945098
1.000000 1.000000 0.945098
