public/luts/peau-naturelle.cube
# Studiio — look « peau-naturelle », genere par scripts/lut/generer-luts.mjs
# Source : les coefficients de LOOKS_RENDUS, calcules par ffmpeg lui-meme.
# Aucune LUT tierce, aucun telechargement : provenance et licence du depot.
LUT_3D_SIZE 6
DOMAIN_MIN 0.0 0.0 0.0
DOMAIN_MAX 1.0 1.0 1.0
0.000000 0.000000 0.000000
0.168627 0.000000 0.000000
0.407843 0.011765 0.000000
0.611765 0.011765 0.000000
0.815686 0.000000 0.000000
1.000000 0.000000 0.000000
0.000000 0.184314 0.000000
0.172549 0.180392 0.000000
0.403922 0.192157 0.000000
0.619608 0.200000 0.000000
0.811765 0.184314 0.000000
1.000000 0.188235 0.000000
0.027451 0.403922 0.000000
0.211765 0.403922 0.000000
0.415686 0.403922 0.000000
0.627451 0.403922 0.000000
0.815686 0.392157 0.000000
1.000000 0.396078 0.000000
0.031373 0.603922 0.000000
0.207843 0.611765 0.000000
0.411765 0.607843 0.000000
0.623529 0.607843 0.000000
0.819608 0.607843 0.000000
1.000000 0.600000 0.000000
0.019608 0.803922 0.000000
0.200000 0.807843 0.000000
0.407843 0.807843 0.000000
0.611765 0.807843 0.000000
0.827451 0.807843 0.000000
1.000000 0.811765 0.000000
0.019608 1.000000 0.000000
0.203922 1.000000 0.000000
0.411765 1.000000 0.000000
0.619608 1.000000 0.000000
0.823529 1.000000 0.000000
1.000000 1.000000 0.000000
0.000000 0.000000 0.168627
0.172549 0.000000 0.172549
0.403922 0.007843 0.152941
0.615686 0.011765 0.145098
0.811765 0.000000 0.172549
1.000000 0.000000 0.180392
0.000000 0.180392 0.180392
0.192157 0.192157 0.152941
0.415686 0.196078 0.145098
0.615686 0.184314 0.176471
0.811765 0.184314 0.176471
1.000000 0.184314 0.176471
0.023529 0.400000 0.152941
0.211765 0.407843 0.156863
0.415686 0.403922 0.160784
0.615686 0.396078 0.172549
0.819608 0.400000 0.176471
1.000000 0.396078 0.180392
0.031373 0.603922 0.156863
0.196078 0.600000 0.168627
0.411765 0.600000 0.180392
0.615686 0.596078 0.172549
0.823529 0.603922 0.188235
1.000000 0.607843 0.188235
0.019608 0.811765 0.180392
0.203922 0.803922 0.184314
0.407843 0.807843 0.184314
0.615686 0.811765 0.184314
0.823529 0.807843 0.180392
1.000000 0.815686 0.180392
0.019608 1.000000 0.184314
0.207843 1.000000 0.192157
0.411765 1.000000 0.180392
0.619608 1.000000 0.188235
0.827451 1.000000 0.192157
1.000000 1.000000 0.188235
0.023529 0.007843 0.360784
0.196078 0.007843 0.349020
0.403922 0.007843 0.360784
0.619608 0.011765 0.356863
0.811765 0.000000 0.384314
1.000000 0.000000 0.384314
0.023529 0.188235 0.360784
0.207843 0.200000 0.352941
0.419608 0.192157 0.360784
0.615686 0.184314 0.384314
0.819608 0.188235 0.384314
1.000000 0.184314 0.380392
0.023529 0.400000 0.360784
0.215686 0.400000 0.368627
0.411765 0.396078 0.384314
0.607843 0.396078 0.380392
0.823529 0.392157 0.388235
1.000000 0.400000 0.388235
0.031373 0.615686 0.360784
0.200000 0.596078 0.380392
0.403922 0.600000 0.384314
0.615686 0.600000 0.392157
0.823529 0.603922 0.384314
1.000000 0.607843 0.388235
0.019608 0.807843 0.384314
0.207843 0.807843 0.392157
0.403922 0.811765 0.380392
0.619608 0.807843 0.388235
0.827451 0.811765 0.392157
1.000000 0.807843 0.396078
0.019608 1.000000 0.388235
0.203922 1.000000 0.388235
0.419608 1.000000 0.400000
0.615686 1.000000 0.396078
0.823529 1.000000 0.396078
1.000000 1.000000 0.392157
0.031373 0.011765 0.556863
0.211765 0.011765 0.564706
0.407843 0.011765 0.560784
0.615686 0.011765 0.560784
0.819608 0.000000 0.584314
1.000000 0.000000 0.580392
0.031373 0.196078 0.560784
0.200000 0.184314 0.588235
0.407843 0.188235 0.580392
0.611765 0.184314 0.584314
0.815686 0.188235 0.588235
1.000000 0.188235 0.600000
0.031373 0.400000 0.564706
0.207843 0.392157 0.584314
0.403922 0.396078 0.588235
0.619608 0.396078 0.600000
0.819608 0.396078 0.596078
1.000000 0.396078 0.596078
0.031373 0.611765 0.572549
0.203922 0.600000 0.592157
0.411765 0.596078 0.596078
0.611765 0.603922 0.592157
0.815686 0.600000 0.588235
1.000000 0.603922 0.600000
0.019608 0.803922 0.596078
0.200000 0.811765 0.592157
0.407843 0.807843 0.596078
0.615686 0.811765 0.596078
0.823529 0.811765 0.603922
1.000000 0.811765 0.592157
0.019608 1.000000 0.596078
0.207843 1.000000 0.596078
0.415686 1.000000 0.603922
0.615686 1.000000 0.592157
0.827451 1.000000 0.600000
1.000000 1.000000 0.600000
0.019608 0.000000 0.792157
0.196078 0.000000 0.792157
0.400000 0.000000 0.792157
0.607843 0.000000 0.788235
0.815686 0.000000 0.788235
1.000000 0.000000 0.800000
0.019608 0.184314 0.800000
0.196078 0.184314 0.788235
0.407843 0.184314 0.796078
0.611765 0.188235 0.800000
0.815686 0.188235 0.796078
1.000000 0.188235 0.796078
0.019608 0.388235 0.792157
0.188235 0.392157 0.788235
0.407843 0.392157 0.803922
0.615686 0.396078 0.796078
0.819608 0.396078 0.800000
1.000000 0.396078 0.800000
0.019608 0.600000 0.796078
0.203922 0.600000 0.800000
0.407843 0.596078 0.796078
0.607843 0.603922 0.796078
0.823529 0.600000 0.803922
1.000000 0.603922 0.803922
0.019608 0.807843 0.796078
0.203922 0.807843 0.803922
0.411765 0.811765 0.803922
0.619608 0.803922 0.807843
0.823529 0.811765 0.800000
1.000000 0.815686 0.800000
0.019608 1.000000 0.803922
0.207843 1.000000 0.807843
0.407843 1.000000 0.800000
0.623529 1.000000 0.807843
0.827451 1.000000 0.803922
1.000000 1.000000 0.811765
0.019608 0.000000 1.000000
0.188235 0.000000 0.988235
0.403922 0.000000 0.996078
0.607843 0.000000 0.992157
0.807843 0.000000 1.000000
1.000000 0.000000 1.000000
0.019608 0.188235 0.996078
0.192157 0.184314 1.000000
0.407843 0.184314 1.000000
0.607843 0.188235 1.000000
0.819608 0.184314 1.000000
1.000000 0.188235 1.000000
0.019608 0.388235 0.996078
0.196078 0.392157 1.000000
0.403922 0.396078 1.000000
0.619608 0.392157 1.000000
0.819608 0.400000 1.000000
1.000000 0.396078 1.000000
0.019608 0.596078 1.000000
0.203922 0.600000 1.000000
0.403922 0.603922 1.000000
0.611765 0.600000 1.000000
0.819608 0.603922 1.000000
1.000000 0.607843 1.000000
0.019608 0.807843 1.000000
0.200000 0.807843 1.000000
0.415686 0.807843 1.000000
0.623529 0.811765 1.000000
0.819608 0.811765 1.000000
1.000000 0.811765 1.000000
0.019608 1.000000 1.000000
0.207843 1.000000 1.000000
0.411765 1.000000 1.000000
0.619608 1.000000 1.000000
0.835294 1.000000 1.000000
1.000000 1.000000 1.000000
