public/luts/pop.cube
# Studiio — look « pop », genere par scripts/lut/generer-luts.mjs
# Source : les coefficients de LOOKS_RENDUS, calcules par ffmpeg lui-meme.
# Aucune LUT tierce, aucun telechargement : provenance et licence du depot.
LUT_3D_SIZE 6
DOMAIN_MIN 0.0 0.0 0.0
DOMAIN_MAX 1.0 1.0 1.0
0.000000 0.000000 0.000000
0.243137 0.000000 0.003922
0.560784 0.000000 0.043137
0.772549 0.000000 0.003922
1.000000 0.000000 0.000000
1.000000 0.000000 0.000000
0.007843 0.250980 0.007843
0.219608 0.227451 0.003922
0.521569 0.215686 0.043137
0.745098 0.176471 0.007843
1.000000 0.152941 0.000000
1.000000 0.141176 0.000000
0.043137 0.498039 0.043137
0.231373 0.474510 0.043137
0.486275 0.466667 0.043137
0.725490 0.419608 0.011765
0.968627 0.400000 0.000000
1.000000 0.384314 0.000000
0.007843 0.717647 0.007843
0.156863 0.701961 0.011765
0.423529 0.690196 0.015686
0.690196 0.670588 0.019608
0.941176 0.650980 0.000000
1.000000 0.631373 0.000000
0.000000 0.960784 0.000000
0.109804 0.945098 0.000000
0.384314 0.925490 0.000000
0.635294 0.909804 0.000000
0.909804 0.890196 0.000000
1.000000 0.862745 0.000000
0.000000 0.972549 0.000000
0.086275 0.972549 0.000000
0.349020 0.972549 0.000000
0.611765 0.972549 0.000000
0.874510 0.972549 0.000000
1.000000 0.972549 0.000000
0.007843 0.000000 0.254902
0.250980 0.000000 0.250980
0.545098 0.000000 0.258824
0.772549 0.000000 0.215686
1.000000 0.000000 0.180392
1.000000 0.000000 0.176471
0.003922 0.239216 0.235294
0.250980 0.223529 0.250980
0.486275 0.200000 0.203922
0.741176 0.160784 0.176471
0.992157 0.145098 0.145098
1.000000 0.125490 0.145098
0.043137 0.482353 0.235294
0.200000 0.462745 0.200000
0.470588 0.443137 0.192157
0.701961 0.411765 0.145098
0.960784 0.396078 0.113725
1.000000 0.376471 0.109804
0.011765 0.709804 0.168627
0.133333 0.694118 0.141176
0.403922 0.666667 0.125490
0.662745 0.658824 0.105882
0.941176 0.639216 0.098039
1.000000 0.627451 0.078431
0.000000 0.952941 0.125490
0.109804 0.937255 0.113725
0.368627 0.917647 0.090196
0.631373 0.905882 0.070588
0.901961 0.886275 0.062745
1.000000 0.870588 0.039216
0.000000 0.972549 0.090196
0.082353 0.972549 0.078431
0.337255 0.972549 0.062745
0.607843 0.972549 0.047059
0.862745 0.972549 0.027451
1.000000 0.972549 0.003922
0.043137 0.000000 0.580392
0.278431 0.000000 0.549020
0.545098 0.000000 0.545098
0.764706 0.000000 0.474510
1.000000 0.000000 0.470588
1.000000 0.000000 0.439216
0.043137 0.235294 0.545098
0.219608 0.203922 0.490196
0.486275 0.184314 0.490196
0.725490 0.156863 0.439216
0.992157 0.137255 0.435294
1.000000 0.125490 0.407843
0.043137 0.478431 0.505882
0.200000 0.450980 0.482353
0.435294 0.419608 0.435294
0.694118 0.411765 0.407843
0.964706 0.384314 0.400000
1.000000 0.376471 0.376471
0.011765 0.709804 0.443137
0.133333 0.678431 0.415686
0.396078 0.666667 0.396078
0.662745 0.647059 0.384314
0.925490 0.635294 0.368627
1.000000 0.623529 0.341176
0.000000 0.945098 0.396078
0.105882 0.933333 0.384314
0.360784 0.917647 0.364706
0.635294 0.894118 0.352941
0.886275 0.882353 0.329412
1.000000 0.858824 0.317647
0.000000 0.972549 0.372549
0.070588 0.972549 0.352941
0.333333 0.972549 0.337255
0.596078 0.972549 0.317647
0.854902 0.972549 0.294118
1.000000 0.972549 0.286275
0.000000 0.000000 0.796078
0.231373 0.000000 0.792157
0.494118 0.000000 0.764706
0.760784 0.000000 0.752941
1.000000 0.000000 0.729412
1.000000 0.000000 0.709804
0.003922 0.203922 0.764706
0.200000 0.180392 0.760784
0.458824 0.164706 0.729412
0.725490 0.145098 0.725490
0.988235 0.133333 0.698039
1.000000 0.117647 0.694118
0.007843 0.447059 0.749020
0.164706 0.431373 0.725490
0.427451 0.419608 0.698039
0.690196 0.396078 0.694118
0.952941 0.384314 0.666667
1.000000 0.360784 0.658824
0.011765 0.698039 0.717647
0.129412 0.674510 0.686275
0.396078 0.658824 0.678431
0.654902 0.639216 0.654902
0.913725 0.631373 0.627451
1.000000 0.607843 0.623529
0.000000 0.945098 0.678431
0.094118 0.925490 0.654902
0.360784 0.909804 0.643137
0.619608 0.890196 0.619608
0.886275 0.870588 0.611765
1.000000 0.854902 0.588235
0.000000 0.972549 0.643137
0.066667 0.972549 0.619608
0.329412 0.972549 0.611765
0.584314 0.972549 0.588235
0.858824 0.972549 0.576471
1.000000 0.972549 0.552941
0.000000 0.000000 1.000000
0.223529 0.000000 1.000000
0.486275 0.000000 1.000000
0.749020 0.000000 1.000000
1.000000 0.000000 1.000000
1.000000 0.000000 0.992157
0.000000 0.196078 1.000000
0.184314 0.176471 1.000000
0.454902 0.156863 1.000000
0.717647 0.145098 0.992157
0.976471 0.129412 0.968627
1.000000 0.109804 0.956863
0.000000 0.435294 1.000000
0.149020 0.419608 0.980392
0.423529 0.403922 0.984314
0.686275 0.392157 0.956863
0.952941 0.368627 0.949020
1.000000 0.356863 0.921569
0.000000 0.686275 0.980392
0.125490 0.670588 0.968627
0.384314 0.650980 0.945098
0.647059 0.639216 0.917647
0.909804 0.615686 0.909804
1.000000 0.607843 0.890196
0.000000 0.937255 0.945098
0.094118 0.917647 0.933333
0.352941 0.898039 0.909804
0.623529 0.882353 0.901961
0.878431 0.862745 0.878431
1.000000 0.854902 0.850980
0.000000 0.972549 0.909804
0.058824 0.972549 0.901961
0.317647 0.972549 0.878431
0.584314 0.972549 0.866667
0.847059 0.972549 0.847059
1.000000 0.972549 0.835294
0.000000 0.000000 1.000000
0.211765 0.000000 1.000000
0.482353 0.000000 1.000000
0.737255 0.000000 1.000000
1.000000 0.000000 1.000000
1.000000 0.000000 1.000000
0.000000 0.203922 1.000000
0.180392 0.168627 1.000000
0.450980 0.156863 1.000000
0.709804 0.137255 1.000000
0.976471 0.117647 1.000000
1.000000 0.101961 1.000000
0.000000 0.439216 1.000000
0.149020 0.411765 1.000000
0.415686 0.407843 1.000000
0.678431 0.380392 1.000000
0.941176 0.368627 1.000000
1.000000 0.352941 1.000000
0.000000 0.678431 1.000000
0.117647 0.662745 1.000000
0.380392 0.647059 1.000000
0.643137 0.623529 1.000000
0.905882 0.611765 1.000000
1.000000 0.596078 1.000000
0.000000 0.917647 1.000000
0.078431 0.909804 1.000000
0.349020 0.894118 1.000000
0.607843 0.874510 1.000000
0.870588 0.862745 1.000000
1.000000 0.843137 1.000000
0.000000 0.972549 1.000000
0.050980 0.972549 1.000000
0.317647 0.972549 1.000000
0.580392 0.972549 1.000000
0.847059 0.972549 1.000000
1.000000 0.972549 1.000000
