public/luts/pop.cube
# Studiio — look « pop », genere par scripts/lut/generer-luts.mjs
# Source : les coefficients de LOOKS_RENDUS, calcules par ffmpeg lui-meme.
# Aucune LUT tierce, aucun telechargement : provenance et licence du depot.
LUT_3D_SIZE 16
DOMAIN_MIN 0.0 0.0 0.0
DOMAIN_MAX 1.0 1.0 1.0
0.000000 0.000000 0.000000
0.062745 0.000000 0.000000
0.160784 0.000000 0.000000
0.243137 0.000000 0.003922
0.352941 0.000000 0.019608
0.454902 0.000000 0.035294
0.560784 0.000000 0.043137
0.627451 0.000000 0.031373
0.709804 0.000000 0.015686
0.772549 0.000000 0.003922
0.870588 0.000000 0.000000
0.945098 0.000000 0.000000
1.000000 0.000000 0.000000
1.000000 0.000000 0.000000
1.000000 0.000000 0.000000
1.000000 0.000000 0.000000
0.000000 0.082353 0.000000
0.058824 0.074510 0.000000
0.145098 0.066667 0.000000
0.239216 0.070588 0.003922
0.349020 0.058824 0.019608
0.443137 0.054902 0.035294
0.549020 0.050980 0.043137
0.619608 0.039216 0.035294
0.690196 0.019608 0.019608
0.768627 0.007843 0.003922
0.847059 0.000000 0.000000
0.941176 0.000000 0.000000
1.000000 0.000000 0.000000
1.000000 0.000000 0.000000
1.000000 0.007843 0.000000
1.000000 0.031373 0.000000
0.000000 0.164706 0.000000
0.054902 0.156863 0.000000
0.133333 0.156863 0.000000
0.231373 0.141176 0.003922
0.325490 0.149020 0.015686
0.435294 0.133333 0.031373
0.525490 0.133333 0.043137
0.615686 0.121569 0.035294
0.686275 0.109804 0.023529
0.760784 0.086275 0.007843
0.839216 0.082353 0.000000
0.929412 0.070588 0.000000
1.000000 0.074510 0.000000
1.000000 0.062745 0.000000
1.000000 0.058824 0.000000
1.000000 0.090196 0.000000
0.007843 0.250980 0.007843
0.043137 0.239216 0.003922
0.125490 0.231373 0.003922
0.219608 0.227451 0.003922
0.317647 0.223529 0.015686
0.423529 0.219608 0.031373
0.521569 0.215686 0.043137
0.603922 0.200000 0.039216
0.678431 0.192157 0.023529
0.745098 0.176471 0.007843
0.827451 0.160784 0.000000
0.913725 0.160784 0.000000
1.000000 0.152941 0.000000
1.000000 0.145098 0.000000
1.000000 0.141176 0.000000
1.000000 0.141176 0.000000
0.019608 0.325490 0.019608
0.043137 0.325490 0.019608
0.141176 0.317647 0.019608
0.215686 0.313725 0.019608
0.313725 0.305882 0.015686
0.400000 0.301961 0.027451
0.513725 0.290196 0.043137
0.588235 0.290196 0.039216
0.670588 0.270588 0.023529
0.737255 0.258824 0.011765
0.823529 0.243137 0.000000
0.898039 0.239216 0.000000
1.000000 0.231373 0.000000
1.000000 0.231373 0.000000
1.000000 0.219608 0.000000
1.000000 0.219608 0.000000
0.035294 0.411765 0.035294
0.047059 0.403922 0.031373
0.141176 0.403922 0.031373
0.223529 0.392157 0.031373
0.313725 0.388235 0.031373
0.400000 0.384314 0.031373
0.501961 0.376471 0.043137
0.584314 0.368627 0.043137
0.658824 0.356863 0.027451
0.729412 0.337255 0.011765
0.807843 0.333333 0.000000
0.894118 0.321569 0.000000
0.980392 0.317647 0.000000
1.000000 0.313725 0.000000
1.000000 0.305882 0.000000
1.000000 0.298039 0.000000
0.043137 0.498039 0.043137
0.050980 0.486275 0.043137
0.133333 0.486275 0.043137
0.231373 0.474510 0.043137
0.309804 0.474510 0.043137
0.403922 0.458824 0.043137
0.486275 0.466667 0.043137
0.580392 0.450980 0.043137
0.647059 0.443137 0.031373
0.725490 0.419608 0.011765
0.792157 0.411765 0.000000
0.886275 0.396078 0.000000
0.968627 0.400000 0.000000
1.000000 0.388235 0.000000
1.000000 0.392157 0.000000
1.000000 0.384314 0.000000
0.035294 0.576471 0.035294
0.039216 0.564706 0.039216
0.121569 0.564706 0.039216
0.211765 0.556863 0.039216
0.294118 0.552941 0.039216
0.392157 0.545098 0.043137
0.478431 0.541176 0.043137
0.560784 0.537255 0.043137
0.643137 0.525490 0.031373
0.705882 0.505882 0.015686
0.788235 0.494118 0.000000
0.870588 0.486275 0.000000
0.960784 0.478431 0.000000
1.000000 0.474510 0.000000
1.000000 0.470588 0.000000
1.000000 0.458824 0.000000
0.023529 0.650980 0.023529
0.023529 0.643137 0.023529
0.098039 0.635294 0.023529
0.176471 0.631373 0.023529
0.278431 0.623529 0.027451
0.352941 0.619608 0.027451
0.454902 0.615686 0.027451
0.533333 0.611765 0.027451
0.631373 0.600000 0.031373
0.701961 0.592157 0.019608
0.780392 0.572549 0.000000
0.858824 0.568627 0.000000
0.956863 0.560784 0.000000
1.000000 0.556863 0.000000
1.000000 0.556863 0.000000
1.000000 0.545098 0.000000
0.007843 0.717647 0.007843
0.007843 0.713725 0.007843
0.074510 0.709804 0.011765
0.156863 0.701961 0.011765
0.254902 0.701961 0.011765
0.337255 0.690196 0.015686
0.423529 0.690196 0.015686
0.513725 0.682353 0.015686
0.600000 0.682353 0.015686
0.690196 0.670588 0.019608
0.764706 0.662745 0.003922
0.850980 0.647059 0.000000
0.941176 0.650980 0.000000
1.000000 0.639216 0.000000
1.000000 0.635294 0.000000
1.000000 0.631373 0.000000
0.000000 0.800000 0.000000
0.000000 0.788235 0.000000
0.043137 0.784314 0.000000
0.141176 0.776471 0.000000
0.219608 0.776471 0.000000
0.317647 0.764706 0.000000
0.396078 0.764706 0.000000
0.494118 0.749020 0.003922
0.572549 0.756863 0.000000
0.670588 0.745098 0.003922
0.749020 0.745098 0.003922
0.843137 0.729412 0.000000
0.925490 0.729412 0.000000
1.000000 0.713725 0.000000
1.000000 0.717647 0.000000
1.000000 0.713725 0.000000
0.000000 0.878431 0.000000
0.000000 0.870588 0.000000
0.039216 0.866667 0.000000
0.125490 0.858824 0.000000
0.215686 0.858824 0.000000
0.301961 0.847059 0.000000
0.388235 0.843137 0.000000
0.474510 0.839216 0.000000
0.564706 0.831373 0.000000
0.650980 0.827451 0.000000
0.741176 0.823529 0.000000
0.823529 0.811765 0.000000
0.917647 0.811765 0.000000
1.000000 0.807843 0.000000
1.000000 0.796078 0.000000
1.000000 0.792157 0.000000
0.000000 0.960784 0.000000
0.000000 0.956863 0.000000
0.035294 0.949020 0.000000
0.109804 0.945098 0.000000
0.207843 0.933333 0.000000
0.286275 0.933333 0.000000
0.384314 0.925490 0.000000
0.458824 0.921569 0.000000
0.560784 0.913725 0.000000
0.635294 0.909804 0.000000
0.737255 0.905882 0.000000
0.815686 0.901961 0.000000
0.909804 0.890196 0.000000
0.996078 0.890196 0.000000
1.000000 0.874510 0.000000
1.000000 0.862745 0.000000
0.000000 0.972549 0.000000
0.000000 0.972549 0.000000
0.019608 0.972549 0.000000
0.105882 0.972549 0.000000
0.196078 0.972549 0.000000
0.278431 0.972549 0.000000
0.368627 0.972549 0.000000
0.454902 0.972549 0.000000
0.541176 0.972549 0.000000
0.635294 0.972549 0.000000
0.717647 0.972549 0.000000
0.803922 0.972549 0.000000
0.894118 0.968627 0.000000
0.984314 0.956863 0.000000
1.000000 0.949020 0.000000
1.000000 0.933333 0.000000
0.000000 0.972549 0.000000
0.000000 0.972549 0.000000
0.003922 0.972549 0.000000
0.094118 0.972549 0.000000
0.176471 0.972549 0.000000
0.270588 0.972549 0.000000
0.352941 0.972549 0.000000
0.454902 0.972549 0.000000
0.529412 0.972549 0.000000
0.623529 0.972549 0.000000
0.705882 0.972549 0.000000
0.803922 0.972549 0.000000
0.878431 0.972549 0.000000
0.968627 0.972549 0.000000
1.000000 0.972549 0.000000
1.000000 0.972549 0.000000
0.000000 0.972549 0.000000
0.000000 0.972549 0.000000
0.000000 0.972549 0.000000
0.086275 0.972549 0.000000
0.168627 0.972549 0.000000
0.250980 0.972549 0.000000
0.349020 0.972549 0.000000
0.427451 0.972549 0.000000
0.521569 0.972549 0.000000
0.611765 0.972549 0.000000
0.698039 0.972549 0.000000
0.788235 0.972549 0.000000
0.874510 0.972549 0.000000
0.960784 0.972549 0.000000
1.000000 0.972549 0.000000
1.000000 0.972549 0.000000
0.000000 0.000000 0.066667
0.066667 0.000000 0.070588
0.156863 0.000000 0.054902
0.250980 0.000000 0.066667
0.360784 0.000000 0.066667
0.450980 0.000000 0.082353
0.556863 0.000000 0.078431
0.627451 0.000000 0.070588
0.705882 0.000000 0.039216
0.772549 0.000000 0.031373
0.854902 0.000000 0.011765
0.949020 0.000000 0.015686
1.000000 0.000000 0.000000
1.000000 0.000000 0.003922
1.000000 0.000000 0.000000
1.000000 0.000000 0.000000
0.000000 0.074510 0.070588
0.062745 0.074510 0.058824
0.141176 0.074510 0.043137
0.247059 0.058824 0.058824
0.341176 0.062745 0.058824
0.450980 0.047059 0.074510
0.533333 0.050980 0.062745
0.619608 0.027451 0.058824
0.686275 0.023529 0.031373
0.764706 0.000000 0.015686
0.847059 0.000000 0.000000
0.937255 0.000000 0.003922
1.000000 0.000000 0.000000
1.000000 0.000000 0.000000
1.000000 0.000000 0.000000
1.000000 0.027451 0.000000
0.000000 0.164706 0.058824
0.047059 0.152941 0.047059
0.137255 0.152941 0.050980
0.231373 0.145098 0.043137
0.329412 0.141176 0.039216
0.435294 0.133333 0.062745
0.529412 0.129412 0.054902
0.607843 0.113725 0.047059
0.686275 0.109804 0.023529
0.752941 0.086275 0.011765
0.835294 0.078431 0.000000
0.921569 0.070588 0.000000
1.000000 0.066667 0.000000
1.000000 0.066667 0.000000
1.000000 0.058824 0.000000
1.000000 0.074510 0.000000
0.007843 0.243137 0.054902
0.043137 0.243137 0.047059
0.141176 0.231373 0.047059
0.211765 0.227451 0.031373
0.325490 0.219608 0.047059
0.411765 0.215686 0.043137
0.525490 0.211765 0.058824
0.596078 0.203922 0.043137
0.678431 0.188235 0.023529
0.745098 0.176471 0.011765
0.831373 0.160784 0.000000
0.905882 0.152941 0.000000
1.000000 0.149020 0.000000
1.000000 0.141176 0.000000
1.000000 0.133333 0.000000
1.000000 0.137255 0.000000
0.019608 0.325490 0.054902
0.043137 0.317647 0.047059
0.141176 0.317647 0.050980
0.219608 0.309804 0.031373
0.309804 0.301961 0.031373
0.403922 0.298039 0.031373
0.509804 0.290196 0.047059
0.592157 0.286275 0.039216
0.666667 0.266667 0.023529
0.737255 0.254902 0.011765
0.815686 0.247059 0.000000
0.901961 0.235294 0.000000
0.988235 0.235294 0.000000
1.000000 0.227451 0.000000
1.000000 0.223529 0.000000
1.000000 0.211765 0.000000
0.035294 0.407843 0.062745
0.050980 0.400000 0.047059
0.129412 0.400000 0.047059
0.223529 0.392157 0.035294
0.305882 0.388235 0.035294
0.392157 0.376471 0.027451
0.490196 0.380392 0.039216
0.588235 0.364706 0.043137
0.650980 0.356863 0.027451
0.733333 0.333333 0.011765
0.800000 0.325490 0.000000
0.901961 0.321569 0.000000
0.976471 0.317647 0.000000
1.000000 0.305882 0.000000
1.000000 0.309804 0.000000
1.000000 0.294118 0.000000
0.043137 0.494118 0.054902
0.043137 0.482353 0.043137
0.133333 0.482353 0.047059
0.223529 0.470588 0.043137
0.309804 0.470588 0.043137
0.400000 0.462745 0.043137
0.482353 0.454902 0.043137
0.576471 0.450980 0.043137
0.647059 0.439216 0.027451
0.713725 0.423529 0.015686
0.796078 0.407843 0.000000
0.882353 0.403922 0.000000
0.968627 0.392157 0.000000
1.000000 0.396078 0.000000
1.000000 0.384314 0.000000
1.000000 0.384314 0.000000
0.035294 0.568627 0.039216
0.039216 0.564706 0.039216
0.121569 0.556863 0.039216
0.200000 0.556863 0.039216
0.298039 0.549020 0.039216
0.376471 0.545098 0.043137
0.478431 0.537255 0.043137
0.552941 0.533333 0.043137
0.647059 0.521569 0.031373
0.709804 0.513725 0.015686
0.788235 0.486275 0.000000
0.870588 0.490196 0.000000
0.964706 0.474510 0.000000
1.000000 0.474510 0.000000
1.000000 0.462745 0.000000
1.000000 0.462745 0.000000
0.023529 0.643137 0.023529
0.023529 0.639216 0.023529
0.094118 0.631373 0.023529
0.180392 0.623529 0.027451
0.274510 0.623529 0.027451
0.356863 0.619608 0.027451
0.447059 0.611765 0.027451
0.537255 0.611765 0.027451
0.623529 0.603922 0.031373
0.705882 0.596078 0.015686
0.772549 0.576471 0.003922
0.862745 0.568627 0.000000
0.945098 0.564706 0.000000
1.000000 0.556863 0.000000
1.000000 0.549020 0.000000
1.000000 0.545098 0.000000
0.007843 0.721569 0.007843
0.011765 0.709804 0.011765
0.066667 0.713725 0.011765
0.160784 0.698039 0.011765
0.239216 0.698039 0.011765
0.341176 0.694118 0.011765
0.419608 0.686275 0.015686
0.513725 0.678431 0.015686
0.596078 0.682353 0.015686
0.698039 0.670588 0.019608
0.760784 0.658824 0.007843
0.854902 0.650980 0.000000
0.929412 0.643137 0.000000
1.000000 0.639216 0.000000
1.000000 0.631373 0.000000
1.000000 0.631373 0.000000
0.000000 0.792157 0.000000
0.000000 0.784314 0.000000
0.047059 0.784314 0.000000
0.133333 0.772549 0.000000
0.223529 0.772549 0.000000
0.309804 0.760784 0.000000
0.400000 0.760784 0.000000
0.486275 0.756863 0.000000
0.576471 0.745098 0.003922
0.666667 0.749020 0.003922
0.752941 0.741176 0.003922
0.835294 0.733333 0.000000
0.925490 0.725490 0.000000
1.000000 0.721569 0.000000
1.000000 0.709804 0.000000
1.000000 0.713725 0.000000
0.000000 0.874510 0.000000
0.000000 0.870588 0.000000
0.043137 0.862745 0.000000
0.117647 0.858824 0.000000
0.215686 0.850980 0.000000
0.298039 0.854902 0.000000
0.392157 0.839216 0.000000
0.470588 0.839216 0.000000
0.568627 0.827451 0.000000
0.647059 0.827451 0.000000
0.745098 0.819608 0.000000
0.823529 0.819608 0.000000
0.917647 0.803922 0.000000
1.000000 0.807843 0.000000
1.000000 0.792157 0.000000
1.000000 0.792157 0.000000
0.000000 0.960784 0.000000
0.000000 0.952941 0.000000
0.027451 0.945098 0.000000
0.117647 0.945098 0.000000
0.203922 0.933333 0.000000
0.290196 0.929412 0.000000
0.380392 0.925490 0.000000
0.466667 0.921569 0.000000
0.545098 0.913725 0.000000
0.643137 0.909804 0.000000
0.725490 0.901961 0.000000
0.819608 0.901961 0.000000
0.901961 0.890196 0.000000
0.992157 0.886275 0.000000
1.000000 0.882353 0.000000
1.000000 0.874510 0.000000
0.000000 0.972549 0.000000
0.000000 0.972549 0.000000
0.007843 0.972549 0.000000
0.105882 0.972549 0.000000
0.188235 0.972549 0.000000
0.286275 0.972549 0.000000
0.360784 0.972549 0.000000
0.462745 0.972549 0.000000
0.537255 0.972549 0.000000
0.635294 0.972549 0.000000
0.713725 0.972549 0.000000
0.811765 0.972549 0.000000
0.886275 0.972549 0.000000
0.988235 0.968627 0.000000
1.000000 0.956863 0.000000
1.000000 0.952941 0.000000
0.000000 0.972549 0.000000
0.000000 0.972549 0.000000
0.000000 0.972549 0.000000
0.098039 0.972549 0.000000
0.176471 0.972549 0.000000
0.270588 0.972549 0.000000
0.352941 0.972549 0.000000
0.439216 0.972549 0.000000
0.533333 0.972549 0.000000
0.615686 0.972549 0.000000
0.705882 0.972549 0.000000
0.796078 0.972549 0.000000
0.882353 0.972549 0.000000
0.968627 0.972549 0.000000
1.000000 0.972549 0.000000
1.000000 0.972549 0.000000
0.000000 0.972549 0.000000
0.000000 0.972549 0.000000
0.000000 0.972549 0.000000
0.074510 0.972549 0.000000
0.172549 0.972549 0.000000
0.250980 0.972549 0.000000
0.345098 0.972549 0.000000
0.427451 0.972549 0.000000
0.521569 0.972549 0.000000
0.607843 0.972549 0.000000
0.698039 0.972549 0.000000
0.780392 0.972549 0.000000
0.878431 0.972549 0.000000
0.956863 0.972549 0.000000
1.000000 0.972549 0.000000
1.000000 0.972549 0.000000
0.000000 0.000000 0.168627
0.070588 0.000000 0.149020
0.160784 0.000000 0.156863
0.250980 0.000000 0.145098
0.345098 0.000000 0.168627
0.454902 0.000000 0.160784
0.545098 0.000000 0.180392
0.627451 0.000000 0.149020
0.694118 0.000000 0.145098
0.780392 0.000000 0.117647
0.850980 0.000000 0.113725
0.949020 0.000000 0.098039
1.000000 0.000000 0.105882
1.000000 0.000000 0.086275
1.000000 0.000000 0.090196
1.000000 0.000000 0.078431
0.000000 0.078431 0.156863
0.054902 0.070588 0.137255
0.145098 0.070588 0.149020
0.247059 0.058824 0.141176
0.345098 0.054902 0.160784
0.450980 0.050980 0.160784
0.537255 0.043137 0.168627
0.611765 0.027451 0.133333
0.686275 0.011765 0.129412
0.760784 0.000000 0.098039
0.847059 0.000000 0.105882
0.933333 0.000000 0.086275
1.000000 0.000000 0.090196
1.000000 0.000000 0.078431
1.000000 0.000000 0.082353
1.000000 0.019608 0.062745
0.000000 0.156863 0.145098
0.050980 0.149020 0.141176
0.149020 0.145098 0.145098
0.235294 0.149020 0.137255
0.352941 0.137255 0.164706
0.431373 0.133333 0.145098
0.521569 0.117647 0.145098
0.588235 0.109804 0.117647
0.666667 0.086275 0.101961
0.745098 0.090196 0.086275
0.839216 0.070588 0.090196
0.917647 0.074510 0.074510
1.000000 0.062745 0.082353
1.000000 0.062745 0.062745
1.000000 0.050980 0.070588
1.000000 0.074510 0.054902
0.007843 0.243137 0.141176
0.035294 0.231373 0.137255
0.149020 0.231373 0.149020
0.227451 0.223529 0.141176
0.337255 0.219608 0.149020
0.431373 0.219608 0.141176
0.509804 0.200000 0.133333
0.588235 0.196078 0.109804
0.658824 0.172549 0.098039
0.737255 0.164706 0.074510
0.823529 0.160784 0.082353
0.913725 0.156863 0.062745
0.996078 0.145098 0.066667
1.000000 0.145098 0.054902
1.000000 0.133333 0.054902
1.000000 0.133333 0.043137
0.019608 0.325490 0.145098
0.047059 0.313725 0.141176
0.137255 0.313725 0.145098
0.239216 0.309804 0.149020
0.309804 0.305882 0.129412
0.415686 0.290196 0.137255
0.498039 0.294118 0.129412
0.580392 0.270588 0.113725
0.647059 0.262745 0.094118
0.733333 0.247059 0.062745
0.807843 0.239216 0.066667
0.909804 0.239216 0.054902
0.984314 0.231373 0.054902
1.000000 0.223529 0.039216
1.000000 0.219608 0.047059
1.000000 0.211765 0.031373
0.035294 0.407843 0.145098
0.054902 0.403922 0.149020
0.141176 0.396078 0.141176
0.227451 0.384314 0.137255
0.317647 0.388235 0.133333
0.411765 0.380392 0.133333
0.490196 0.372549 0.117647
0.572549 0.360784 0.105882
0.639216 0.345098 0.082353
0.717647 0.325490 0.066667
0.803922 0.321569 0.054902
0.886275 0.321569 0.039216
0.980392 0.313725 0.047059
1.000000 0.309804 0.031373
1.000000 0.298039 0.031373
1.000000 0.301961 0.019608
0.043137 0.490196 0.141176
0.047059 0.478431 0.137255
0.129412 0.470588 0.125490
0.211765 0.474510 0.129412
0.309804 0.462745 0.117647
0.392157 0.466667 0.121569
0.486275 0.454902 0.109804
0.556863 0.447059 0.101961
0.639216 0.427451 0.074510
0.709804 0.419608 0.062745
0.792157 0.400000 0.043137
0.878431 0.403922 0.047059
0.972549 0.388235 0.031373
1.000000 0.396078 0.019608
1.000000 0.380392 0.023529
1.000000 0.380392 0.007843
0.039216 0.564706 0.125490
0.039216 0.564706 0.129412
0.105882 0.549020 0.101961
0.192157 0.545098 0.101961
0.286275 0.541176 0.098039
0.372549 0.537255 0.098039
0.466667 0.533333 0.090196
0.552941 0.529412 0.090196
0.627451 0.509804 0.066667
0.701961 0.498039 0.054902
0.776471 0.490196 0.031373
0.866667 0.482353 0.031373
0.952941 0.478431 0.023529
1.000000 0.470588 0.023529
1.000000 0.462745 0.007843
1.000000 0.462745 0.000000
0.023529 0.639216 0.098039
0.023529 0.635294 0.098039
0.078431 0.627451 0.082353
0.176471 0.615686 0.082353
0.254902 0.615686 0.070588
0.356863 0.611765 0.074510
0.431373 0.607843 0.062745
0.533333 0.600000 0.066667
0.611765 0.600000 0.054902
0.698039 0.580392 0.043137
0.764706 0.572549 0.023529
0.862745 0.564706 0.023529
0.937255 0.556863 0.007843
1.000000 0.552941 0.011765
1.000000 0.549020 0.000000
1.000000 0.537255 0.000000
0.007843 0.713725 0.070588
0.011765 0.713725 0.078431
0.058824 0.698039 0.054902
0.152941 0.694118 0.058824
0.239216 0.690196 0.050980
0.329412 0.682353 0.050980
0.415686 0.682353 0.039216
0.509804 0.678431 0.043137
0.596078 0.670588 0.035294
0.682353 0.670588 0.035294
0.760784 0.654902 0.011765
0.843137 0.647059 0.007843
0.933333 0.639216 0.000000
1.000000 0.635294 0.000000
1.000000 0.631373 0.000000
1.000000 0.627451 0.000000
0.000000 0.788235 0.058824
0.000000 0.788235 0.050980
0.047059 0.780392 0.043137
0.129412 0.776471 0.043137
0.219608 0.764706 0.027451
0.305882 0.768627 0.031373
0.400000 0.752941 0.019608
0.482353 0.756863 0.023529
0.576471 0.745098 0.007843
0.658824 0.741176 0.011765
0.756863 0.737255 0.003922
0.831373 0.733333 0.000000
0.925490 0.717647 0.000000
1.000000 0.721569 0.000000
1.000000 0.705882 0.000000
1.000000 0.709804 0.000000
0.000000 0.874510 0.050980
0.000000 0.870588 0.043137
0.035294 0.858824 0.035294
0.121569 0.858824 0.031373
0.211765 0.850980 0.019608
0.294118 0.847059 0.015686
0.388235 0.839216 0.007843
0.474510 0.835294 0.007843
0.556863 0.831373 0.000000
0.650980 0.823529 0.000000
0.729412 0.815686 0.000000
0.827451 0.811765 0.000000
0.909804 0.807843 0.000000
1.000000 0.800000 0.000000
1.000000 0.796078 0.000000
1.000000 0.788235 0.000000
0.000000 0.952941 0.035294
0.000000 0.952941 0.031373
0.015686 0.945098 0.027451
0.113725 0.937255 0.015686
0.192157 0.937255 0.015686
0.290196 0.925490 0.007843
0.364706 0.921569 0.000000
0.470588 0.917647 0.000000
0.545098 0.913725 0.000000
0.643137 0.901961 0.000000
0.721569 0.901961 0.000000
0.819608 0.890196 0.000000
0.898039 0.890196 0.000000
0.996078 0.882353 0.000000
1.000000 0.874510 0.000000
1.000000 0.874510 0.000000
0.000000 0.972549 0.027451
0.000000 0.972549 0.015686
0.007843 0.972549 0.011765
0.101961 0.972549 0.007843
0.184314 0.972549 0.003922
0.282353 0.972549 0.000000
0.360784 0.972549 0.000000
0.454902 0.972549 0.000000
0.537255 0.972549 0.000000
0.623529 0.972549 0.000000
0.709804 0.972549 0.000000
0.800000 0.972549 0.000000
0.890196 0.968627 0.000000
0.972549 0.964706 0.000000
1.000000 0.960784 0.000000
1.000000 0.952941 0.000000
0.000000 0.972549 0.011765
0.000000 0.972549 0.007843
0.003922 0.972549 0.003922
0.082353 0.972549 0.000000
0.180392 0.972549 0.000000
0.258824 0.972549 0.000000
0.356863 0.972549 0.000000
0.435294 0.972549 0.000000
0.529412 0.972549 0.000000
0.611765 0.972549 0.000000
0.705882 0.972549 0.000000
0.784314 0.972549 0.000000
0.890196 0.972549 0.000000
0.964706 0.972549 0.000000
1.000000 0.972549 0.000000
1.000000 0.972549 0.000000
0.000000 0.972549 0.003922
0.000000 0.972549 0.000000
0.000000 0.972549 0.000000
0.078431 0.972549 0.000000
0.164706 0.972549 0.000000
0.254902 0.972549 0.000000
0.341176 0.972549 0.000000
0.427451 0.972549 0.000000
0.513725 0.972549 0.000000
0.603922 0.972549 0.000000
0.694118 0.972549 0.000000
0.780392 0.972549 0.000000
0.862745 0.972549 0.000000
0.960784 0.972549 0.000000
1.000000 0.972549 0.000000
1.000000 0.972549 0.000000
0.007843 0.000000 0.254902
0.070588 0.000000 0.258824
0.156863 0.000000 0.243137
0.250980 0.000000 0.250980
0.345098 0.000000 0.243137
0.454902 0.000000 0.270588
0.545098 0.000000 0.258824
0.627451 0.000000 0.258824
0.698039 0.000000 0.223529
0.772549 0.000000 0.215686
0.854902 0.000000 0.196078
0.949020 0.000000 0.200000
1.000000 0.000000 0.180392
1.000000 0.000000 0.192157
1.000000 0.000000 0.168627
1.000000 0.000000 0.176471
0.003922 0.078431 0.243137
0.078431 0.070588 0.258824
0.152941 0.062745 0.235294
0.254902 0.058824 0.250980
0.349020 0.050980 0.243137
0.439216 0.050980 0.258824
0.541176 0.043137 0.247059
0.607843 0.031373 0.243137
0.686275 0.011765 0.203922
0.752941 0.000000 0.200000
0.847059 0.000000 0.180392
0.929412 0.000000 0.192157
1.000000 0.000000 0.168627
1.000000 0.000000 0.176471
1.000000 0.000000 0.160784
1.000000 0.007843 0.168627
0.003922 0.156863 0.243137
0.054902 0.156863 0.247059
0.156863 0.149020 0.239216
0.243137 0.141176 0.247059
0.349020 0.137255 0.243137
0.439216 0.133333 0.254902
0.513725 0.113725 0.219608
0.588235 0.105882 0.215686
0.662745 0.086275 0.184314
0.745098 0.078431 0.188235
0.835294 0.074510 0.168627
0.921569 0.066667 0.176471
1.000000 0.066667 0.160784
1.000000 0.058824 0.168627
1.000000 0.050980 0.145098
1.000000 0.066667 0.156863
0.003922 0.239216 0.235294
0.047059 0.235294 0.231373
0.145098 0.223529 0.239216
0.250980 0.223529 0.250980
0.329412 0.219608 0.231373
0.423529 0.207843 0.235294
0.486275 0.200000 0.203922
0.568627 0.176471 0.196078
0.643137 0.172549 0.168627
0.741176 0.160784 0.176471
0.815686 0.156863 0.156863
0.917647 0.149020 0.168627
0.992157 0.145098 0.145098
1.000000 0.133333 0.152941
1.000000 0.137255 0.137255
1.000000 0.125490 0.145098
0.019608 0.321569 0.235294
0.047059 0.317647 0.235294
0.141176 0.309804 0.239216
0.239216 0.305882 0.239216
0.325490 0.301961 0.239216
0.415686 0.290196 0.227451
0.482353 0.278431 0.192157
0.564706 0.262745 0.188235
0.631373 0.250980 0.156863
0.729412 0.247059 0.168627
0.811765 0.239216 0.145098
0.894118 0.235294 0.152941
0.988235 0.227451 0.137255
1.000000 0.223529 0.145098
1.000000 0.215686 0.121569
1.000000 0.211765 0.133333
0.031373 0.403922 0.235294
0.050980 0.396078 0.231373
0.145098 0.392157 0.239216
0.215686 0.388235 0.223529
0.313725 0.376471 0.219608
0.396078 0.380392 0.215686
0.478431 0.360784 0.200000
0.545098 0.352941 0.180392
0.627451 0.329412 0.160784
0.705882 0.329412 0.152941
0.803922 0.321569 0.137255
0.886275 0.317647 0.145098
0.976471 0.305882 0.121569
1.000000 0.309804 0.133333
1.000000 0.294118 0.113725
1.000000 0.294118 0.121569
0.043137 0.482353 0.235294
0.043137 0.486275 0.231373
0.125490 0.470588 0.219608
0.200000 0.462745 0.200000
0.290196 0.450980 0.200000
0.376471 0.450980 0.192157
0.470588 0.443137 0.192157
0.545098 0.435294 0.172549
0.615686 0.411765 0.152941
0.701961 0.411765 0.145098
0.792157 0.400000 0.137255
0.874510 0.396078 0.129412
0.960784 0.396078 0.113725
1.000000 0.384314 0.121569
