public/luts/portrait-doux.cube
# Studiio — look « portrait-doux », genere par scripts/lut/generer-luts.mjs
# Source : les coefficients de LOOKS_RENDUS, calcules par ffmpeg lui-meme.
# Aucune LUT tierce, aucun telechargement : provenance et licence du depot.
LUT_3D_SIZE 16
DOMAIN_MIN 0.0 0.0 0.0
DOMAIN_MAX 1.0 1.0 1.0
0.070588 0.047059 0.050980
0.133333 0.047059 0.047059
0.200000 0.043137 0.050980
0.250980 0.047059 0.043137
0.309804 0.043137 0.039216
0.368627 0.047059 0.035294
0.423529 0.043137 0.027451
0.490196 0.047059 0.027451
0.552941 0.039216 0.027451
0.615686 0.039216 0.019608
0.682353 0.043137 0.027451
0.745098 0.043137 0.023529
0.815686 0.039216 0.031373
0.882353 0.043137 0.031373
0.945098 0.035294 0.027451
1.000000 0.035294 0.023529
0.070588 0.109804 0.050980
0.129412 0.109804 0.050980
0.200000 0.105882 0.047059
0.258824 0.109804 0.043137
0.313725 0.109804 0.039216
0.368627 0.109804 0.031373
0.423529 0.105882 0.027451
0.486275 0.105882 0.019608
0.549020 0.105882 0.023529
0.619608 0.105882 0.023529
0.682353 0.105882 0.031373
0.749020 0.109804 0.031373
0.807843 0.105882 0.027451
0.874510 0.101961 0.023529
0.941176 0.105882 0.031373
1.000000 0.101961 0.023529
0.062745 0.176471 0.047059
0.133333 0.176471 0.054902
0.196078 0.176471 0.047059
0.258824 0.172549 0.047059
0.309804 0.172549 0.039216
0.364706 0.172549 0.035294
0.419608 0.172549 0.023529
0.490196 0.176471 0.023529
0.552941 0.172549 0.031373
0.619608 0.168627 0.027451
0.682353 0.168627 0.027451
0.749020 0.164706 0.023529
0.811765 0.172549 0.031373
0.878431 0.168627 0.023529
0.941176 0.168627 0.027451
1.000000 0.172549 0.027451
0.058824 0.243137 0.043137
0.125490 0.239216 0.047059
0.184314 0.235294 0.035294
0.254902 0.235294 0.043137
0.309804 0.235294 0.035294
0.372549 0.235294 0.035294
0.419608 0.239216 0.031373
0.486275 0.235294 0.035294
0.549020 0.235294 0.027451
0.611765 0.235294 0.023529
0.682353 0.231373 0.027451
0.749020 0.235294 0.023529
0.815686 0.231373 0.027451
0.870588 0.235294 0.023529
0.941176 0.231373 0.023529
1.000000 0.231373 0.019608
0.043137 0.301961 0.031373
0.105882 0.305882 0.039216
0.180392 0.301961 0.035294
0.239216 0.301961 0.035294
0.309804 0.301961 0.043137
0.364706 0.301961 0.039216
0.423529 0.294118 0.023529
0.482353 0.301961 0.031373
0.549020 0.298039 0.027451
0.615686 0.301961 0.031373
0.682353 0.298039 0.027451
0.745098 0.301961 0.023529
0.815686 0.294118 0.023529
0.870588 0.298039 0.019608
0.937255 0.294118 0.019608
1.000000 0.301961 0.019608
0.043137 0.368627 0.027451
0.098039 0.368627 0.027451
0.172549 0.368627 0.035294
0.231373 0.368627 0.039216
0.301961 0.360784 0.031373
0.364706 0.364706 0.035294
0.423529 0.360784 0.027451
0.486275 0.360784 0.027451
0.545098 0.368627 0.027451
0.615686 0.364706 0.031373
0.678431 0.364706 0.023529
0.745098 0.360784 0.027451
0.807843 0.360784 0.019608
0.878431 0.364706 0.019608
0.937255 0.368627 0.023529
1.000000 0.364706 0.015686
0.027451 0.431373 0.027451
0.098039 0.431373 0.035294
0.152941 0.431373 0.023529
0.223529 0.431373 0.031373
0.286275 0.431373 0.027451
0.352941 0.427451 0.027451
0.419608 0.435294 0.027451
0.490196 0.427451 0.031373
0.541176 0.427451 0.019608
0.611765 0.427451 0.027451
0.674510 0.431373 0.019608
0.745098 0.423529 0.023529
0.811765 0.431373 0.023529
0.878431 0.427451 0.027451
0.941176 0.427451 0.019608
0.996078 0.431373 0.015686
0.027451 0.494118 0.023529
0.094118 0.490196 0.027451
0.160784 0.498039 0.027451
0.223529 0.494118 0.027451
0.286275 0.494118 0.023529
0.356863 0.498039 0.031373
0.415686 0.494118 0.019608
0.482353 0.494118 0.027451
0.549020 0.494118 0.019608
0.607843 0.494118 0.023529
0.678431 0.498039 0.023529
0.741176 0.498039 0.027451
0.803922 0.490196 0.015686
0.870588 0.494118 0.023529
0.941176 0.490196 0.015686
1.000000 0.490196 0.019608
0.031373 0.564706 0.027451
0.090196 0.560784 0.027451
0.160784 0.560784 0.023529
0.219608 0.564706 0.031373
0.282353 0.560784 0.019608
0.345098 0.556863 0.023529
0.419608 0.560784 0.019608
0.482353 0.560784 0.023529
0.549020 0.556863 0.019608
0.615686 0.560784 0.027451
0.674510 0.556863 0.015686
0.741176 0.560784 0.023529
0.807843 0.556863 0.015686
0.870588 0.556863 0.019608
0.937255 0.560784 0.019608
1.000000 0.552941 0.015686
0.027451 0.623529 0.031373
0.094118 0.631373 0.031373
0.160784 0.623529 0.019608
0.219608 0.623529 0.023529
0.286275 0.627451 0.019608
0.349020 0.627451 0.023529
0.411765 0.627451 0.019608
0.486275 0.627451 0.027451
0.541176 0.623529 0.015686
0.611765 0.619608 0.019608
0.678431 0.623529 0.015686
0.741176 0.623529 0.019608
0.807843 0.627451 0.019608
0.870588 0.619608 0.015686
0.933333 0.619608 0.019608
1.000000 0.619608 0.027451
0.019608 0.690196 0.027451
0.090196 0.690196 0.023529
0.152941 0.686275 0.023529
0.223529 0.690196 0.023529
0.286275 0.690196 0.019608
0.352941 0.694118 0.027451
0.411765 0.690196 0.015686
0.478431 0.686275 0.019608
0.545098 0.690196 0.015686
0.615686 0.686275 0.019608
0.674510 0.686275 0.015686
0.745098 0.682353 0.015686
0.800000 0.686275 0.019608
0.870588 0.682353 0.019608
0.937255 0.686275 0.019608
0.996078 0.686275 0.023529
0.019608 0.756863 0.023529
0.094118 0.756863 0.023529
0.156863 0.756863 0.027451
0.223529 0.752941 0.019608
0.286275 0.752941 0.023529
0.352941 0.749020 0.019608
0.407843 0.752941 0.011765
0.474510 0.756863 0.019608
0.545098 0.752941 0.015686
0.607843 0.752941 0.015686
0.674510 0.749020 0.019608
0.737255 0.749020 0.019608
0.811765 0.749020 0.019608
0.866667 0.752941 0.023529
0.933333 0.749020 0.015686
0.996078 0.749020 0.019608
0.023529 0.823529 0.027451
0.086275 0.823529 0.019608
0.152941 0.819608 0.023529
0.215686 0.819608 0.019608
0.286275 0.815686 0.019608
0.352941 0.819608 0.019608
0.419608 0.815686 0.023529
0.474510 0.819608 0.015686
0.545098 0.815686 0.019608
0.603922 0.815686 0.019608
0.678431 0.815686 0.019608
0.741176 0.815686 0.023529
0.807843 0.811765 0.015686
0.866667 0.815686 0.019608
0.925490 0.815686 0.015686
0.996078 0.811765 0.015686
0.023529 0.878431 0.019608
0.086275 0.886275 0.019608
0.152941 0.882353 0.019608
0.219608 0.886275 0.019608
0.286275 0.882353 0.023529
0.349020 0.882353 0.015686
0.411765 0.882353 0.027451
0.482353 0.878431 0.019608
0.537255 0.882353 0.023529
0.607843 0.882353 0.023529
0.670588 0.882353 0.023529
0.733333 0.874510 0.015686
0.800000 0.878431 0.015686
0.870588 0.874510 0.015686
0.929412 0.882353 0.015686
1.000000 0.878431 0.019608
0.023529 0.949020 0.019608
0.090196 0.945098 0.015686
0.149020 0.952941 0.023529
0.219608 0.952941 0.015686
0.274510 0.945098 0.023529
0.349020 0.945098 0.019608
0.411765 0.945098 0.023529
0.482353 0.945098 0.023529
0.541176 0.949020 0.023529
0.603922 0.941176 0.015686
0.670588 0.945098 0.023529
0.737255 0.941176 0.015686
0.800000 0.941176 0.019608
0.866667 0.945098 0.019608
0.937255 0.945098 0.011765
0.988235 0.941176 0.011765
0.023529 1.000000 0.023529
0.094118 1.000000 0.015686
0.152941 1.000000 0.023529
0.219608 1.000000 0.019608
0.278431 1.000000 0.023529
0.341176 1.000000 0.019608
0.415686 1.000000 0.023529
0.470588 1.000000 0.015686
0.541176 1.000000 0.019608
0.600000 1.000000 0.015686
0.670588 1.000000 0.019608
0.737255 1.000000 0.019608
0.803922 1.000000 0.019608
0.862745 1.000000 0.011765
0.933333 1.000000 0.019608
0.996078 1.000000 0.011765
0.074510 0.047059 0.117647
0.133333 0.047059 0.121569
0.200000 0.039216 0.109804
0.258824 0.043137 0.113725
0.309804 0.043137 0.101961
0.360784 0.043137 0.098039
0.427451 0.043137 0.094118
0.490196 0.043137 0.094118
0.556863 0.039216 0.090196
0.619608 0.039216 0.094118
0.674510 0.043137 0.086275
0.749020 0.043137 0.094118
0.811765 0.043137 0.090196
0.878431 0.039216 0.090196
0.941176 0.039216 0.086275
1.000000 0.035294 0.094118
0.066667 0.105882 0.117647
0.133333 0.109804 0.117647
0.188235 0.109804 0.105882
0.247059 0.105882 0.105882
0.301961 0.113725 0.101961
0.356863 0.109804 0.094118
0.415686 0.105882 0.086275
0.490196 0.105882 0.094118
0.549020 0.105882 0.086275
0.623529 0.105882 0.094118
0.686275 0.109804 0.090196
0.749020 0.105882 0.090196
0.807843 0.105882 0.086275
0.878431 0.101961 0.094118
0.941176 0.101961 0.090196
1.000000 0.101961 0.098039
0.062745 0.176471 0.117647
0.125490 0.172549 0.109804
0.188235 0.176471 0.117647
0.250980 0.172549 0.105882
0.301961 0.168627 0.094118
0.356863 0.172549 0.094118
0.419608 0.172549 0.086275
0.486275 0.168627 0.090196
0.552941 0.176471 0.090196
0.615686 0.172549 0.090196
0.678431 0.168627 0.082353
0.745098 0.168627 0.094118
0.807843 0.168627 0.090196
0.874510 0.172549 0.098039
0.945098 0.168627 0.090196
1.000000 0.164706 0.090196
0.054902 0.239216 0.113725
0.109804 0.243137 0.105882
0.176471 0.235294 0.105882
0.239216 0.235294 0.098039
0.301961 0.235294 0.098039
0.356863 0.235294 0.090196
0.423529 0.239216 0.098039
0.486275 0.239216 0.090196
0.549020 0.235294 0.082353
0.615686 0.235294 0.094118
0.682353 0.231373 0.090196
0.745098 0.231373 0.094118
0.819608 0.235294 0.090196
0.870588 0.231373 0.090196
0.937255 0.227451 0.086275
1.000000 0.231373 0.090196
0.047059 0.301961 0.105882
0.098039 0.301961 0.090196
0.168627 0.301961 0.098039
0.231373 0.301961 0.094118
0.301961 0.298039 0.094118
0.360784 0.305882 0.090196
0.423529 0.298039 0.090196
0.482353 0.301961 0.094118
0.552941 0.298039 0.098039
0.615686 0.298039 0.094118
0.682353 0.305882 0.090196
0.745098 0.294118 0.090196
0.807843 0.298039 0.086275
0.878431 0.298039 0.090196
0.933333 0.301961 0.086275
1.000000 0.298039 0.090196
0.043137 0.368627 0.098039
0.094118 0.372549 0.090196
0.156863 0.368627 0.090196
0.227451 0.372549 0.090196
0.286275 0.364706 0.090196
0.352941 0.360784 0.090196
0.419608 0.364706 0.098039
0.490196 0.364706 0.094118
0.545098 0.364706 0.094118
0.611765 0.360784 0.090196
0.674510 0.360784 0.094118
0.749020 0.364706 0.090196
0.811765 0.364706 0.086275
0.878431 0.360784 0.090196
0.937255 0.368627 0.086275
1.000000 0.360784 0.086275
0.031373 0.435294 0.090196
0.098039 0.431373 0.086275
0.152941 0.431373 0.090196
0.223529 0.427451 0.090196
0.290196 0.431373 0.098039
0.356863 0.431373 0.094118
0.419608 0.427451 0.094118
0.486275 0.427451 0.090196
0.549020 0.423529 0.094118
0.603922 0.427451 0.086275
0.678431 0.431373 0.094118
0.741176 0.431373 0.090196
0.807843 0.427451 0.090196
0.870588 0.427451 0.086275
0.941176 0.423529 0.078431
1.000000 0.431373 0.086275
0.027451 0.498039 0.090196
0.090196 0.494118 0.090196
0.160784 0.490196 0.094118
0.219608 0.501961 0.094118
0.286275 0.494118 0.094118
0.349020 0.498039 0.090196
0.419608 0.494118 0.094118
0.482353 0.494118 0.086275
0.552941 0.494118 0.094118
0.607843 0.498039 0.090196
0.678431 0.494118 0.090196
0.741176 0.494118 0.086275
0.807843 0.490196 0.086275
0.870588 0.490196 0.082353
0.941176 0.490196 0.090196
1.000000 0.490196 0.082353
0.027451 0.556863 0.094118
0.094118 0.564706 0.094118
0.164706 0.560784 0.094118
0.223529 0.560784 0.090196
0.286275 0.560784 0.094118
0.349020 0.560784 0.086275
0.415686 0.556863 0.090196
0.482353 0.560784 0.090196
0.545098 0.560784 0.090196
0.615686 0.556863 0.086275
0.670588 0.560784 0.086275
0.737255 0.556863 0.082353
0.803922 0.560784 0.090196
0.874510 0.556863 0.082353
0.937255 0.556863 0.086275
1.000000 0.552941 0.082353
0.023529 0.631373 0.094118
0.094118 0.627451 0.090196
0.156863 0.627451 0.094118
0.223529 0.623529 0.086275
0.278431 0.627451 0.090196
0.352941 0.627451 0.090196
0.415686 0.627451 0.090196
0.478431 0.619608 0.082353
0.545098 0.623529 0.086275
0.611765 0.619608 0.082353
0.674510 0.619608 0.086275
0.741176 0.623529 0.082353
0.803922 0.623529 0.086275
0.874510 0.619608 0.082353
0.933333 0.619608 0.082353
0.996078 0.619608 0.078431
0.019608 0.690196 0.086275
0.094118 0.690196 0.094118
0.152941 0.690196 0.090196
0.223529 0.686275 0.082353
0.290196 0.690196 0.090196
0.345098 0.686275 0.082353
0.411765 0.690196 0.086275
0.474510 0.690196 0.082353
0.545098 0.686275 0.086275
0.611765 0.690196 0.082353
0.678431 0.686275 0.086275
0.737255 0.682353 0.074510
0.803922 0.686275 0.082353
0.866667 0.686275 0.078431
0.933333 0.682353 0.082353
1.000000 0.686275 0.086275
0.023529 0.756863 0.090196
0.086275 0.756863 0.090196
0.156863 0.756863 0.090196
0.215686 0.752941 0.090196
0.282353 0.749020 0.082353
0.349020 0.752941 0.082353
0.411765 0.752941 0.086275
0.474510 0.752941 0.078431
0.549020 0.752941 0.086275
0.603922 0.749020 0.074510
0.678431 0.749020 0.082353
0.741176 0.752941 0.078431
0.807843 0.749020 0.082353
0.870588 0.752941 0.086275
0.937255 0.749020 0.090196
0.996078 0.745098 0.078431
0.027451 0.823529 0.090196
0.082353 0.819608 0.090196
0.152941 0.815686 0.082353
0.219608 0.819608 0.090196
0.286275 0.815686 0.086275
0.349020 0.815686 0.086275
0.423529 0.819608 0.086275
0.474510 0.815686 0.074510
0.537255 0.815686 0.078431
0.607843 0.819608 0.078431
0.670588 0.815686 0.082353
0.745098 0.819608 0.086275
0.803922 0.815686 0.090196
0.870588 0.807843 0.078431
0.929412 0.815686 0.086275
1.000000 0.815686 0.082353
0.019608 0.882353 0.082353
0.082353 0.882353 0.086275
0.149020 0.886275 0.086275
0.219608 0.882353 0.086275
0.286275 0.890196 0.086275
0.349020 0.878431 0.086275
0.411765 0.878431 0.078431
0.482353 0.882353 0.086275
0.541176 0.886275 0.082353
0.607843 0.878431 0.082353
0.674510 0.882353 0.090196
0.737255 0.878431 0.078431
0.800000 0.874510 0.082353
0.874510 0.878431 0.082353
0.929412 0.878431 0.082353
0.996078 0.886275 0.082353
0.023529 0.952941 0.086275
0.094118 0.945098 0.086275
0.149020 0.949020 0.082353
0.215686 0.945098 0.086275
0.278431 0.949020 0.078431
0.349020 0.941176 0.082353
0.415686 0.949020 0.082353
0.474510 0.945098 0.090196
0.549020 0.949020 0.090196
0.600000 0.945098 0.086275
0.670588 0.941176 0.082353
0.737255 0.945098 0.090196
0.803922 0.945098 0.082353
0.866667 0.945098 0.078431
0.937255 0.945098 0.086275
0.988235 0.945098 0.074510
0.023529 1.000000 0.082353
0.086275 1.000000 0.086275
0.152941 1.000000 0.078431
0.207843 1.000000 0.082353
0.282353 1.000000 0.082353
0.345098 1.000000 0.090196
0.411765 1.000000 0.086275
0.474510 1.000000 0.086275
0.545098 1.000000 0.082353
0.603922 1.000000 0.090196
0.670588 1.000000 0.082353
0.733333 1.000000 0.086275
0.807843 1.000000 0.086275
0.866667 1.000000 0.082353
0.925490 1.000000 0.078431
1.000000 1.000000 0.078431
0.070588 0.043137 0.184314
0.137255 0.047059 0.184314
0.200000 0.039216 0.180392
0.254902 0.039216 0.172549
0.305882 0.047059 0.176471
0.364706 0.043137 0.160784
0.423529 0.047059 0.164706
0.486275 0.039216 0.156863
0.549020 0.039216 0.156863
0.623529 0.043137 0.156863
0.678431 0.043137 0.160784
0.745098 0.039216 0.152941
0.811765 0.043137 0.160784
0.878431 0.039216 0.152941
0.941176 0.035294 0.152941
1.000000 0.039216 0.152941
0.062745 0.109804 0.180392
0.125490 0.105882 0.172549
0.192157 0.109804 0.180392
0.247059 0.105882 0.168627
0.301961 0.105882 0.164706
0.356863 0.105882 0.156863
0.419608 0.105882 0.156863
0.486275 0.101961 0.152941
0.552941 0.105882 0.160784
0.623529 0.105882 0.152941
0.690196 0.109804 0.160784
0.741176 0.105882 0.152941
0.807843 0.101961 0.152941
0.874510 0.109804 0.152941
0.941176 0.105882 0.156863
1.000000 0.105882 0.149020
0.062745 0.172549 0.180392
0.129412 0.172549 0.180392
0.176471 0.172549 0.172549
0.235294 0.172549 0.164706
0.294118 0.168627 0.156863
0.349020 0.172549 0.152941
0.423529 0.172549 0.160784
0.482353 0.176471 0.152941
0.552941 0.172549 0.156863
0.615686 0.172549 0.152941
0.682353 0.168627 0.152941
0.745098 0.168627 0.149020
0.811765 0.172549 0.156863
0.874510 0.172549 0.149020
0.945098 0.168627 0.164706
1.000000 0.164706 0.152941
0.058824 0.239216 0.176471
0.109804 0.239216 0.176471
0.168627 0.235294 0.160784
0.231373 0.235294 0.164706
0.298039 0.239216 0.160784
0.356863 0.239216 0.152941
0.419608 0.239216 0.156863
0.482353 0.239216 0.152941
0.552941 0.235294 0.152941
0.611765 0.235294 0.149020
0.678431 0.239216 0.156863
0.749020 0.235294 0.149020
0.811765 0.231373 0.160784
0.870588 0.235294 0.152941
0.933333 0.231373 0.156863
1.000000 0.235294 0.156863
0.047059 0.305882 0.168627
0.101961 0.301961 0.164706
0.152941 0.301961 0.156863
0.227451 0.305882 0.160784
0.290196 0.305882 0.156863
0.352941 0.294118 0.152941
0.419608 0.301961 0.152941
0.482353 0.298039 0.156863
0.549020 0.305882 0.156863
0.615686 0.301961 0.149020
0.678431 0.298039 0.160784
0.749020 0.298039 0.152941
0.807843 0.298039 0.156863
0.878431 0.294118 0.152941
0.937255 0.301961 0.156863
1.000000 0.298039 0.152941
0.035294 0.368627 0.160784
0.094118 0.372549 0.160784
0.156863 0.372549 0.156863
0.223529 0.360784 0.152941
0.290196 0.368627 0.152941
0.356863 0.364706 0.156863
0.419608 0.364706 0.149020
0.490196 0.364706 0.156863
0.549020 0.368627 0.160784
0.611765 0.356863 0.156863
0.678431 0.364706 0.156863
0.741176 0.364706 0.152941
0.811765 0.364706 0.156863
0.874510 0.364706 0.152941
0.945098 0.360784 0.156863
1.000000 0.364706 0.149020
0.031373 0.435294 0.156863
0.098039 0.427451 0.152941
0.152941 0.431373 0.149020
0.219608 0.435294 0.156863
0.286275 0.431373 0.149020
0.352941 0.435294 0.156863
0.423529 0.431373 0.160784
0.478431 0.423529 0.156863
0.552941 0.427451 0.156863
0.607843 0.427451 0.160784
0.678431 0.427451 0.152941
0.745098 0.431373 0.160784
0.811765 0.427451 0.156863
0.874510 0.427451 0.149020
0.941176 0.423529 0.152941
1.000000 0.427451 0.145098
0.027451 0.494118 0.149020
0.094118 0.498039 0.156863
0.160784 0.494118 0.149020
0.219608 0.498039 0.152941
0.290196 0.498039 0.160784
0.349020 0.490196 0.156863
0.419608 0.494118 0.156863
0.482353 0.494118 0.160784
0.552941 0.490196 0.152941
0.619608 0.494118 0.160784
0.674510 0.498039 0.156863
0.737255 0.490196 0.152941
0.803922 0.494118 0.152941
0.874510 0.490196 0.152941
0.933333 0.490196 0.149020
1.000000 0.494118 0.149020
0.031373 0.560784 0.149020
0.094118 0.560784 0.152941
0.160784 0.564706 0.160784
0.223529 0.556863 0.156863
0.278431 0.560784 0.152941
0.352941 0.560784 0.160784
0.415686 0.560784 0.152941
0.482353 0.556863 0.156863
0.549020 0.560784 0.156863
0.611765 0.552941 0.152941
0.674510 0.560784 0.152941
0.741176 0.556863 0.152941
0.803922 0.556863 0.149020
0.878431 0.556863 0.156863
0.937255 0.556863 0.149020
1.000000 0.549020 0.149020
0.023529 0.627451 0.156863
0.090196 0.623529 0.156863
0.152941 0.623529 0.152941
0.227451 0.623529 0.160784
0.290196 0.623529 0.152941
0.349020 0.623529 0.156863
0.415686 0.627451 0.156863
0.482353 0.619608 0.152941
0.545098 0.619608 0.149020
0.611765 0.623529 0.152941
0.678431 0.619608 0.149020
0.733333 0.623529 0.152941
0.807843 0.623529 0.149020
0.862745 0.619608 0.149020
0.937255 0.623529 0.149020
1.000000 0.619608 0.149020
0.023529 0.690196 0.160784
0.086275 0.690196 0.152941
0.156863 0.690196 0.152941
0.219608 0.690196 0.156863
0.286275 0.686275 0.149020
0.345098 0.690196 0.152941
0.411765 0.686275 0.149020
0.478431 0.690196 0.152941
0.545098 0.686275 0.149020
0.607843 0.686275 0.152941
0.682353 0.690196 0.149020
0.741176 0.682353 0.149020
0.800000 0.682353 0.145098
0.866667 0.686275 0.149020
0.937255 0.686275 0.145098
1.000000 0.690196 0.152941
0.027451 0.756863 0.160784
0.086275 0.756863 0.156863
0.156863 0.752941 0.156863
0.219608 0.752941 0.152941
0.286275 0.749020 0.149020
0.349020 0.749020 0.149020
0.415686 0.756863 0.149020
0.478431 0.752941 0.152941
0.545098 0.760784 0.149020
0.607843 0.749020 0.149020
0.670588 0.752941 0.145098
0.741176 0.752941 0.149020
0.803922 0.752941 0.145098
0.866667 0.752941 0.149020
0.929412 0.752941 0.141176
0.996078 0.749020 0.145098
0.023529 0.819608 0.156863
0.086275 0.819608 0.152941
0.149020 0.819608 0.156863
0.215686 0.815686 0.149020
0.282353 0.819608 0.156863
0.352941 0.819608 0.152941
0.415686 0.819608 0.145098
0.478431 0.815686 0.149020
0.537255 0.819608 0.145098
0.607843 0.815686 0.145098
0.674510 0.819608 0.145098
0.741176 0.815686 0.149020
0.803922 0.815686 0.141176
0.870588 0.811765 0.145098
0.929412 0.811765 0.145098
0.996078 0.815686 0.152941
0.023529 0.882353 0.156863
0.086275 0.882353 0.149020
0.149020 0.882353 0.152941
0.219608 0.886275 0.152941
0.282353 0.882353 0.152941
0.352941 0.882353 0.149020
0.411765 0.878431 0.152941
0.482353 0.878431 0.145098
0.541176 0.886275 0.145098
0.603922 0.886275 0.149020
0.674510 0.882353 0.141176
0.733333 0.882353 0.145098
0.803922 0.878431 0.145098
0.866667 0.874510 0.149020
0.937255 0.878431 0.149020
0.992157 0.878431 0.149020
0.023529 0.945098 0.152941
0.090196 0.952941 0.152941
0.152941 0.949020 0.152941
0.207843 0.945098 0.145098
0.282353 0.949020 0.152941
0.345098 0.949020 0.145098
0.415686 0.949020 0.152941
0.478431 0.949020 0.149020
0.549020 0.945098 0.149020
0.603922 0.949020 0.145098
0.670588 0.945098 0.145098
0.733333 0.941176 0.149020
0.807843 0.945098 0.149020
0.870588 0.945098 0.149020
0.933333 0.937255 0.141176
0.992157 0.945098 0.149020
0.027451 1.000000 0.152941
0.082353 1.000000 0.145098
0.156863 1.000000 0.152941
0.211765 1.000000 0.145098
0.282353 1.000000 0.149020
0.349020 1.000000 0.149020
0.415686 1.000000 0.149020
0.474510 1.000000 0.141176
0.541176 1.000000 0.152941
0.607843 1.000000 0.149020
0.670588 1.000000 0.156863
0.737255 1.000000 0.149020
0.796078 1.000000 0.149020
0.866667 1.000000 0.149020
0.929412 1.000000 0.141176
0.996078 1.000000 0.145098
0.058824 0.050980 0.239216
0.125490 0.039216 0.243137
0.192157 0.043137 0.243137
0.258824 0.039216 0.247059
0.305882 0.043137 0.235294
0.368627 0.043137 0.235294
0.423529 0.043137 0.227451
0.490196 0.039216 0.227451
0.552941 0.039216 0.223529
0.619608 0.035294 0.223529
0.686275 0.043137 0.223529
0.749020 0.039216 0.227451
0.811765 0.043137 0.219608
0.874510 0.039216 0.223529
0.941176 0.039216 0.219608
1.000000 0.035294 0.219608
0.058824 0.109804 0.243137
0.117647 0.105882 0.243137
0.180392 0.105882 0.235294
0.250980 0.105882 0.243137
0.305882 0.109804 0.231373
0.349020 0.105882 0.223529
0.419608 0.109804 0.223529
0.482353 0.105882 0.223529
0.552941 0.105882 0.219608
0.619608 0.109804 0.227451
0.686275 0.105882 0.219608
0.741176 0.105882 0.223529
0.811765 0.105882 0.219608
0.874510 0.101961 0.219608
0.945098 0.105882 0.219608
1.000000 0.105882 0.223529
0.058824 0.172549 0.247059
0.117647 0.176471 0.243137
0.172549 0.176471 0.231373
0.231373 0.168627 0.227451
0.294118 0.172549 0.223529
0.356863 0.172549 0.223529
0.419608 0.172549 0.219608
0.486275 0.176471 0.227451
0.556863 0.172549 0.219608
0.611765 0.164706 0.219608
0.686275 0.168627 0.219608
0.749020 0.168627 0.219608
0.807843 0.176471 0.219608
0.874510 0.172549 0.223529
0.937255 0.172549 0.215686
1.000000 0.168627 0.219608
0.062745 0.239216 0.250980
0.109804 0.235294 0.235294
0.168627 0.231373 0.231373
0.227451 0.239216 0.223529
0.290196 0.239216 0.219608
0.360784 0.239216 0.227451
0.415686 0.243137 0.219608
0.482353 0.235294 0.219608
0.549020 0.239216 0.219608
0.615686 0.235294 0.219608
0.678431 0.235294 0.215686
0.752941 0.235294 0.223529
0.811765 0.235294 0.215686
0.870588 0.231373 0.215686
0.937255 0.235294 0.211765
1.000000 0.231373 0.223529
0.047059 0.298039 0.239216
0.101961 0.305882 0.227451
0.156863 0.301961 0.227451
0.227451 0.301961 0.223529
0.294118 0.305882 0.227451
0.356863 0.298039 0.219608
0.419608 0.298039 0.211765
0.486275 0.301961 0.219608
0.545098 0.301961 0.215686
0.619608 0.301961 0.223529
0.682353 0.301961 0.215686
0.741176 0.298039 0.215686
0.811765 0.298039 0.211765
0.874510 0.298039 0.223529
0.937255 0.298039 0.219608
1.000000 0.301961 0.223529
0.039216 0.368627 0.231373
0.094118 0.368627 0.223529
0.160784 0.372549 0.227451
0.219608 0.368627 0.219608
0.286275 0.364706 0.219608
0.352941 0.368627 0.219608
0.423529 0.364706 0.223529
0.482353 0.364706 0.215686
0.549020 0.368627 0.223529
0.607843 0.364706 0.215686
0.682353 0.364706 0.211765
0.741176 0.364706 0.223529
0.811765 0.360784 0.219608
0.878431 0.364706 0.223529
0.941176 0.356863 0.215686
0.996078 0.360784 0.219608
0.031373 0.431373 0.223529
0.094118 0.431373 0.219608
0.156863 0.431373 0.219608
0.223529 0.435294 0.219608
0.290196 0.431373 0.223529
0.352941 0.431373 0.215686
0.423529 0.431373 0.223529
0.482353 0.427451 0.215686
0.552941 0.423529 0.215686
0.611765 0.431373 0.223529
0.678431 0.427451 0.227451
0.741176 0.427451 0.219608
0.803922 0.427451 0.215686
0.870588 0.423529 0.219608
