public/luts/portrait-doux.cube
# Studiio — look « portrait-doux », genere par scripts/lut/generer-luts.mjs
# Source : les coefficients de LOOKS_RENDUS, calcules par ffmpeg lui-meme.
# Aucune LUT tierce, aucun telechargement : provenance et licence du depot.
LUT_3D_SIZE 6
DOMAIN_MIN 0.0 0.0 0.0
DOMAIN_MAX 1.0 1.0 1.0
0.070588 0.047059 0.050980
0.250980 0.047059 0.043137
0.423529 0.043137 0.027451
0.615686 0.039216 0.019608
0.815686 0.039216 0.031373
1.000000 0.035294 0.023529
0.058824 0.243137 0.043137
0.254902 0.235294 0.043137
0.419608 0.239216 0.031373
0.611765 0.235294 0.023529
0.815686 0.231373 0.027451
1.000000 0.231373 0.019608
0.027451 0.431373 0.027451
0.223529 0.431373 0.031373
0.419608 0.435294 0.027451
0.611765 0.427451 0.027451
0.811765 0.431373 0.023529
0.996078 0.431373 0.015686
0.027451 0.623529 0.031373
0.219608 0.623529 0.023529
0.411765 0.627451 0.019608
0.611765 0.619608 0.019608
0.807843 0.627451 0.019608
1.000000 0.619608 0.027451
0.023529 0.823529 0.027451
0.215686 0.819608 0.019608
0.419608 0.815686 0.023529
0.603922 0.815686 0.019608
0.807843 0.811765 0.015686
0.996078 0.811765 0.015686
0.023529 1.000000 0.023529
0.219608 1.000000 0.019608
0.415686 1.000000 0.023529
0.600000 1.000000 0.015686
0.803922 1.000000 0.019608
0.996078 1.000000 0.011765
0.058824 0.050980 0.239216
0.258824 0.039216 0.247059
0.423529 0.043137 0.227451
0.619608 0.035294 0.223529
0.811765 0.043137 0.219608
1.000000 0.035294 0.219608
0.062745 0.239216 0.250980
0.227451 0.239216 0.223529
0.415686 0.243137 0.219608
0.615686 0.235294 0.219608
0.811765 0.235294 0.215686
1.000000 0.231373 0.223529
0.031373 0.431373 0.223529
0.223529 0.435294 0.219608
0.423529 0.431373 0.223529
0.611765 0.431373 0.223529
0.803922 0.427451 0.215686
1.000000 0.423529 0.219608
0.027451 0.627451 0.219608
0.219608 0.623529 0.219608
0.415686 0.623529 0.223529
0.607843 0.619608 0.215686
0.803922 0.619608 0.219608
1.000000 0.623529 0.215686
0.027451 0.819608 0.223529
0.219608 0.815686 0.223529
0.411765 0.815686 0.215686
0.603922 0.819608 0.211765
0.803922 0.811765 0.207843
0.992157 0.815686 0.203922
0.023529 1.000000 0.215686
0.215686 1.000000 0.219608
0.407843 1.000000 0.207843
0.611765 1.000000 0.215686
0.796078 1.000000 0.211765
1.000000 1.000000 0.207843
0.031373 0.043137 0.423529
0.227451 0.043137 0.419608
0.423529 0.039216 0.419608
0.619608 0.039216 0.415686
0.803922 0.035294 0.419608
1.000000 0.035294 0.415686
0.027451 0.239216 0.419608
0.223529 0.239216 0.415686
0.423529 0.231373 0.419608
0.615686 0.235294 0.415686
0.811765 0.227451 0.415686
1.000000 0.231373 0.411765
0.023529 0.427451 0.415686
0.227451 0.431373 0.423529
0.419608 0.427451 0.415686
0.607843 0.435294 0.411765
0.807843 0.427451 0.411765
1.000000 0.427451 0.407843
0.019608 0.627451 0.411765
0.223529 0.623529 0.415686
0.407843 0.623529 0.407843
0.611765 0.619608 0.411765
0.803922 0.623529 0.415686
1.000000 0.623529 0.411765
0.027451 0.815686 0.407843
0.219608 0.819608 0.411765
0.411765 0.815686 0.411765
0.607843 0.815686 0.415686
0.800000 0.811765 0.407843
0.996078 0.811765 0.411765
0.023529 1.000000 0.419608
0.219608 1.000000 0.415686
0.411765 1.000000 0.415686
0.607843 1.000000 0.411765
0.796078 1.000000 0.403922
1.000000 1.000000 0.407843
0.031373 0.043137 0.619608
0.231373 0.039216 0.623529
0.419608 0.039216 0.615686
0.615686 0.043137 0.611765
0.807843 0.039216 0.611765
1.000000 0.039216 0.607843
0.031373 0.239216 0.615686
0.227451 0.239216 0.619608
0.419608 0.235294 0.611765
0.619608 0.235294 0.615686
0.811765 0.231373 0.603922
1.000000 0.235294 0.615686
0.027451 0.427451 0.611765
0.223529 0.435294 0.615686
0.415686 0.431373 0.603922
0.619608 0.427451 0.615686
0.803922 0.427451 0.607843
1.000000 0.423529 0.611765
0.023529 0.623529 0.607843
0.219608 0.623529 0.611765
0.411765 0.619608 0.611765
0.611765 0.619608 0.607843
0.796078 0.619608 0.600000
1.000000 0.623529 0.607843
0.023529 0.815686 0.611765
0.215686 0.823529 0.607843
0.415686 0.815686 0.607843
0.603922 0.819608 0.603922
0.803922 0.811765 0.603922
0.996078 0.815686 0.607843
0.019608 1.000000 0.607843
0.223529 1.000000 0.603922
0.411765 1.000000 0.603922
0.607843 1.000000 0.607843
0.800000 1.000000 0.607843
0.992157 1.000000 0.600000
0.027451 0.047059 0.815686
0.231373 0.043137 0.811765
0.415686 0.043137 0.803922
0.615686 0.035294 0.811765
0.807843 0.039216 0.807843
1.000000 0.035294 0.807843
0.035294 0.235294 0.811765
0.223529 0.235294 0.811765
0.423529 0.231373 0.815686
0.611765 0.231373 0.807843
0.807843 0.235294 0.803922
1.000000 0.227451 0.803922
0.027451 0.427451 0.811765
0.219608 0.423529 0.800000
0.419608 0.431373 0.811765
0.611765 0.427451 0.803922
0.811765 0.427451 0.807843
1.000000 0.423529 0.796078
0.019608 0.627451 0.807843
0.219608 0.619608 0.803922
0.411765 0.623529 0.800000
0.603922 0.619608 0.792157
0.807843 0.615686 0.803922
0.996078 0.619608 0.800000
0.023529 0.819608 0.800000
0.215686 0.815686 0.800000
0.411765 0.815686 0.803922
0.603922 0.811765 0.803922
0.803922 0.811765 0.800000
0.988235 0.811765 0.792157
0.023529 1.000000 0.803922
0.215686 1.000000 0.803922
0.407843 1.000000 0.800000
0.607843 1.000000 0.800000
0.796078 1.000000 0.796078
0.996078 1.000000 0.796078
0.031373 0.043137 1.000000
0.223529 0.039216 1.000000
0.419608 0.039216 1.000000
0.615686 0.039216 1.000000
0.811765 0.039216 1.000000
1.000000 0.035294 0.996078
0.031373 0.239216 1.000000
0.219608 0.235294 1.000000
0.423529 0.235294 1.000000
0.607843 0.235294 0.996078
0.811765 0.231373 1.000000
1.000000 0.231373 1.000000
0.023529 0.431373 1.000000
0.223529 0.423529 1.000000
0.419608 0.431373 1.000000
0.615686 0.423529 1.000000
0.807843 0.427451 1.000000
1.000000 0.423529 0.996078
0.023529 0.623529 1.000000
0.219608 0.619608 1.000000
0.415686 0.623529 1.000000
0.607843 0.615686 0.996078
0.803922 0.619608 0.992157
1.000000 0.619608 0.996078
0.027451 0.819608 1.000000
0.211765 0.819608 0.996078
0.415686 0.815686 1.000000
0.603922 0.815686 0.992157
0.800000 0.815686 0.988235
1.000000 0.807843 0.996078
0.023529 1.000000 1.000000
0.215686 1.000000 0.992157
0.411765 1.000000 0.996078
0.603922 1.000000 0.996078
0.800000 1.000000 1.000000
0.992157 1.000000 0.992157
