public/luts/puissance.cube
# Studiio — look « puissance », genere par scripts/lut/generer-luts.mjs
# Source : les coefficients de LOOKS_RENDUS, calcules par ffmpeg lui-meme.
# Aucune LUT tierce, aucun telechargement : provenance et licence du depot.
LUT_3D_SIZE 16
DOMAIN_MIN 0.0 0.0 0.0
DOMAIN_MAX 1.0 1.0 1.0
0.000000 0.000000 0.000000
0.000000 0.000000 0.000000
0.000000 0.000000 0.000000
0.043137 0.000000 0.000000
0.098039 0.000000 0.000000
0.149020 0.000000 0.000000
0.231373 0.000000 0.000000
0.317647 0.000000 0.000000
0.415686 0.000000 0.000000
0.490196 0.000000 0.000000
0.588235 0.000000 0.000000
0.674510 0.000000 0.000000
0.768627 0.000000 0.000000
0.854902 0.000000 0.000000
0.933333 0.000000 0.000000
1.000000 0.000000 0.000000
0.000000 0.000000 0.000000
0.000000 0.000000 0.000000
0.000000 0.000000 0.000000
0.007843 0.000000 0.000000
0.086275 0.000000 0.000000
0.156863 0.000000 0.000000
0.254902 0.000000 0.000000
0.329412 0.000000 0.000000
0.415686 0.000000 0.000000
0.505882 0.000000 0.000000
0.588235 0.000000 0.000000
0.686275 0.000000 0.000000
0.776471 0.000000 0.000000
0.866667 0.000000 0.000000
0.945098 0.000000 0.000000
1.000000 0.000000 0.000000
0.000000 0.000000 0.000000
0.000000 0.000000 0.000000
0.000000 0.000000 0.000000
0.007843 0.000000 0.000000
0.090196 0.000000 0.000000
0.168627 0.000000 0.000000
0.254902 0.000000 0.000000
0.349020 0.000000 0.000000
0.423529 0.000000 0.000000
0.509804 0.000000 0.000000
0.596078 0.007843 0.000000
0.698039 0.015686 0.000000
0.788235 0.019608 0.000000
0.878431 0.023529 0.000000
0.952941 0.023529 0.000000
1.000000 0.035294 0.000000
0.000000 0.047059 0.000000
0.000000 0.043137 0.000000
0.000000 0.050980 0.000000
0.019608 0.058824 0.000000
0.098039 0.062745 0.000000
0.184314 0.070588 0.000000
0.266667 0.074510 0.000000
0.352941 0.070588 0.000000
0.447059 0.082353 0.000000
0.521569 0.090196 0.000000
0.615686 0.086275 0.000000
0.701961 0.101961 0.000000
0.792157 0.101961 0.000000
0.878431 0.105882 0.000000
0.964706 0.113725 0.000000
1.000000 0.117647 0.000000
0.000000 0.125490 0.000000
0.000000 0.133333 0.000000
0.000000 0.137255 0.000000
0.019608 0.141176 0.000000
0.105882 0.149020 0.000000
0.180392 0.152941 0.000000
0.270588 0.152941 0.000000
0.364706 0.164706 0.000000
0.450980 0.164706 0.000000
0.533333 0.172549 0.000000
0.623529 0.172549 0.000000
0.713725 0.180392 0.000000
0.819608 0.188235 0.000000
0.890196 0.192157 0.000000
0.968627 0.192157 0.000000
1.000000 0.200000 0.000000
0.000000 0.215686 0.000000
0.000000 0.215686 0.000000
0.000000 0.223529 0.000000
0.035294 0.223529 0.000000
0.121569 0.227451 0.000000
0.203922 0.239216 0.000000
0.294118 0.239216 0.000000
0.372549 0.247059 0.000000
0.458824 0.254902 0.000000
0.541176 0.254902 0.000000
0.635294 0.266667 0.000000
0.729412 0.262745 0.000000
0.815686 0.266667 0.000000
0.905882 0.274510 0.000000
0.984314 0.278431 0.000000
1.000000 0.278431 0.000000
0.000000 0.298039 0.000000
0.000000 0.301961 0.000000
0.000000 0.305882 0.000000
0.062745 0.313725 0.000000
0.137255 0.317647 0.000000
0.219608 0.317647 0.000000
0.298039 0.325490 0.000000
0.388235 0.329412 0.000000
0.462745 0.333333 0.000000
0.552941 0.341176 0.000000
0.635294 0.345098 0.000000
0.737255 0.345098 0.000000
0.835294 0.356863 0.000000
0.913725 0.356863 0.000000
0.996078 0.364706 0.000000
1.000000 0.368627 0.000000
0.000000 0.380392 0.000000
0.000000 0.380392 0.000000
0.000000 0.392157 0.000000
0.078431 0.396078 0.000000
0.149020 0.400000 0.000000
0.239216 0.403922 0.000000
0.317647 0.407843 0.000000
0.396078 0.415686 0.000000
0.482353 0.415686 0.000000
0.560784 0.423529 0.000000
0.666667 0.431373 0.000000
0.741176 0.435294 0.000000
0.839216 0.439216 0.000000
0.917647 0.443137 0.000000
1.000000 0.447059 0.000000
1.000000 0.447059 0.000000
0.000000 0.466667 0.000000
0.000000 0.470588 0.000000
0.015686 0.470588 0.000000
0.090196 0.486275 0.000000
0.168627 0.482353 0.000000
0.247059 0.490196 0.000000
0.329412 0.494118 0.000000
0.407843 0.498039 0.000000
0.486275 0.498039 0.000000
0.572549 0.509804 0.000000
0.674510 0.509804 0.000000
0.760784 0.517647 0.000000
0.858824 0.521569 0.000000
0.925490 0.525490 0.000000
1.000000 0.537255 0.000000
1.000000 0.533333 0.000000
0.000000 0.545098 0.000000
0.003922 0.556863 0.000000
0.027451 0.556863 0.000000
0.105882 0.560784 0.000000
0.192157 0.568627 0.000000
0.266667 0.572549 0.000000
0.333333 0.576471 0.000000
0.427451 0.584314 0.000000
0.505882 0.592157 0.000000
0.584314 0.588235 0.000000
0.678431 0.600000 0.000000
0.768627 0.600000 0.000000
0.862745 0.607843 0.000000
0.941176 0.607843 0.000000
1.000000 0.615686 0.000000
1.000000 0.619608 0.000000
0.015686 0.635294 0.000000
0.015686 0.639216 0.000000
0.043137 0.639216 0.000000
0.133333 0.647059 0.000000
0.207843 0.650980 0.000000
0.294118 0.658824 0.000000
0.372549 0.662745 0.000000
0.450980 0.662745 0.000000
0.529412 0.678431 0.000000
0.611765 0.674510 0.000000
0.686275 0.682353 0.000000
0.784314 0.682353 0.000000
0.866667 0.690196 0.000000
0.949020 0.690196 0.000000
1.000000 0.698039 0.000000
1.000000 0.705882 0.000000
0.027451 0.713725 0.000000
0.031373 0.721569 0.000000
0.066667 0.725490 0.000000
0.152941 0.729412 0.000000
0.239216 0.741176 0.000000
0.313725 0.737255 0.000000
0.388235 0.741176 0.000000
0.470588 0.752941 0.000000
0.556863 0.752941 0.000000
0.631373 0.760784 0.000000
0.721569 0.764706 0.000000
0.788235 0.768627 0.000000
0.878431 0.776471 0.000000
0.956863 0.784314 0.000000
1.000000 0.780392 0.000000
1.000000 0.792157 0.000000
0.043137 0.800000 0.000000
0.043137 0.807843 0.000000
0.101961 0.811765 0.000000
0.168627 0.819608 0.000000
0.247059 0.815686 0.000000
0.329412 0.827451 0.000000
0.411765 0.831373 0.000000
0.486275 0.831373 0.000000
0.572549 0.839216 0.000000
0.647059 0.843137 0.000000
0.737255 0.850980 0.000000
0.811765 0.854902 0.000000
0.894118 0.854902 0.000000
0.968627 0.866667 0.000000
1.000000 0.870588 0.000000
1.000000 0.870588 0.000000
0.043137 0.878431 0.000000
0.043137 0.890196 0.000000
0.101961 0.890196 0.000000
0.184314 0.901961 0.000000
0.270588 0.901961 0.000000
0.341176 0.905882 0.000000
0.419608 0.917647 0.000000
0.498039 0.917647 0.000000
0.572549 0.921569 0.000000
0.662745 0.933333 0.000000
0.737255 0.933333 0.000000
0.815686 0.933333 0.000000
0.898039 0.945098 0.000000
0.980392 0.945098 0.000000
1.000000 0.956863 0.000000
1.000000 0.952941 0.000000
0.043137 0.968627 0.000000
0.043137 0.972549 0.000000
0.113725 0.984314 0.000000
0.192157 0.980392 0.000000
0.270588 0.988235 0.000000
0.352941 0.992157 0.000000
0.431373 0.996078 0.000000
0.517647 1.000000 0.000000
0.584314 1.000000 0.000000
0.662745 1.000000 0.000000
0.745098 1.000000 0.000000
0.831373 1.000000 0.000000
0.901961 1.000000 0.000000
0.984314 1.000000 0.000000
1.000000 1.000000 0.000000
1.000000 1.000000 0.000000
0.043137 1.000000 0.000000
0.047059 1.000000 0.000000
0.117647 1.000000 0.000000
0.203922 1.000000 0.000000
0.278431 1.000000 0.000000
0.352941 1.000000 0.000000
0.443137 1.000000 0.000000
0.513725 1.000000 0.000000
0.600000 1.000000 0.000000
0.678431 1.000000 0.000000
0.760784 1.000000 0.000000
0.835294 1.000000 0.000000
0.913725 1.000000 0.000000
0.992157 1.000000 0.000000
1.000000 1.000000 0.000000
1.000000 1.000000 0.000000
0.000000 0.000000 0.000000
0.000000 0.000000 0.000000
0.000000 0.000000 0.000000
0.035294 0.000000 0.000000
0.094118 0.000000 0.000000
0.149020 0.000000 0.000000
0.235294 0.000000 0.000000
0.325490 0.000000 0.000000
0.419608 0.000000 0.000000
0.498039 0.000000 0.000000
0.576471 0.000000 0.000000
0.678431 0.000000 0.000000
0.760784 0.000000 0.000000
0.850980 0.000000 0.000000
0.933333 0.000000 0.000000
1.000000 0.000000 0.000000
0.000000 0.000000 0.000000
0.000000 0.000000 0.000000
0.000000 0.000000 0.000000
0.003922 0.000000 0.000000
0.074510 0.000000 0.000000
0.160784 0.000000 0.000000
0.235294 0.000000 0.000000
0.337255 0.000000 0.000000
0.415686 0.000000 0.000000
0.509804 0.000000 0.000000
0.596078 0.000000 0.000000
0.686275 0.000000 0.000000
0.784314 0.000000 0.000000
0.870588 0.000000 0.000000
0.941176 0.000000 0.000000
1.000000 0.000000 0.000000
0.000000 0.000000 0.000000
0.000000 0.000000 0.000000
0.000000 0.000000 0.000000
0.015686 0.000000 0.000000
0.086275 0.000000 0.000000
0.176471 0.000000 0.000000
0.258824 0.000000 0.000000
0.349020 0.000000 0.000000
0.431373 0.003922 0.000000
0.509804 0.003922 0.000000
0.600000 0.011765 0.000000
0.694118 0.015686 0.000000
0.788235 0.019608 0.000000
0.878431 0.027451 0.000000
0.956863 0.027451 0.000000
1.000000 0.027451 0.000000
0.000000 0.043137 0.000000
0.000000 0.054902 0.000000
0.000000 0.054902 0.000000
0.015686 0.062745 0.000000
0.098039 0.062745 0.000000
0.176471 0.070588 0.000000
0.274510 0.078431 0.000000
0.352941 0.078431 0.000000
0.447059 0.082353 0.000000
0.521569 0.090196 0.000000
0.615686 0.094118 0.000000
0.701961 0.094118 0.000000
0.803922 0.105882 0.000000
0.882353 0.105882 0.000000
0.964706 0.109804 0.000000
1.000000 0.121569 0.000000
0.000000 0.129412 0.000000
0.000000 0.133333 0.000000
0.000000 0.137255 0.000000
0.027451 0.149020 0.000000
0.105882 0.145098 0.000000
0.188235 0.156863 0.000000
0.278431 0.156863 0.000000
0.368627 0.164706 0.000000
0.458824 0.168627 0.000000
0.533333 0.168627 0.000000
0.627451 0.180392 0.000000
0.721569 0.180392 0.000000
0.803922 0.188235 0.000000
0.898039 0.196078 0.000000
0.968627 0.200000 0.000000
1.000000 0.200000 0.000000
0.000000 0.211765 0.000000
0.000000 0.219608 0.000000
0.000000 0.219608 0.000000
0.043137 0.227451 0.000000
0.117647 0.235294 0.000000
0.196078 0.239216 0.000000
0.286275 0.247059 0.000000
0.376471 0.247059 0.000000
0.458824 0.250980 0.000000
0.545098 0.254902 0.000000
0.631373 0.258824 0.000000
0.737255 0.270588 0.000000
0.823529 0.270588 0.000000
0.909804 0.274510 0.000000
0.980392 0.286275 0.000000
1.000000 0.286275 0.000000
0.000000 0.298039 0.000000
0.000000 0.301961 0.000000
0.000000 0.309804 0.000000
0.062745 0.309804 0.000000
0.145098 0.321569 0.000000
0.223529 0.317647 0.000000
0.301961 0.325490 0.000000
0.392157 0.329412 0.000000
0.470588 0.337255 0.000000
0.545098 0.341176 0.000000
0.647059 0.345098 0.000000
0.737255 0.352941 0.000000
0.831373 0.349020 0.000000
0.913725 0.364706 0.000000
0.992157 0.360784 0.000000
1.000000 0.372549 0.000000
0.000000 0.388235 0.000000
0.000000 0.392157 0.000000
0.000000 0.388235 0.000000
0.074510 0.400000 0.000000
0.156863 0.403922 0.000000
0.231373 0.403922 0.000000
0.321569 0.411765 0.000000
0.396078 0.415686 0.000000
0.490196 0.419608 0.000000
0.564706 0.431373 0.000000
0.654902 0.427451 0.000000
0.752941 0.439216 0.000000
0.843137 0.435294 0.000000
0.921569 0.443137 0.000000
1.000000 0.450980 0.000000
1.000000 0.454902 0.000000
0.000000 0.462745 0.000000
0.000000 0.470588 0.000000
0.023529 0.474510 0.000000
0.090196 0.482353 0.000000
0.176471 0.486275 0.000000
0.250980 0.490196 0.000000
0.333333 0.490196 0.000000
0.415686 0.501961 0.000000
0.490196 0.501961 0.000000
0.580392 0.513725 0.000000
0.670588 0.513725 0.000000
0.764706 0.517647 0.000000
0.850980 0.529412 0.000000
0.933333 0.529412 0.000000
1.000000 0.529412 0.000000
1.000000 0.541176 0.000000
0.003922 0.556863 0.000000
0.000000 0.552941 0.000000
0.031373 0.564706 0.000000
0.109804 0.564706 0.000000
0.180392 0.572549 0.000000
0.274510 0.580392 0.000000
0.345098 0.580392 0.000000
0.423529 0.580392 0.000000
0.505882 0.588235 0.000000
0.592157 0.592157 0.000000
0.674510 0.596078 0.000000
0.780392 0.603922 0.000000
0.858824 0.603922 0.000000
0.949020 0.611765 0.000000
1.000000 0.619608 0.007843
1.000000 0.623529 0.007843
0.015686 0.635294 0.000000
0.015686 0.635294 0.000000
0.047059 0.643137 0.000000
0.129412 0.643137 0.000000
0.215686 0.654902 0.000000
0.294118 0.654902 0.000000
0.376471 0.662745 0.000000
0.450980 0.674510 0.000000
0.529412 0.670588 0.000000
0.611765 0.682353 0.000000
0.690196 0.678431 0.000000
0.780392 0.686275 0.000000
0.874510 0.694118 0.007843
0.949020 0.698039 0.007843
1.000000 0.698039 0.019608
1.000000 0.705882 0.015686
0.031373 0.721569 0.000000
0.031373 0.721569 0.000000
0.074510 0.729412 0.000000
0.149020 0.733333 0.000000
0.231373 0.733333 0.000000
0.317647 0.745098 0.000000
0.396078 0.745098 0.000000
0.474510 0.752941 0.000000
0.556863 0.752941 0.000000
0.635294 0.764706 0.000000
0.721569 0.772549 0.007843
0.796078 0.772549 0.007843
0.882353 0.772549 0.019608
0.960784 0.784314 0.015686
1.000000 0.784314 0.027451
1.000000 0.784314 0.027451
0.043137 0.803922 0.000000
0.043137 0.803922 0.000000
0.098039 0.807843 0.000000
0.176471 0.819608 0.000000
0.254902 0.819608 0.000000
0.333333 0.827451 0.000000
0.415686 0.831373 0.000000
0.494118 0.839216 0.000000
0.564706 0.839216 0.000000
0.654902 0.847059 0.007843
0.733333 0.850980 0.019608
0.815686 0.854902 0.015686
0.886275 0.862745 0.027451
0.964706 0.862745 0.027451
1.000000 0.874510 0.035294
1.000000 0.874510 0.031373
0.043137 0.886275 0.000000
0.043137 0.886275 0.000000
0.105882 0.898039 0.000000
0.188235 0.898039 0.000000
0.258824 0.909804 0.000000
0.345098 0.909804 0.007843
0.415686 0.913725 0.000000
0.505882 0.921569 0.015686
0.580392 0.929412 0.019608
0.662745 0.929412 0.011765
0.741176 0.937255 0.027451
0.823529 0.937255 0.027451
0.898039 0.941176 0.031373
0.984314 0.945098 0.031373
1.000000 0.952941 0.043137
1.000000 0.964706 0.047059
0.043137 0.972549 0.000000
0.043137 0.976471 0.000000
0.109804 0.976471 0.000000
0.200000 0.984314 0.007843
0.270588 0.988235 0.000000
0.356863 0.988235 0.011765
0.439216 1.000000 0.019608
0.505882 1.000000 0.019608
0.592157 1.000000 0.027451
0.666667 1.000000 0.035294
0.749020 1.000000 0.031373
0.827451 1.000000 0.043137
0.909804 1.000000 0.043137
0.984314 1.000000 0.035294
1.000000 1.000000 0.050980
1.000000 1.000000 0.054902
0.043137 1.000000 0.000000
0.043137 1.000000 0.007843
0.121569 1.000000 0.000000
0.200000 1.000000 0.011765
0.286275 1.000000 0.019608
0.360784 1.000000 0.019608
0.439216 1.000000 0.019608
0.521569 1.000000 0.035294
0.603922 1.000000 0.031373
0.678431 1.000000 0.043137
0.760784 1.000000 0.043137
0.835294 1.000000 0.050980
0.921569 1.000000 0.050980
1.000000 1.000000 0.062745
1.000000 1.000000 0.062745
1.000000 1.000000 0.062745
0.000000 0.000000 0.054902
0.000000 0.000000 0.023529
0.000000 0.000000 0.007843
0.031373 0.000000 0.000000
0.082353 0.000000 0.000000
0.152941 0.000000 0.000000
0.235294 0.000000 0.000000
0.329412 0.000000 0.000000
0.411765 0.000000 0.000000
0.505882 0.000000 0.000000
0.576471 0.000000 0.000000
0.674510 0.000000 0.000000
0.764706 0.000000 0.000000
0.858824 0.000000 0.000000
0.933333 0.000000 0.000000
1.000000 0.000000 0.000000
0.000000 0.000000 0.007843
0.000000 0.000000 0.000000
0.000000 0.000000 0.000000
0.007843 0.000000 0.000000
0.078431 0.000000 0.000000
0.160784 0.000000 0.000000
0.247059 0.000000 0.000000
0.333333 0.000000 0.000000
0.423529 0.000000 0.000000
0.513725 0.000000 0.000000
0.596078 0.000000 0.000000
0.686275 0.000000 0.000000
0.780392 0.000000 0.000000
0.866667 0.000000 0.000000
0.949020 0.000000 0.011765
1.000000 0.000000 0.003922
0.000000 0.000000 0.000000
0.000000 0.000000 0.000000
0.000000 0.000000 0.000000
0.011765 0.000000 0.000000
0.094118 0.000000 0.000000
0.160784 0.000000 0.000000
0.258824 0.000000 0.000000
0.345098 0.003922 0.000000
0.431373 0.000000 0.000000
0.517647 0.011765 0.000000
0.603922 0.007843 0.000000
0.698039 0.015686 0.000000
0.800000 0.023529 0.011765
0.878431 0.023529 0.003922
0.964706 0.031373 0.019608
1.000000 0.035294 0.019608
0.000000 0.050980 0.000000
0.000000 0.050980 0.000000
0.000000 0.058824 0.000000
0.019608 0.058824 0.000000
0.105882 0.066667 0.000000
0.184314 0.074510 0.000000
0.270588 0.074510 0.000000
0.364706 0.082353 0.000000
0.450980 0.082353 0.000000
0.521569 0.090196 0.000000
0.615686 0.101961 0.011765
0.705882 0.101961 0.003922
0.796078 0.101961 0.011765
0.890196 0.109804 0.019608
0.964706 0.113725 0.031373
1.000000 0.121569 0.027451
0.000000 0.133333 0.000000
0.000000 0.137255 0.000000
0.000000 0.141176 0.000000
0.035294 0.149020 0.000000
0.105882 0.152941 0.000000
0.184314 0.149020 0.000000
0.274510 0.160784 0.000000
0.372549 0.164706 0.003922
0.462745 0.176471 0.011765
0.541176 0.176471 0.003922
0.619608 0.180392 0.011765
0.721569 0.188235 0.019608
0.815686 0.192157 0.031373
0.894118 0.192157 0.023529
0.976471 0.200000 0.039216
1.000000 0.200000 0.035294
0.000000 0.215686 0.000000
0.000000 0.223529 0.000000
0.000000 0.227451 0.000000
0.043137 0.223529 0.000000
0.121569 0.239216 0.000000
0.203922 0.239216 0.003922
0.286275 0.243137 0.003922
0.384314 0.247059 0.019608
0.462745 0.250980 0.011765
0.549020 0.254902 0.023529
0.647059 0.266667 0.031373
0.733333 0.266667 0.023529
0.831373 0.274510 0.039216
0.898039 0.278431 0.035294
0.984314 0.282353 0.039216
1.000000 0.294118 0.047059
0.000000 0.301961 0.000000
0.000000 0.298039 0.000000
0.000000 0.305882 0.000000
0.062745 0.317647 0.003922
0.141176 0.317647 0.003922
0.223529 0.329412 0.019608
0.301961 0.329412 0.011765
0.384314 0.333333 0.023529
0.478431 0.341176 0.031373
0.560784 0.345098 0.031373
0.658824 0.345098 0.035294
0.749020 0.352941 0.043137
0.839216 0.356863 0.039216
0.921569 0.368627 0.047059
1.000000 0.364706 0.054902
1.000000 0.372549 0.047059
0.000000 0.384314 0.000000
0.000000 0.392157 0.003922
0.000000 0.392157 0.003922
0.082353 0.396078 0.015686
0.164706 0.403922 0.011765
0.243137 0.407843 0.023529
0.333333 0.415686 0.031373
0.407843 0.415686 0.031373
0.490196 0.419608 0.035294
0.572549 0.427451 0.043137
0.662745 0.435294 0.039216
0.756863 0.435294 0.047059
0.843137 0.443137 0.054902
0.921569 0.443137 0.062745
1.000000 0.450980 0.058824
1.000000 0.458824 0.066667
0.000000 0.466667 0.003922
0.000000 0.474510 0.015686
0.011765 0.482353 0.011765
0.094118 0.482353 0.023529
0.168627 0.486275 0.019608
0.258824 0.494118 0.031373
0.333333 0.498039 0.035294
0.415686 0.498039 0.039216
0.494118 0.509804 0.039216
0.588235 0.505882 0.047059
0.678431 0.521569 0.054902
0.772549 0.517647 0.062745
0.850980 0.525490 0.058824
0.937255 0.533333 0.074510
1.000000 0.533333 0.074510
1.000000 0.537255 0.078431
0.000000 0.549020 0.007843
0.003922 0.556863 0.023529
0.027451 0.556863 0.019608
0.121569 0.564706 0.031373
0.196078 0.576471 0.035294
0.274510 0.572549 0.039216
0.356863 0.584314 0.039216
0.439216 0.584314 0.047059
0.517647 0.588235 0.050980
0.600000 0.596078 0.062745
0.694118 0.600000 0.058824
0.780392 0.600000 0.066667
0.866667 0.607843 0.074510
0.937255 0.615686 0.078431
1.000000 0.619608 0.082353
1.000000 0.627451 0.094118
0.015686 0.635294 0.027451
0.015686 0.643137 0.023529
0.062745 0.650980 0.035294
0.137255 0.650980 0.039216
0.215686 0.650980 0.031373
0.294118 0.662745 0.047059
0.384314 0.666667 0.050980
0.462745 0.670588 0.062745
0.545098 0.674510 0.058824
0.619608 0.678431 0.066667
0.709804 0.686275 0.074510
0.796078 0.690196 0.078431
0.874510 0.690196 0.078431
0.956863 0.698039 0.094118
1.000000 0.698039 0.082353
1.000000 0.713725 0.101961
0.031373 0.725490 0.043137
0.031373 0.725490 0.039216
0.082353 0.725490 0.047059
0.164706 0.737255 0.047059
0.250980 0.741176 0.050980
0.325490 0.741176 0.058824
0.411765 0.749020 0.058824
0.486275 0.749020 0.066667
0.560784 0.764706 0.074510
0.643137 0.768627 0.078431
0.717647 0.768627 0.078431
0.807843 0.776471 0.094118
0.878431 0.780392 0.082353
0.960784 0.780392 0.094118
1.000000 0.788235 0.098039
1.000000 0.788235 0.109804
0.043137 0.796078 0.047059
0.043137 0.811765 0.047059
0.094118 0.819608 0.058824
0.172549 0.815686 0.058824
0.254902 0.827451 0.066667
0.333333 0.827451 0.066667
0.411765 0.831373 0.070588
0.501961 0.839216 0.078431
0.572549 0.843137 0.078431
0.654902 0.839216 0.082353
0.729412 0.854902 0.082353
0.811765 0.858824 0.094118
0.890196 0.862745 0.098039
0.972549 0.866667 0.109804
1.000000 0.870588 0.101961
1.000000 0.878431 0.117647
0.043137 0.890196 0.058824
0.043137 0.890196 0.058824
0.105882 0.898039 0.062745
0.192157 0.898039 0.066667
0.262745 0.909804 0.078431
0.349020 0.917647 0.078431
0.423529 0.917647 0.086275
0.501961 0.917647 0.082353
0.584314 0.929412 0.082353
0.662745 0.933333 0.094118
0.741176 0.933333 0.094118
0.823529 0.941176 0.109804
0.901961 0.941176 0.101961
0.972549 0.949020 0.113725
1.000000 0.956863 0.121569
1.000000 0.960784 0.121569
0.043137 0.972549 0.062745
0.043137 0.980392 0.066667
0.117647 0.980392 0.078431
0.192157 0.984314 0.066667
0.278431 0.992157 0.086275
0.345098 0.996078 0.082353
0.435294 1.000000 0.098039
0.513725 1.000000 0.094118
0.592157 1.000000 0.101961
0.674510 1.000000 0.109804
0.752941 1.000000 0.101961
0.831373 1.000000 0.113725
0.917647 1.000000 0.121569
0.992157 1.000000 0.121569
1.000000 1.000000 0.121569
1.000000 1.000000 0.137255
0.043137 1.000000 0.078431
0.043137 1.000000 0.066667
0.129412 1.000000 0.086275
0.203922 1.000000 0.082353
0.286275 1.000000 0.094118
0.368627 1.000000 0.094118
0.447059 1.000000 0.101961
0.525490 1.000000 0.105882
0.596078 1.000000 0.109804
0.678431 1.000000 0.113725
0.760784 1.000000 0.129412
0.839216 1.000000 0.121569
0.913725 1.000000 0.129412
1.000000 1.000000 0.137255
1.000000 1.000000 0.133333
1.000000 1.000000 0.137255
0.000000 0.000000 0.109804
0.000000 0.000000 0.094118
0.000000 0.000000 0.070588
0.023529 0.000000 0.054902
0.074510 0.000000 0.023529
0.156863 0.000000 0.035294
0.235294 0.000000 0.031373
0.337255 0.000000 0.039216
0.419608 0.000000 0.043137
0.501961 0.000000 0.050980
0.588235 0.000000 0.050980
0.678431 0.000000 0.058824
0.768627 0.000000 0.062745
0.862745 0.000000 0.078431
0.941176 0.000000 0.070588
1.000000 0.000000 0.078431
0.000000 0.000000 0.070588
0.000000 0.000000 0.054902
0.000000 0.000000 0.023529
0.007843 0.000000 0.035294
0.082353 0.000000 0.031373
0.156863 0.000000 0.035294
0.254902 0.000000 0.043137
0.337255 0.000000 0.050980
0.427451 0.000000 0.047059
0.509804 0.000000 0.058824
0.600000 0.000000 0.062745
0.686275 0.000000 0.078431
0.784314 0.000000 0.070588
0.862745 0.000000 0.078431
0.952941 0.000000 0.086275
1.000000 0.000000 0.090196
0.000000 0.000000 0.031373
0.000000 0.000000 0.035294
0.000000 0.000000 0.031373
0.015686 0.000000 0.035294
0.101961 0.000000 0.043137
0.168627 0.000000 0.050980
0.262745 0.000000 0.047059
0.345098 0.000000 0.058824
0.443137 0.003922 0.062745
0.513725 0.003922 0.070588
0.615686 0.011765 0.070588
0.698039 0.015686 0.078431
0.796078 0.023529 0.086275
0.886275 0.027451 0.090196
0.952941 0.035294 0.086275
1.000000 0.039216 0.105882
0.000000 0.047059 0.039216
0.000000 0.054902 0.035294
0.000000 0.054902 0.043137
0.027451 0.062745 0.050980
0.101961 0.070588 0.047059
0.196078 0.074510 0.058824
0.274510 0.082353 0.062745
0.360784 0.082353 0.070588
0.447059 0.094118 0.070588
0.537255 0.090196 0.078431
0.627451 0.098039 0.082353
0.729412 0.105882 0.090196
0.807843 0.105882 0.086275
0.890196 0.109804 0.098039
0.968627 0.117647 0.094118
1.000000 0.117647 0.105882
0.000000 0.133333 0.043137
0.000000 0.141176 0.050980
0.000000 0.145098 0.062745
0.031373 0.145098 0.054902
0.113725 0.156863 0.070588
0.200000 0.152941 0.070588
0.286275 0.160784 0.066667
0.380392 0.164706 0.078431
0.458824 0.168627 0.082353
0.564706 0.176471 0.090196
0.643137 0.184314 0.086275
0.733333 0.188235 0.098039
0.819608 0.192157 0.094118
0.898039 0.200000 0.105882
0.976471 0.196078 0.105882
1.000000 0.207843 0.121569
0.000000 0.219608 0.062745
0.000000 0.219608 0.054902
0.000000 0.231373 0.070588
0.043137 0.235294 0.070588
0.133333 0.235294 0.074510
0.207843 0.243137 0.078431
0.301961 0.247059 0.090196
0.380392 0.247059 0.078431
0.474510 0.254902 0.094118
0.568627 0.262745 0.098039
0.662745 0.266667 0.094118
0.745098 0.274510 0.105882
0.823529 0.274510 0.105882
0.905882 0.282353 0.121569
0.988235 0.282353 0.113725
1.000000 0.290196 0.125490
0.000000 0.298039 0.062745
0.000000 0.305882 0.070588
0.000000 0.309804 0.074510
0.074510 0.317647 0.078431
0.160784 0.317647 0.090196
0.223529 0.325490 0.078431
0.317647 0.333333 0.094118
0.396078 0.337255 0.098039
0.486275 0.337255 0.105882
0.580392 0.349020 0.105882
0.674510 0.345098 0.113725
0.756863 0.352941 0.117647
0.835294 0.360784 0.113725
0.921569 0.360784 0.125490
