public/luts/puissance.cube
# Studiio — look « puissance », genere par scripts/lut/generer-luts.mjs
# Source : les coefficients de LOOKS_RENDUS, calcules par ffmpeg lui-meme.
# Aucune LUT tierce, aucun telechargement : provenance et licence du depot.
LUT_3D_SIZE 6
DOMAIN_MIN 0.0 0.0 0.0
DOMAIN_MAX 1.0 1.0 1.0
0.000000 0.000000 0.000000
0.043137 0.000000 0.000000
0.231373 0.000000 0.000000
0.490196 0.000000 0.000000
0.768627 0.000000 0.000000
1.000000 0.000000 0.000000
0.000000 0.047059 0.000000
0.019608 0.058824 0.000000
0.266667 0.074510 0.000000
0.521569 0.090196 0.000000
0.792157 0.101961 0.000000
1.000000 0.117647 0.000000
0.000000 0.298039 0.000000
0.062745 0.313725 0.000000
0.298039 0.325490 0.000000
0.552941 0.341176 0.000000
0.835294 0.356863 0.000000
1.000000 0.368627 0.000000
0.000000 0.545098 0.000000
0.105882 0.560784 0.000000
0.333333 0.576471 0.000000
0.584314 0.588235 0.000000
0.862745 0.607843 0.000000
1.000000 0.619608 0.000000
0.043137 0.800000 0.000000
0.168627 0.819608 0.000000
0.411765 0.831373 0.000000
0.647059 0.843137 0.000000
0.894118 0.854902 0.000000
1.000000 0.870588 0.000000
0.043137 1.000000 0.000000
0.203922 1.000000 0.000000
0.443137 1.000000 0.000000
0.678431 1.000000 0.000000
0.913725 1.000000 0.000000
1.000000 1.000000 0.000000
0.000000 0.000000 0.109804
0.023529 0.000000 0.054902
0.235294 0.000000 0.031373
0.501961 0.000000 0.050980
0.768627 0.000000 0.062745
1.000000 0.000000 0.078431
0.000000 0.047059 0.039216
0.027451 0.062745 0.050980
0.274510 0.082353 0.062745
0.537255 0.090196 0.078431
0.807843 0.105882 0.086275
1.000000 0.117647 0.105882
0.000000 0.298039 0.062745
0.074510 0.317647 0.078431
0.317647 0.333333 0.094118
0.580392 0.349020 0.105882
0.835294 0.360784 0.113725
1.000000 0.376471 0.133333
0.000000 0.552941 0.090196
0.117647 0.568627 0.098039
0.372549 0.580392 0.117647
0.615686 0.596078 0.129412
0.870588 0.615686 0.160784
1.000000 0.631373 0.168627
0.043137 0.807843 0.117647
0.180392 0.819608 0.145098
0.415686 0.831373 0.149020
0.647059 0.850980 0.160784
0.894118 0.862745 0.180392
1.000000 0.878431 0.192157
0.043137 1.000000 0.149020
0.207843 1.000000 0.168627
0.443137 1.000000 0.180392
0.686275 1.000000 0.200000
0.921569 1.000000 0.203922
1.000000 1.000000 0.215686
0.000000 0.000000 0.313725
0.007843 0.000000 0.247059
0.247059 0.000000 0.262745
0.505882 0.000000 0.274510
0.776471 0.000000 0.301961
1.000000 0.000000 0.305882
0.000000 0.054902 0.262745
0.039216 0.074510 0.274510
0.290196 0.086275 0.301961
0.549020 0.098039 0.305882
0.819608 0.109804 0.325490
1.000000 0.129412 0.337255
0.000000 0.305882 0.290196
0.086275 0.321569 0.313725
0.345098 0.337255 0.325490
0.603922 0.356863 0.337255
0.843137 0.364706 0.349020
1.000000 0.380392 0.360784
0.003922 0.564706 0.321569
0.137255 0.568627 0.333333
0.392157 0.588235 0.345098
0.631373 0.600000 0.364706
0.874510 0.623529 0.380392
1.000000 0.635294 0.388235
0.043137 0.811765 0.345098
0.188235 0.827451 0.364706
0.415686 0.843137 0.372549
0.662745 0.854902 0.392157
0.898039 0.870588 0.400000
1.000000 0.878431 0.423529
0.043137 1.000000 0.380392
0.211765 1.000000 0.392157
0.454902 1.000000 0.415686
0.690196 1.000000 0.423529
0.921569 1.000000 0.435294
1.000000 1.000000 0.454902
0.000000 0.000000 0.513725
0.035294 0.000000 0.482353
0.274510 0.000000 0.490196
0.509804 0.000000 0.501961
0.780392 0.000000 0.517647
1.000000 0.000000 0.529412
0.000000 0.066667 0.490196
0.070588 0.078431 0.509804
0.313725 0.090196 0.517647
0.556863 0.101961 0.537255
0.819608 0.117647 0.549020
1.000000 0.129412 0.568627
0.000000 0.309804 0.521569
0.109804 0.329412 0.537255
0.372549 0.349020 0.549020
0.611765 0.352941 0.568627
0.850980 0.372549 0.580392
1.000000 0.384314 0.600000
0.003922 0.560784 0.552941
0.141176 0.580392 0.564706
0.400000 0.592157 0.584314
0.635294 0.603922 0.592157
0.866667 0.623529 0.600000
1.000000 0.639216 0.623529
0.043137 0.815686 0.584314
0.184314 0.831373 0.592157
0.427451 0.843137 0.607843
0.666667 0.858824 0.619608
0.901961 0.870588 0.635294
1.000000 0.886275 0.647059
0.043137 1.000000 0.607843
0.223529 1.000000 0.619608
0.458824 1.000000 0.635294
0.690196 1.000000 0.647059
0.933333 1.000000 0.662745
1.000000 1.000000 0.670588
0.031373 0.000000 0.717647
0.066667 0.000000 0.709804
0.305882 0.000000 0.721569
0.545098 0.000000 0.737255
0.788235 0.000000 0.749020
1.000000 0.000000 0.764706
0.031373 0.066667 0.729412
0.113725 0.078431 0.737255
0.352941 0.094118 0.756863
0.588235 0.109804 0.764706
0.827451 0.125490 0.776471
1.000000 0.137255 0.792157
0.035294 0.313725 0.749020
0.129412 0.329412 0.756863
0.384314 0.349020 0.784314
0.619608 0.360784 0.792157
0.854902 0.376471 0.811765
1.000000 0.392157 0.819608
0.039216 0.572549 0.776471
0.168627 0.584314 0.796078
0.407843 0.600000 0.803922
0.635294 0.615686 0.811765
0.882353 0.623529 0.839216
1.000000 0.643137 0.854902
0.043137 0.827451 0.803922
0.196078 0.835294 0.827451
0.431373 0.854902 0.839216
0.674510 0.866667 0.858824
0.909804 0.878431 0.862745
1.000000 0.898039 0.874510
0.043137 1.000000 0.839216
0.231373 1.000000 0.858824
0.458824 1.000000 0.862745
0.701961 1.000000 0.882353
0.941176 1.000000 0.894118
1.000000 1.000000 0.886275
0.043137 0.000000 0.921569
0.086275 0.000000 0.933333
0.329412 0.000000 0.952941
0.564706 0.000000 0.964706
0.796078 0.000000 0.984314
1.000000 0.000000 0.996078
0.043137 0.078431 0.952941
0.113725 0.086275 0.972549
0.356863 0.098039 0.984314
0.592157 0.117647 0.996078
0.831373 0.125490 1.000000
1.000000 0.141176 1.000000
0.043137 0.325490 0.980392
0.145098 0.333333 0.996078
0.388235 0.352941 1.000000
0.623529 0.368627 1.000000
0.862745 0.384314 1.000000
1.000000 0.396078 1.000000
0.043137 0.572549 1.000000
0.176471 0.588235 1.000000
0.403922 0.603922 1.000000
0.647059 0.615686 1.000000
0.886275 0.631373 1.000000
1.000000 0.650980 1.000000
0.043137 0.827451 1.000000
0.200000 0.843137 1.000000
0.443137 0.854902 1.000000
0.678431 0.866667 1.000000
0.909804 0.886275 1.000000
1.000000 0.898039 1.000000
0.043137 1.000000 1.000000
0.227451 1.000000 1.000000
0.470588 1.000000 1.000000
0.705882 1.000000 1.000000
0.945098 1.000000 1.000000
1.000000 1.000000 1.000000
