public/luts/punchy.cube
# Studiio — look « punchy », genere par scripts/lut/generer-luts.mjs
# Source : les coefficients de LOOKS_RENDUS, calcules par ffmpeg lui-meme.
# Aucune LUT tierce, aucun telechargement : provenance et licence du depot.
LUT_3D_SIZE 6
DOMAIN_MIN 0.0 0.0 0.0
DOMAIN_MAX 1.0 1.0 1.0
0.000000 0.000000 0.043137
0.035294 0.000000 0.043137
0.313725 0.000000 0.019608
0.600000 0.000000 0.000000
0.886275 0.000000 0.000000
1.000000 0.000000 0.000000
0.000000 0.105882 0.043137
0.043137 0.105882 0.043137
0.329412 0.109804 0.019608
0.603922 0.113725 0.000000
0.890196 0.113725 0.000000
1.000000 0.117647 0.000000
0.000000 0.360784 0.015686
0.082353 0.364706 0.015686
0.337255 0.368627 0.015686
0.627451 0.368627 0.000000
0.894118 0.372549 0.000000
1.000000 0.376471 0.000000
0.011765 0.615686 0.000000
0.109804 0.619608 0.000000
0.364706 0.619608 0.000000
0.623529 0.619608 0.000000
0.898039 0.631373 0.000000
1.000000 0.631373 0.000000
0.035294 0.874510 0.000000
0.141176 0.878431 0.000000
0.400000 0.874510 0.000000
0.650980 0.882353 0.000000
0.909804 0.882353 0.000000
1.000000 0.886275 0.000000
0.035294 1.000000 0.000000
0.149020 1.000000 0.000000
0.403922 1.000000 0.000000
0.654902 1.000000 0.000000
0.913725 1.000000 0.000000
1.000000 1.000000 0.000000
0.000000 0.000000 0.176471
0.039216 0.000000 0.137255
0.313725 0.000000 0.109804
0.603922 0.000000 0.094118
0.882353 0.000000 0.090196
1.000000 0.000000 0.098039
0.000000 0.105882 0.141176
0.039216 0.105882 0.137255
0.333333 0.113725 0.094118
0.623529 0.109804 0.098039
0.886275 0.113725 0.094118
1.000000 0.113725 0.101961
0.000000 0.356863 0.109804
0.098039 0.364706 0.098039
0.356863 0.364706 0.105882
0.635294 0.368627 0.101961
0.894118 0.376471 0.101961
1.000000 0.376471 0.105882
0.011765 0.619608 0.098039
0.121569 0.623529 0.098039
0.388235 0.619608 0.105882
0.639216 0.623529 0.101961
0.909804 0.627451 0.113725
1.000000 0.635294 0.113725
0.035294 0.878431 0.105882
0.145098 0.878431 0.109804
0.396078 0.878431 0.105882
0.647059 0.882353 0.101961
0.905882 0.882353 0.109804
1.000000 0.886275 0.109804
0.035294 1.000000 0.105882
0.145098 1.000000 0.109804
0.400000 1.000000 0.109804
0.658824 1.000000 0.125490
0.909804 1.000000 0.113725
1.000000 1.000000 0.113725
0.000000 0.000000 0.376471
0.062745 0.000000 0.352941
0.325490 0.000000 0.368627
0.603922 0.000000 0.337255
0.882353 0.000000 0.352941
1.000000 0.000000 0.349020
0.000000 0.105882 0.368627
0.086275 0.109804 0.341176
0.352941 0.109804 0.352941
0.623529 0.117647 0.349020
0.894118 0.113725 0.356863
1.000000 0.117647 0.356863
0.000000 0.364706 0.364706
0.105882 0.364706 0.360784
0.388235 0.368627 0.356863
0.639216 0.376471 0.356863
0.894118 0.372549 0.356863
1.000000 0.376471 0.356863
0.011765 0.619608 0.349020
0.125490 0.619608 0.352941
0.392157 0.623529 0.352941
0.650980 0.619608 0.360784
0.905882 0.627451 0.360784
1.000000 0.635294 0.360784
0.035294 0.878431 0.352941
0.141176 0.878431 0.360784
0.396078 0.882353 0.356863
0.654902 0.882353 0.364706
0.905882 0.886275 0.364706
1.000000 0.886275 0.368627
0.035294 1.000000 0.364706
0.149020 1.000000 0.364706
0.407843 1.000000 0.372549
0.658824 1.000000 0.368627
0.913725 1.000000 0.368627
1.000000 1.000000 0.368627
0.007843 0.000000 0.588235
0.105882 0.000000 0.596078
0.356863 0.000000 0.592157
0.600000 0.000000 0.588235
0.886275 0.000000 0.592157
1.000000 0.000000 0.592157
0.007843 0.113725 0.592157
0.117647 0.105882 0.596078
0.372549 0.109804 0.592157
0.631373 0.109804 0.607843
0.890196 0.117647 0.600000
1.000000 0.117647 0.611765
0.007843 0.356863 0.603922
0.125490 0.364706 0.607843
0.392157 0.372549 0.600000
0.650980 0.368627 0.611765
0.898039 0.376471 0.611765
1.000000 0.376471 0.619608
0.011765 0.619608 0.607843
0.129412 0.623529 0.607843
0.396078 0.623529 0.615686
0.650980 0.627451 0.611765
0.890196 0.627451 0.607843
1.000000 0.635294 0.623529
0.035294 0.878431 0.615686
0.141176 0.882353 0.611765
0.396078 0.878431 0.615686
0.650980 0.882353 0.611765
0.909804 0.882353 0.619608
1.000000 0.886275 0.619608
0.035294 1.000000 0.615686
0.149020 1.000000 0.611765
0.403922 1.000000 0.619608
0.654902 1.000000 0.619608
0.913725 1.000000 0.623529
1.000000 1.000000 0.623529
0.035294 0.000000 0.843137
0.129412 0.000000 0.843137
0.380392 0.000000 0.843137
0.639216 0.000000 0.847059
0.886275 0.000000 0.847059
1.000000 0.000000 0.854902
0.035294 0.109804 0.850980
0.133333 0.113725 0.847059
0.392157 0.109804 0.854902
0.647059 0.113725 0.854902
0.890196 0.121569 0.850980
1.000000 0.121569 0.858824
0.035294 0.364706 0.850980
0.129412 0.364706 0.843137
0.396078 0.372549 0.858824
0.650980 0.376471 0.858824
0.905882 0.368627 0.866667
1.000000 0.376471 0.858824
0.035294 0.619608 0.850980
0.141176 0.619608 0.866667
0.392157 0.623529 0.862745
0.647059 0.627451 0.854902
0.905882 0.623529 0.866667
1.000000 0.635294 0.870588
0.035294 0.882353 0.862745
0.145098 0.878431 0.870588
0.400000 0.882353 0.866667
0.658824 0.882353 0.874510
0.909804 0.886275 0.874510
1.000000 0.894118 0.870588
0.035294 1.000000 0.866667
0.149020 1.000000 0.874510
0.403922 1.000000 0.874510
0.662745 1.000000 0.878431
0.913725 1.000000 0.878431
1.000000 1.000000 0.862745
0.035294 0.000000 0.996078
0.129412 0.000000 1.000000
0.388235 0.000000 1.000000
0.631373 0.000000 1.000000
0.882353 0.000000 1.000000
1.000000 0.000000 1.000000
0.035294 0.113725 1.000000
0.129412 0.109804 1.000000
0.388235 0.109804 1.000000
0.643137 0.113725 1.000000
0.901961 0.113725 1.000000
1.000000 0.121569 1.000000
0.035294 0.364706 1.000000
0.137255 0.364706 1.000000
0.392157 0.372549 1.000000
0.650980 0.372549 1.000000
0.905882 0.376471 1.000000
1.000000 0.380392 1.000000
0.035294 0.619608 1.000000
0.141176 0.623529 1.000000
0.392157 0.627451 1.000000
0.654902 0.627451 1.000000
0.901961 0.627451 1.000000
1.000000 0.635294 1.000000
0.035294 0.878431 1.000000
0.145098 0.886275 1.000000
0.400000 0.878431 1.000000
0.654902 0.882353 1.000000
0.905882 0.886275 1.000000
1.000000 0.886275 1.000000
0.035294 1.000000 1.000000
0.145098 1.000000 1.000000
0.403922 1.000000 1.000000
0.658824 1.000000 1.000000
0.917647 1.000000 1.000000
1.000000 1.000000 1.000000
