public/luts/punchy.cube
# Studiio — look « punchy », genere par scripts/lut/generer-luts.mjs
# Source : les coefficients de LOOKS_RENDUS, calcules par ffmpeg lui-meme.
# Aucune LUT tierce, aucun telechargement : provenance et licence du depot.
LUT_3D_SIZE 16
DOMAIN_MIN 0.0 0.0 0.0
DOMAIN_MAX 1.0 1.0 1.0
0.000000 0.000000 0.043137
0.000000 0.000000 0.043137
0.000000 0.000000 0.043137
0.035294 0.000000 0.043137
0.117647 0.000000 0.043137
0.207843 0.000000 0.035294
0.313725 0.000000 0.019608
0.419608 0.000000 0.003922
0.513725 0.000000 0.000000
0.600000 0.000000 0.000000
0.701961 0.000000 0.000000
0.796078 0.000000 0.000000
0.886275 0.000000 0.000000
0.972549 0.000000 0.000000
1.000000 0.000000 0.000000
1.000000 0.000000 0.000000
0.000000 0.000000 0.043137
0.000000 0.000000 0.043137
0.000000 0.000000 0.043137
0.035294 0.000000 0.043137
0.121569 0.000000 0.043137
0.207843 0.000000 0.035294
0.325490 0.000000 0.019608
0.423529 0.000000 0.003922
0.509804 0.000000 0.000000
0.611765 0.000000 0.000000
0.694118 0.000000 0.000000
0.796078 0.000000 0.000000
0.886275 0.000000 0.000000
0.972549 0.000000 0.000000
1.000000 0.000000 0.000000
1.000000 0.000000 0.000000
0.000000 0.019608 0.043137
0.000000 0.023529 0.043137
0.000000 0.023529 0.043137
0.031373 0.019608 0.043137
0.121569 0.027451 0.043137
0.219608 0.023529 0.031373
0.313725 0.023529 0.019608
0.431373 0.027451 0.003922
0.513725 0.027451 0.000000
0.607843 0.023529 0.000000
0.705882 0.027451 0.000000
0.803922 0.027451 0.000000
0.890196 0.031373 0.000000
0.976471 0.023529 0.000000
1.000000 0.027451 0.000000
1.000000 0.035294 0.000000
0.000000 0.105882 0.043137
0.000000 0.101961 0.043137
0.000000 0.101961 0.043137
0.043137 0.105882 0.043137
0.121569 0.105882 0.043137
0.227451 0.109804 0.031373
0.329412 0.109804 0.019608
0.431373 0.105882 0.003922
0.517647 0.113725 0.000000
0.603922 0.113725 0.000000
0.701961 0.109804 0.000000
0.800000 0.113725 0.000000
0.890196 0.113725 0.000000
0.972549 0.113725 0.000000
1.000000 0.113725 0.000000
1.000000 0.117647 0.000000
0.000000 0.184314 0.043137
0.000000 0.196078 0.043137
0.000000 0.192157 0.043137
0.031373 0.188235 0.043137
0.125490 0.196078 0.043137
0.219608 0.192157 0.031373
0.321569 0.188235 0.019608
0.431373 0.196078 0.003922
0.521569 0.192157 0.000000
0.611765 0.196078 0.000000
0.713725 0.196078 0.000000
0.803922 0.196078 0.000000
0.898039 0.196078 0.000000
0.976471 0.203922 0.000000
1.000000 0.196078 0.000000
1.000000 0.203922 0.000000
0.000000 0.274510 0.031373
0.000000 0.270588 0.031373
0.000000 0.278431 0.031373
0.050980 0.278431 0.031373
0.137255 0.274510 0.031373
0.227451 0.282353 0.031373
0.329412 0.278431 0.019608
0.423529 0.278431 0.003922
0.517647 0.286275 0.000000
0.611765 0.282353 0.000000
0.705882 0.286275 0.000000
0.807843 0.286275 0.000000
0.894118 0.286275 0.000000
0.980392 0.286275 0.000000
1.000000 0.286275 0.000000
1.000000 0.286275 0.000000
0.000000 0.360784 0.015686
0.000000 0.360784 0.015686
0.000000 0.360784 0.015686
0.082353 0.364706 0.015686
0.160784 0.364706 0.015686
0.243137 0.360784 0.015686
0.337255 0.368627 0.015686
0.439216 0.364706 0.003922
0.513725 0.368627 0.000000
0.627451 0.368627 0.000000
0.705882 0.372549 0.000000
0.803922 0.364706 0.000000
0.894118 0.372549 0.000000
0.984314 0.368627 0.000000
1.000000 0.372549 0.000000
1.000000 0.376471 0.000000
0.000000 0.447059 0.000000
0.000000 0.443137 0.003922
0.011765 0.450980 0.000000
0.094118 0.447059 0.000000
0.172549 0.447059 0.000000
0.270588 0.450980 0.000000
0.352941 0.450980 0.000000
0.439216 0.458824 0.000000
0.525490 0.454902 0.000000
0.611765 0.450980 0.000000
0.713725 0.454902 0.000000
0.807843 0.454902 0.000000
0.898039 0.450980 0.000000
0.984314 0.454902 0.000000
1.000000 0.454902 0.000000
1.000000 0.458824 0.000000
0.000000 0.533333 0.000000
0.000000 0.533333 0.000000
0.015686 0.529412 0.000000
0.098039 0.537255 0.000000
0.188235 0.533333 0.000000
0.262745 0.533333 0.000000
0.356863 0.541176 0.000000
0.435294 0.537255 0.000000
0.521569 0.533333 0.000000
0.615686 0.541176 0.000000
0.713725 0.537255 0.000000
0.807843 0.541176 0.000000
0.901961 0.541176 0.000000
0.984314 0.541176 0.000000
1.000000 0.545098 0.000000
1.000000 0.541176 0.000000
0.011765 0.615686 0.000000
0.011765 0.623529 0.000000
0.031373 0.619608 0.000000
0.109804 0.619608 0.000000
0.203922 0.623529 0.000000
0.286275 0.619608 0.000000
0.364706 0.619608 0.000000
0.458824 0.623529 0.000000
0.537255 0.623529 0.000000
0.623529 0.619608 0.000000
0.713725 0.631373 0.000000
0.819608 0.623529 0.000000
0.898039 0.631373 0.000000
0.984314 0.627451 0.000000
1.000000 0.631373 0.000000
1.000000 0.631373 0.000000
0.023529 0.705882 0.000000
0.023529 0.701961 0.000000
0.031373 0.701961 0.000000
0.125490 0.705882 0.000000
0.207843 0.705882 0.000000
0.301961 0.709804 0.000000
0.380392 0.709804 0.000000
0.466667 0.705882 0.000000
0.552941 0.713725 0.000000
0.639216 0.709804 0.000000
0.717647 0.709804 0.000000
0.819608 0.709804 0.000000
0.905882 0.713725 0.000000
0.988235 0.709804 0.000000
1.000000 0.713725 0.000000
1.000000 0.717647 0.000000
0.035294 0.784314 0.000000
0.035294 0.788235 0.000000
0.054902 0.788235 0.000000
0.141176 0.784314 0.000000
0.227451 0.792157 0.000000
0.313725 0.788235 0.000000
0.392157 0.788235 0.000000
0.474510 0.800000 0.000000
0.560784 0.796078 0.000000
0.643137 0.796078 0.000000
0.733333 0.800000 0.000000
0.815686 0.800000 0.000000
0.905882 0.800000 0.000000
0.988235 0.800000 0.000000
1.000000 0.800000 0.000000
1.000000 0.800000 0.000000
0.035294 0.874510 0.000000
0.035294 0.874510 0.000000
0.058824 0.878431 0.000000
0.141176 0.878431 0.000000
0.223529 0.874510 0.000000
0.313725 0.882353 0.000000
0.400000 0.874510 0.000000
0.478431 0.874510 0.000000
0.572549 0.882353 0.000000
0.650980 0.882353 0.000000
0.741176 0.882353 0.000000
0.823529 0.886275 0.000000
0.909804 0.882353 0.000000
0.988235 0.886275 0.000000
1.000000 0.886275 0.000000
1.000000 0.886275 0.000000
0.035294 0.956863 0.000000
0.035294 0.960784 0.000000
0.062745 0.956863 0.000000
0.145098 0.968627 0.000000
0.235294 0.960784 0.000000
0.309804 0.960784 0.000000
0.396078 0.968627 0.000000
0.482353 0.968627 0.000000
0.560784 0.964706 0.000000
0.654902 0.972549 0.000000
0.733333 0.968627 0.000000
0.819608 0.964706 0.000000
0.905882 0.968627 0.000000
0.996078 0.968627 0.000000
1.000000 0.972549 0.000000
1.000000 0.964706 0.000000
0.035294 1.000000 0.000000
0.035294 1.000000 0.000000
0.058824 1.000000 0.000000
0.145098 1.000000 0.000000
0.223529 1.000000 0.000000
0.321569 1.000000 0.000000
0.400000 1.000000 0.000000
0.494118 1.000000 0.000000
0.564706 1.000000 0.000000
0.658824 1.000000 0.000000
0.737255 1.000000 0.000000
0.823529 1.000000 0.000000
0.905882 1.000000 0.000000
0.988235 1.000000 0.000000
1.000000 1.000000 0.000000
1.000000 1.000000 0.000000
0.035294 1.000000 0.000000
0.035294 1.000000 0.000000
0.054902 1.000000 0.000000
0.149020 1.000000 0.000000
0.231373 1.000000 0.000000
0.309804 1.000000 0.000000
0.403922 1.000000 0.000000
0.482353 1.000000 0.000000
0.568627 1.000000 0.000000
0.654902 1.000000 0.000000
0.741176 1.000000 0.000000
0.827451 1.000000 0.000000
0.913725 1.000000 0.000000
0.996078 1.000000 0.000000
1.000000 1.000000 0.000000
1.000000 1.000000 0.000000
0.000000 0.000000 0.043137
0.000000 0.000000 0.043137
0.000000 0.000000 0.043137
0.031373 0.000000 0.043137
0.117647 0.000000 0.043137
0.203922 0.000000 0.035294
0.325490 0.000000 0.019608
0.419608 0.000000 0.003922
0.517647 0.000000 0.000000
0.607843 0.000000 0.000000
0.698039 0.000000 0.000000
0.800000 0.000000 0.000000
0.882353 0.000000 0.000000
0.972549 0.000000 0.000000
1.000000 0.000000 0.000000
1.000000 0.000000 0.000000
0.000000 0.000000 0.043137
0.000000 0.000000 0.043137
0.000000 0.000000 0.043137
0.035294 0.000000 0.043137
0.117647 0.000000 0.043137
0.219608 0.000000 0.031373
0.309804 0.000000 0.019608
0.423529 0.000000 0.003922
0.509804 0.000000 0.000000
0.607843 0.000000 0.000000
0.698039 0.000000 0.000000
0.800000 0.000000 0.000000
0.890196 0.000000 0.000000
0.972549 0.000000 0.000000
1.000000 0.000000 0.000000
1.000000 0.000000 0.000000
0.000000 0.019608 0.043137
0.000000 0.019608 0.043137
0.000000 0.023529 0.043137
0.039216 0.023529 0.043137
0.117647 0.023529 0.043137
0.223529 0.023529 0.031373
0.325490 0.023529 0.019608
0.423529 0.019608 0.003922
0.517647 0.023529 0.000000
0.607843 0.027451 0.000000
0.705882 0.023529 0.000000
0.796078 0.031373 0.000000
0.890196 0.031373 0.000000
0.972549 0.031373 0.000000
1.000000 0.031373 0.000000
1.000000 0.027451 0.000000
0.000000 0.098039 0.043137
0.000000 0.109804 0.043137
0.000000 0.105882 0.043137
0.027451 0.105882 0.043137
0.125490 0.109804 0.043137
0.215686 0.109804 0.035294
0.325490 0.109804 0.019608
0.423529 0.113725 0.003922
0.517647 0.109804 0.000000
0.607843 0.113725 0.000000
0.709804 0.113725 0.000000
0.800000 0.109804 0.000000
0.894118 0.113725 0.000000
0.972549 0.109804 0.000000
1.000000 0.113725 0.000000
1.000000 0.113725 0.000000
0.000000 0.188235 0.043137
0.000000 0.188235 0.043137
0.000000 0.192157 0.043137
0.039216 0.192157 0.043137
0.125490 0.188235 0.043137
0.223529 0.196078 0.031373
0.329412 0.192157 0.019608
0.435294 0.196078 0.003922
0.529412 0.196078 0.000000
0.607843 0.196078 0.000000
0.705882 0.203922 0.000000
0.800000 0.196078 0.000000
0.890196 0.200000 0.000000
0.980392 0.200000 0.000000
1.000000 0.200000 0.000000
1.000000 0.200000 0.000000
0.000000 0.278431 0.031373
0.000000 0.278431 0.031373
0.000000 0.274510 0.031373
0.058824 0.282353 0.031373
0.141176 0.278431 0.031373
0.223529 0.278431 0.031373
0.329412 0.286275 0.019608
0.435294 0.278431 0.003922
0.517647 0.278431 0.000000
0.615686 0.282353 0.000000
0.709804 0.282353 0.000000
0.815686 0.282353 0.000000
0.894118 0.286275 0.000000
0.984314 0.282353 0.000000
1.000000 0.290196 0.000000
1.000000 0.282353 0.000000
0.000000 0.360784 0.015686
0.000000 0.356863 0.015686
0.000000 0.360784 0.015686
0.078431 0.360784 0.015686
0.164706 0.372549 0.015686
0.250980 0.364706 0.015686
0.329412 0.364706 0.015686
0.435294 0.368627 0.003922
0.521569 0.368627 0.000000
0.607843 0.368627 0.000000
0.709804 0.368627 0.000000
0.807843 0.372549 0.000000
0.894118 0.368627 0.000000
0.980392 0.372549 0.000000
1.000000 0.368627 0.000000
1.000000 0.376471 0.000000
0.000000 0.447059 0.000000
0.000000 0.447059 0.000000
0.007843 0.443137 0.003922
0.098039 0.450980 0.000000
0.180392 0.447059 0.000000
0.258824 0.447059 0.000000
0.360784 0.450980 0.000000
0.439216 0.450980 0.000000
0.529412 0.450980 0.000000
0.611765 0.458824 0.000000
0.721569 0.450980 0.000000
0.807843 0.458824 0.000000
0.894118 0.450980 0.000000
0.980392 0.458824 0.000000
1.000000 0.454902 0.000000
1.000000 0.454902 0.000000
0.000000 0.529412 0.000000
0.000000 0.537255 0.000000
0.015686 0.533333 0.000000
0.094118 0.533333 0.000000
0.188235 0.537255 0.000000
0.270588 0.537255 0.000000
0.352941 0.533333 0.000000
0.443137 0.541176 0.000000
0.521569 0.541176 0.000000
0.619608 0.541176 0.000000
0.709804 0.537255 0.000000
0.815686 0.541176 0.000000
0.901961 0.541176 0.000000
0.984314 0.541176 0.000000
1.000000 0.541176 0.000000
1.000000 0.541176 0.000000
0.011765 0.619608 0.000000
0.011765 0.615686 0.000000
0.031373 0.623529 0.000000
0.117647 0.619608 0.000000
0.192157 0.619608 0.000000
0.290196 0.623529 0.000000
0.364706 0.627451 0.000000
0.450980 0.623529 0.000000
0.533333 0.623529 0.000000
0.623529 0.627451 0.000000
0.709804 0.623529 0.000000
0.815686 0.623529 0.000000
0.901961 0.627451 0.000000
0.992157 0.627451 0.000000
1.000000 0.627451 0.000000
1.000000 0.627451 0.000000
0.023529 0.701961 0.000000
0.023529 0.705882 0.000000
0.039216 0.705882 0.000000
0.125490 0.701961 0.000000
0.215686 0.709804 0.000000
0.298039 0.705882 0.000000
0.384314 0.709804 0.000000
0.466667 0.713725 0.000000
0.552941 0.705882 0.000000
0.635294 0.709804 0.000000
0.725490 0.709804 0.000000
0.807843 0.713725 0.000000
0.905882 0.709804 0.000000
0.980392 0.713725 0.000000
1.000000 0.713725 0.000000
1.000000 0.717647 0.000000
0.035294 0.788235 0.000000
0.035294 0.788235 0.000000
0.054902 0.796078 0.000000
0.137255 0.792157 0.000000
0.219608 0.788235 0.000000
0.309804 0.800000 0.000000
0.396078 0.792157 0.000000
0.474510 0.792157 0.000000
0.568627 0.796078 0.000000
0.647059 0.796078 0.000000
0.737255 0.796078 0.000000
0.815686 0.796078 0.000000
0.905882 0.796078 0.000000
0.992157 0.800000 0.000000
1.000000 0.796078 0.000000
1.000000 0.800000 0.000000
0.035294 0.878431 0.000000
0.035294 0.874510 0.000000
0.058824 0.870588 0.000000
0.145098 0.878431 0.000000
0.231373 0.874510 0.000000
0.309804 0.874510 0.000000
0.407843 0.882353 0.000000
0.486275 0.878431 0.000000
0.556863 0.882353 0.000000
0.647059 0.882353 0.000000
0.733333 0.886275 0.000000
0.823529 0.886275 0.000000
0.901961 0.886275 0.000000
0.992157 0.886275 0.000000
1.000000 0.890196 0.000000
1.000000 0.886275 0.000000
0.035294 0.960784 0.000000
0.035294 0.956863 0.000000
0.058824 0.964706 0.000000
0.141176 0.960784 0.000000
0.231373 0.968627 0.000000
0.317647 0.964706 0.000000
0.396078 0.964706 0.000000
0.486275 0.964706 0.000000
0.568627 0.968627 0.000000
0.654902 0.964706 0.000000
0.737255 0.968627 0.000000
0.827451 0.968627 0.000000
0.905882 0.968627 0.000000
0.996078 0.968627 0.000000
1.000000 0.968627 0.000000
1.000000 0.980392 0.000000
0.035294 1.000000 0.000000
0.035294 1.000000 0.000000
0.058824 1.000000 0.000000
0.152941 1.000000 0.000000
0.227451 1.000000 0.000000
0.317647 1.000000 0.000000
0.400000 1.000000 0.000000
0.478431 1.000000 0.000000
0.568627 1.000000 0.000000
0.650980 1.000000 0.000000
0.737255 1.000000 0.000000
0.823529 1.000000 0.000000
0.905882 1.000000 0.000000
0.992157 1.000000 0.000000
1.000000 1.000000 0.000000
1.000000 1.000000 0.000000
0.035294 1.000000 0.000000
0.035294 1.000000 0.000000
0.062745 1.000000 0.000000
0.141176 1.000000 0.000000
0.239216 1.000000 0.000000
0.317647 1.000000 0.000000
0.400000 1.000000 0.000000
0.490196 1.000000 0.000000
0.576471 1.000000 0.000000
0.654902 1.000000 0.000000
0.745098 1.000000 0.000000
0.823529 1.000000 0.000000
0.913725 1.000000 0.000000
0.992157 1.000000 0.000000
1.000000 1.000000 0.000000
1.000000 1.000000 0.000000
0.000000 0.000000 0.113725
0.000000 0.000000 0.082353
0.000000 0.000000 0.058824
0.031373 0.000000 0.043137
0.121569 0.000000 0.050980
0.215686 0.000000 0.035294
0.321569 0.000000 0.031373
0.419608 0.000000 0.003922
0.513725 0.000000 0.003922
0.611765 0.000000 0.007843
0.694118 0.000000 0.007843
0.803922 0.000000 0.003922
0.886275 0.000000 0.015686
0.968627 0.000000 0.007843
1.000000 0.000000 0.011765
1.000000 0.000000 0.015686
0.000000 0.000000 0.058824
0.000000 0.000000 0.043137
0.000000 0.000000 0.050980
0.035294 0.000000 0.043137
0.113725 0.000000 0.047059
0.215686 0.000000 0.035294
0.321569 0.000000 0.023529
0.419608 0.000000 0.007843
0.513725 0.000000 0.007843
0.611765 0.000000 0.003922
0.705882 0.000000 0.015686
0.796078 0.000000 0.007843
0.886275 0.000000 0.011765
0.976471 0.000000 0.015686
1.000000 0.000000 0.011765
1.000000 0.000000 0.003922
0.000000 0.015686 0.043137
0.000000 0.019608 0.058824
0.000000 0.019608 0.047059
0.035294 0.023529 0.043137
0.125490 0.023529 0.047059
0.211765 0.023529 0.039216
0.325490 0.023529 0.023529
0.419608 0.031373 0.007843
0.513725 0.023529 0.011765
0.603922 0.027451 0.007843
0.701961 0.023529 0.011765
0.796078 0.027451 0.007843
0.890196 0.027451 0.011765
0.968627 0.027451 0.003922
1.000000 0.031373 0.019608
1.000000 0.031373 0.011765
0.000000 0.105882 0.047059
0.000000 0.101961 0.047059
0.000000 0.109804 0.047059
0.035294 0.105882 0.054902
0.125490 0.109804 0.050980
0.223529 0.113725 0.035294
0.325490 0.105882 0.027451
0.431373 0.113725 0.011765
0.521569 0.105882 0.011765
0.611765 0.109804 0.007843
0.709804 0.113725 0.011765
0.803922 0.109804 0.003922
0.886275 0.117647 0.015686
0.976471 0.117647 0.011765
1.000000 0.113725 0.019608
1.000000 0.121569 0.019608
0.000000 0.192157 0.047059
0.000000 0.188235 0.054902
0.000000 0.192157 0.047059
0.039216 0.196078 0.058824
0.121569 0.196078 0.054902
0.215686 0.192157 0.043137
0.321569 0.196078 0.027451
0.435294 0.196078 0.015686
0.517647 0.200000 0.011765
0.611765 0.196078 0.003922
0.709804 0.200000 0.015686
0.811765 0.200000 0.011765
0.890196 0.200000 0.019608
0.976471 0.196078 0.007843
1.000000 0.203922 0.019608
1.000000 0.200000 0.015686
0.000000 0.274510 0.035294
0.000000 0.278431 0.050980
0.000000 0.278431 0.039216
0.058824 0.274510 0.039216
0.141176 0.278431 0.039216
0.235294 0.278431 0.043137
0.325490 0.278431 0.023529
0.439216 0.278431 0.019608
0.525490 0.282353 0.015686
0.623529 0.278431 0.015686
0.709804 0.282353 0.019608
0.796078 0.286275 0.007843
0.898039 0.290196 0.019608
0.976471 0.286275 0.015686
1.000000 0.282353 0.015686
1.000000 0.294118 0.015686
0.000000 0.364706 0.027451
0.000000 0.360784 0.027451
0.000000 0.360784 0.023529
0.082353 0.368627 0.027451
0.160784 0.364706 0.023529
0.250980 0.364706 0.031373
0.341176 0.368627 0.027451
0.435294 0.368627 0.015686
0.525490 0.368627 0.019608
0.615686 0.364706 0.015686
0.717647 0.368627 0.011765
0.811765 0.368627 0.023529
0.898039 0.364706 0.015686
0.988235 0.376471 0.015686
1.000000 0.368627 0.023529
1.000000 0.372549 0.015686
0.000000 0.443137 0.011765
0.000000 0.450980 0.015686
0.019608 0.447059 0.007843
0.098039 0.443137 0.015686
0.192157 0.450980 0.015686
0.266667 0.454902 0.015686
0.356863 0.454902 0.019608
0.435294 0.450980 0.015686
0.525490 0.454902 0.011765
0.619608 0.454902 0.023529
0.709804 0.454902 0.015686
0.811765 0.454902 0.027451
0.898039 0.458824 0.023529
0.980392 0.454902 0.023529
1.000000 0.454902 0.011765
1.000000 0.458824 0.023529
0.000000 0.533333 0.007843
0.000000 0.529412 0.015686
0.019608 0.541176 0.015686
0.101961 0.537255 0.015686
0.180392 0.533333 0.015686
0.270588 0.533333 0.015686
0.356863 0.541176 0.011765
0.443137 0.533333 0.019608
0.525490 0.537255 0.015686
0.631373 0.537255 0.027451
0.717647 0.545098 0.023529
0.819608 0.537255 0.023529
0.894118 0.541176 0.011765
0.988235 0.545098 0.031373
1.000000 0.545098 0.019608
1.000000 0.537255 0.027451
0.011765 0.615686 0.007843
0.011765 0.619608 0.015686
0.023529 0.619608 0.015686
0.113725 0.619608 0.015686
0.200000 0.627451 0.011765
0.282353 0.619608 0.019608
0.368627 0.623529 0.015686
0.462745 0.623529 0.027451
0.541176 0.623529 0.019608
0.623529 0.627451 0.023529
0.717647 0.623529 0.011765
0.811765 0.627451 0.023529
0.901961 0.627451 0.019608
0.984314 0.623529 0.027451
1.000000 0.631373 0.027451
1.000000 0.631373 0.027451
0.023529 0.701961 0.023529
0.023529 0.701961 0.011765
0.047059 0.709804 0.011765
0.129412 0.705882 0.019608
0.211765 0.701961 0.011765
0.298039 0.713725 0.027451
0.388235 0.705882 0.019608
0.466667 0.713725 0.023529
0.549020 0.709804 0.011765
0.635294 0.709804 0.023529
0.725490 0.713725 0.019608
0.811765 0.709804 0.027451
0.901961 0.713725 0.023529
0.988235 0.713725 0.027451
1.000000 0.709804 0.027451
1.000000 0.717647 0.035294
0.035294 0.792157 0.027451
0.035294 0.792157 0.019608
0.054902 0.788235 0.019608
0.145098 0.796078 0.027451
0.227451 0.792157 0.019608
0.309804 0.792157 0.019608
0.396078 0.792157 0.011765
0.482353 0.796078 0.023529
0.564706 0.800000 0.019608
0.650980 0.792157 0.027451
0.733333 0.800000 0.023529
0.823529 0.800000 0.027451
0.898039 0.800000 0.027451
0.988235 0.792157 0.027451
1.000000 0.803922 0.027451
1.000000 0.800000 0.031373
0.035294 0.870588 0.019608
0.035294 0.878431 0.027451
0.054902 0.878431 0.027451
0.137255 0.878431 0.019608
0.223529 0.878431 0.031373
0.313725 0.882353 0.023529
0.392157 0.882353 0.015686
0.482353 0.878431 0.027451
0.564706 0.886275 0.023529
0.650980 0.878431 0.023529
0.733333 0.882353 0.027451
0.819608 0.878431 0.027451
0.909804 0.890196 0.027451
0.992157 0.882353 0.031373
1.000000 0.882353 0.023529
1.000000 0.890196 0.031373
0.035294 0.964706 0.027451
0.035294 0.960784 0.019608
0.054902 0.956863 0.023529
0.149020 0.964706 0.023529
0.227451 0.960784 0.023529
0.317647 0.960784 0.027451
0.403922 0.964706 0.031373
0.486275 0.964706 0.023529
0.572549 0.964706 0.027451
0.643137 0.968627 0.027451
0.733333 0.968627 0.019608
0.819608 0.972549 0.031373
0.905882 0.968627 0.023529
0.988235 0.972549 0.027451
1.000000 0.972549 0.031373
1.000000 0.972549 0.031373
0.035294 1.000000 0.023529
0.035294 1.000000 0.023529
0.058824 1.000000 0.023529
0.137255 1.000000 0.023529
0.235294 1.000000 0.031373
0.313725 1.000000 0.023529
0.403922 1.000000 0.035294
0.482353 1.000000 0.027451
0.572549 1.000000 0.035294
0.654902 1.000000 0.031373
0.741176 1.000000 0.023529
0.823529 1.000000 0.027451
0.913725 1.000000 0.031373
0.992157 1.000000 0.031373
1.000000 1.000000 0.023529
1.000000 1.000000 0.039216
0.035294 1.000000 0.023529
0.035294 1.000000 0.023529
0.070588 1.000000 0.031373
0.149020 1.000000 0.023529
0.235294 1.000000 0.031373
0.313725 1.000000 0.027451
0.407843 1.000000 0.035294
0.482353 1.000000 0.027451
0.564706 1.000000 0.031373
0.654902 1.000000 0.027451
0.741176 1.000000 0.039216
0.823529 1.000000 0.031373
0.905882 1.000000 0.039216
1.000000 1.000000 0.039216
1.000000 1.000000 0.027451
1.000000 1.000000 0.035294
0.000000 0.000000 0.176471
0.000000 0.000000 0.160784
0.000000 0.000000 0.129412
0.039216 0.000000 0.137255
0.117647 0.000000 0.125490
0.219608 0.000000 0.117647
0.313725 0.000000 0.109804
0.423529 0.000000 0.098039
0.509804 0.000000 0.086275
0.603922 0.000000 0.094118
0.701961 0.000000 0.094118
0.800000 0.000000 0.090196
0.882353 0.000000 0.090196
0.972549 0.000000 0.098039
1.000000 0.000000 0.090196
1.000000 0.000000 0.098039
0.000000 0.000000 0.129412
0.000000 0.000000 0.137255
0.000000 0.000000 0.125490
0.039216 0.000000 0.129412
0.121569 0.000000 0.133333
0.207843 0.000000 0.125490
0.321569 0.000000 0.105882
0.419608 0.000000 0.098039
0.517647 0.000000 0.090196
0.607843 0.000000 0.090196
0.705882 0.000000 0.090196
0.800000 0.000000 0.098039
0.894118 0.000000 0.090196
0.968627 0.000000 0.098039
1.000000 0.000000 0.098039
1.000000 0.000000 0.105882
0.000000 0.015686 0.133333
0.000000 0.023529 0.129412
0.000000 0.023529 0.133333
0.031373 0.023529 0.133333
0.121569 0.023529 0.129412
0.219608 0.023529 0.125490
0.325490 0.023529 0.105882
0.431373 0.027451 0.090196
0.517647 0.023529 0.090196
0.611765 0.027451 0.094118
0.713725 0.027451 0.090196
0.803922 0.023529 0.098039
0.894118 0.035294 0.098039
0.976471 0.027451 0.105882
1.000000 0.027451 0.094118
1.000000 0.035294 0.105882
0.000000 0.105882 0.141176
0.000000 0.105882 0.133333
0.000000 0.101961 0.141176
0.039216 0.105882 0.137255
0.133333 0.109804 0.121569
0.243137 0.109804 0.105882
0.333333 0.113725 0.094118
0.435294 0.109804 0.094118
0.521569 0.117647 0.090196
0.623529 0.109804 0.098039
0.709804 0.109804 0.090196
0.807843 0.113725 0.105882
0.886275 0.113725 0.094118
0.972549 0.109804 0.094118
1.000000 0.121569 0.094118
1.000000 0.113725 0.101961
0.000000 0.188235 0.141176
0.000000 0.192157 0.137255
0.000000 0.196078 0.141176
0.054902 0.192157 0.117647
0.137255 0.192157 0.125490
0.243137 0.196078 0.109804
0.345098 0.196078 0.090196
0.435294 0.192157 0.098039
0.525490 0.196078 0.090196
0.635294 0.196078 0.105882
0.725490 0.196078 0.094118
0.803922 0.196078 0.094118
0.898039 0.203922 0.094118
0.972549 0.203922 0.101961
1.000000 0.200000 0.094118
1.000000 0.207843 0.109804
0.000000 0.278431 0.129412
0.000000 0.274510 0.117647
0.000000 0.274510 0.125490
0.078431 0.286275 0.105882
0.160784 0.278431 0.113725
0.247059 0.282353 0.109804
0.345098 0.278431 0.098039
0.431373 0.282353 0.101961
0.533333 0.282353 0.105882
0.619608 0.282353 0.094118
0.729412 0.290196 0.094118
0.807843 0.286275 0.101961
0.894118 0.282353 0.094118
0.984314 0.290196 0.109804
1.000000 0.286275 0.101961
1.000000 0.286275 0.101961
0.000000 0.356863 0.109804
0.000000 0.368627 0.109804
0.000000 0.360784 0.113725
0.098039 0.364706 0.098039
0.184314 0.360784 0.098039
0.266667 0.364706 0.101961
0.356863 0.364706 0.105882
0.439216 0.364706 0.094118
0.541176 0.364706 0.105882
0.635294 0.368627 0.101961
0.733333 0.364706 0.101961
0.803922 0.364706 0.101961
0.894118 0.376471 0.101961
0.980392 0.372549 0.101961
