public/luts/retro.cube
# Studiio — look « retro », genere par scripts/lut/generer-luts.mjs
# Source : les coefficients de LOOKS_RENDUS, calcules par ffmpeg lui-meme.
# Aucune LUT tierce, aucun telechargement : provenance et licence du depot.
LUT_3D_SIZE 6
DOMAIN_MIN 0.0 0.0 0.0
DOMAIN_MAX 1.0 1.0 1.0
0.082353 0.000000 0.000000
0.239216 0.000000 0.000000
0.400000 0.003922 0.000000
0.560784 0.015686 0.003922
0.725490 0.019608 0.047059
0.901961 0.027451 0.062745
0.082353 0.184314 0.000000
0.270588 0.188235 0.000000
0.411765 0.200000 0.007843
0.568627 0.207843 0.023529
0.737255 0.211765 0.070588
0.917647 0.227451 0.074510
0.054902 0.372549 0.003922
0.239216 0.384314 0.023529
0.411765 0.392157 0.027451
0.592157 0.400000 0.050980
0.752941 0.411765 0.086275
0.929412 0.419608 0.090196
0.054902 0.564706 0.035294
0.231373 0.576471 0.047059
0.415686 0.584314 0.050980
0.596078 0.588235 0.066667
0.764706 0.603922 0.101961
0.952941 0.611765 0.117647
0.047059 0.760784 0.090196
0.223529 0.768627 0.094118
0.415686 0.772549 0.105882
0.600000 0.784314 0.113725
0.784314 0.792157 0.117647
0.968627 0.796078 0.129412
0.058824 0.952941 0.105882
0.254902 0.960784 0.113725
0.431373 0.968627 0.125490
0.611765 0.980392 0.129412
0.800000 0.980392 0.141176
0.984314 0.996078 0.149020
0.082353 0.000000 0.125490
0.250980 0.000000 0.137255
0.396078 0.007843 0.156863
0.564706 0.019608 0.188235
0.725490 0.023529 0.223529
0.898039 0.031373 0.243137
0.086275 0.184314 0.149020
0.231373 0.196078 0.176471
0.392157 0.207843 0.188235
0.556863 0.207843 0.235294
0.733333 0.215686 0.247059
0.921569 0.227451 0.262745
0.058824 0.376471 0.184314
0.219608 0.388235 0.207843
0.407843 0.392157 0.223529
0.572549 0.403922 0.262745
0.749020 0.415686 0.266667
0.941176 0.415686 0.278431
0.050980 0.568627 0.215686
0.215686 0.580392 0.258824
0.400000 0.584314 0.270588
0.580392 0.592157 0.274510
0.776471 0.600000 0.282353
0.956863 0.615686 0.290196
0.050980 0.760784 0.270588
0.235294 0.768627 0.274510
0.411765 0.776471 0.278431
0.603922 0.788235 0.286275
0.788235 0.792157 0.298039
0.964706 0.803922 0.301961
0.070588 0.952941 0.278431
0.250980 0.964706 0.294118
0.431373 0.976471 0.298039
0.619608 0.976471 0.309804
0.800000 0.988235 0.313725
0.988235 0.996078 0.325490
0.054902 0.000000 0.329412
0.215686 0.003922 0.333333
0.407843 0.011765 0.352941
0.568627 0.019608 0.360784
0.721569 0.027451 0.403922
0.909804 0.031373 0.415686
0.050980 0.192157 0.349020
0.215686 0.200000 0.356863
0.396078 0.203922 0.372549
0.556863 0.215686 0.411765
0.741176 0.223529 0.431373
0.925490 0.231373 0.435294
0.058824 0.380392 0.356863
0.231373 0.388235 0.388235
0.392157 0.403922 0.431373
0.568627 0.411765 0.435294
0.760784 0.411765 0.447059
0.937255 0.423529 0.450980
0.054902 0.576471 0.396078
0.219608 0.580392 0.439216
0.400000 0.592157 0.443137
0.588235 0.592157 0.454902
0.776471 0.611765 0.470588
0.956863 0.619608 0.474510
0.054902 0.764706 0.443137
0.231373 0.772549 0.454902
0.423529 0.784314 0.462745
0.607843 0.788235 0.474510
0.784314 0.800000 0.478431
0.976471 0.803922 0.482353
0.070588 0.960784 0.470588
0.254902 0.968627 0.474510
0.439216 0.972549 0.478431
0.619608 0.984314 0.482353
0.807843 0.996078 0.494118
0.992157 1.000000 0.505882
0.027451 0.000000 0.513725
0.203922 0.003922 0.525490
0.388235 0.015686 0.533333
0.560784 0.027451 0.541176
0.733333 0.027451 0.584314
0.905882 0.035294 0.596078
0.035294 0.196078 0.533333
0.200000 0.200000 0.576471
0.376471 0.207843 0.584314
0.564706 0.211765 0.600000
0.745098 0.227451 0.603922
0.925490 0.235294 0.615686
0.047059 0.380392 0.556863
0.211765 0.392157 0.600000
0.396078 0.403922 0.603922
0.580392 0.411765 0.615686
0.756863 0.419608 0.619608
0.941176 0.423529 0.635294
0.058824 0.576471 0.576471
0.223529 0.584314 0.611765
0.407843 0.588235 0.623529
0.588235 0.600000 0.627451
0.768627 0.611765 0.639216
0.964706 0.619608 0.654902
0.050980 0.768627 0.623529
0.235294 0.776471 0.627451
0.427451 0.788235 0.647059
0.603922 0.796078 0.650980
0.796078 0.796078 0.662745
0.972549 0.807843 0.666667
0.074510 0.964706 0.647059
0.258824 0.972549 0.650980
0.439216 0.980392 0.662745
0.623529 0.984314 0.666667
0.811765 0.996078 0.682353
0.992157 1.000000 0.686275
0.011765 0.003922 0.721569
0.184314 0.007843 0.725490
0.372549 0.019608 0.737255
0.552941 0.023529 0.752941
0.729412 0.035294 0.756863
0.905882 0.043137 0.776471
0.019608 0.196078 0.745098
0.192157 0.207843 0.760784
0.380392 0.207843 0.772549
0.560784 0.215686 0.776471
0.745098 0.231373 0.788235
0.933333 0.231373 0.800000
0.023529 0.384314 0.760784
0.203922 0.392157 0.772549
0.400000 0.403922 0.796078
0.576471 0.415686 0.800000
0.768627 0.415686 0.811765
0.952941 0.431373 0.811765
0.043137 0.580392 0.788235
0.227451 0.584314 0.800000
0.407843 0.592157 0.807843
0.596078 0.607843 0.807843
0.780392 0.611765 0.819608
0.964706 0.623529 0.827451
0.054902 0.772549 0.807843
0.247059 0.784314 0.815686
0.431373 0.788235 0.819608
0.615686 0.796078 0.831373
0.792157 0.803922 0.835294
0.976471 0.819608 0.843137
0.078431 0.968627 0.819608
0.258824 0.976471 0.831373
0.443137 0.984314 0.835294
0.631373 0.992157 0.850980
0.807843 1.000000 0.854902
1.000000 1.000000 0.866667
0.000000 0.003922 0.917647
0.184314 0.015686 0.925490
0.368627 0.019608 0.933333
0.545098 0.031373 0.937255
0.729412 0.035294 0.949020
0.921569 0.047059 0.956863
0.015686 0.200000 0.933333
0.196078 0.207843 0.945098
0.380392 0.215686 0.949020
0.568627 0.223529 0.956863
0.752941 0.231373 0.968627
0.933333 0.239216 0.972549
0.023529 0.388235 0.941176
0.215686 0.396078 0.960784
0.396078 0.411765 0.968627
0.588235 0.411765 0.980392
0.764706 0.423529 0.984314
0.949020 0.435294 0.992157
0.047059 0.580392 0.972549
0.227451 0.592157 0.976471
0.411765 0.596078 0.980392
0.600000 0.607843 0.996078
0.776471 0.615686 1.000000
0.972549 0.623529 1.000000
0.058824 0.772549 0.988235
0.250980 0.784314 0.996078
0.435294 0.788235 1.000000
0.611765 0.800000 1.000000
0.796078 0.807843 1.000000
0.984314 0.815686 1.000000
0.082353 0.968627 1.000000
0.262745 0.976471 1.000000
0.447059 0.984314 1.000000
0.635294 0.996078 1.000000
0.819608 1.000000 1.000000
1.000000 1.000000 1.000000
