public/luts/retro.cube
# Studiio — look « retro », genere par scripts/lut/generer-luts.mjs
# Source : les coefficients de LOOKS_RENDUS, calcules par ffmpeg lui-meme.
# Aucune LUT tierce, aucun telechargement : provenance et licence du depot.
LUT_3D_SIZE 16
DOMAIN_MIN 0.0 0.0 0.0
DOMAIN_MAX 1.0 1.0 1.0
0.082353 0.000000 0.000000
0.117647 0.000000 0.000000
0.184314 0.000000 0.000000
0.239216 0.000000 0.000000
0.305882 0.000000 0.000000
0.352941 0.003922 0.000000
0.400000 0.003922 0.000000
0.447059 0.011765 0.000000
0.501961 0.011765 0.007843
0.560784 0.015686 0.003922
0.619608 0.019608 0.023529
0.670588 0.023529 0.023529
0.725490 0.019608 0.047059
0.776471 0.031373 0.058824
0.847059 0.023529 0.058824
0.901961 0.027451 0.062745
0.082353 0.054902 0.000000
0.129412 0.054902 0.000000
0.188235 0.058824 0.000000
0.250980 0.062745 0.000000
0.309804 0.062745 0.000000
0.352941 0.066667 0.000000
0.403922 0.074510 0.000000
0.454902 0.074510 0.000000
0.501961 0.074510 0.003922
0.568627 0.082353 0.003922
0.615686 0.082353 0.027451
0.674510 0.086275 0.039216
0.729412 0.090196 0.047059
0.780392 0.086275 0.062745
0.843137 0.094118 0.070588
0.905882 0.094118 0.062745
0.082353 0.117647 0.000000
0.137255 0.117647 0.000000
0.192157 0.121569 0.000000
0.254902 0.121569 0.000000
0.313725 0.133333 0.000000
0.360784 0.133333 0.000000
0.407843 0.137255 0.000000
0.458824 0.141176 0.000000
0.505882 0.141176 0.015686
0.572549 0.141176 0.007843
0.627451 0.145098 0.027451
0.682353 0.145098 0.043137
0.733333 0.152941 0.062745
0.792157 0.152941 0.062745
0.847059 0.152941 0.074510
0.909804 0.160784 0.074510
0.082353 0.184314 0.000000
0.137255 0.184314 0.000000
0.200000 0.180392 0.000000
0.270588 0.188235 0.000000
0.317647 0.192157 0.000000
0.368627 0.196078 0.000000
0.411765 0.200000 0.007843
0.458824 0.200000 0.015686
0.517647 0.207843 0.015686
0.568627 0.207843 0.023529
0.627451 0.207843 0.035294
0.686275 0.211765 0.047059
0.737255 0.211765 0.070588
0.792157 0.215686 0.066667
0.862745 0.223529 0.078431
0.917647 0.227451 0.074510
0.074510 0.243137 0.000000
0.133333 0.254902 0.000000
0.200000 0.254902 0.000000
0.250980 0.254902 0.000000
0.325490 0.258824 0.000000
0.368627 0.258824 0.000000
0.415686 0.258824 0.003922
0.458824 0.266667 0.027451
0.521569 0.266667 0.019608
0.576471 0.270588 0.035294
0.631373 0.270588 0.050980
0.682353 0.274510 0.050980
0.745098 0.282353 0.074510
0.800000 0.286275 0.074510
0.866667 0.282353 0.086275
0.929412 0.290196 0.082353
0.070588 0.313725 0.000000
0.125490 0.313725 0.000000
0.188235 0.317647 0.000000
0.247059 0.321569 0.003922
0.305882 0.321569 0.000000
0.364706 0.325490 0.015686
0.419608 0.325490 0.011765
0.462745 0.325490 0.023529
0.525490 0.333333 0.031373
0.584314 0.329412 0.039216
0.639216 0.345098 0.054902
0.694118 0.341176 0.070588
0.741176 0.345098 0.082353
0.807843 0.349020 0.082353
0.862745 0.352941 0.086275
0.925490 0.352941 0.090196
0.054902 0.372549 0.003922
0.121569 0.376471 0.007843
0.176471 0.380392 0.003922
0.239216 0.384314 0.023529
0.294118 0.388235 0.015686
0.356863 0.384314 0.019608
0.411765 0.392157 0.027451
0.466667 0.392157 0.031373
0.529412 0.400000 0.031373
0.592157 0.400000 0.050980
0.643137 0.403922 0.066667
0.698039 0.400000 0.074510
0.752941 0.411765 0.086275
0.815686 0.407843 0.098039
0.874510 0.415686 0.094118
0.929412 0.419608 0.090196
0.043137 0.443137 0.011765
0.105882 0.439216 0.023529
0.172549 0.443137 0.019608
0.231373 0.443137 0.023529
0.290196 0.447059 0.027451
0.356863 0.447059 0.031373
0.415686 0.458824 0.031373
0.474510 0.462745 0.039216
0.537255 0.462745 0.043137
0.584314 0.466667 0.054902
0.643137 0.470588 0.066667
0.698039 0.466667 0.090196
0.756863 0.466667 0.090196
0.815686 0.474510 0.098039
0.878431 0.474510 0.101961
0.937255 0.474510 0.101961
0.050980 0.505882 0.019608
0.105882 0.505882 0.023529
0.168627 0.505882 0.027451
0.231373 0.513725 0.031373
0.301961 0.513725 0.031373
0.356863 0.517647 0.035294
0.419608 0.521569 0.047059
0.478431 0.521569 0.047059
0.545098 0.521569 0.043137
0.596078 0.529412 0.070588
0.650980 0.529412 0.070588
0.701961 0.537255 0.090196
0.760784 0.533333 0.101961
0.815686 0.537255 0.101961
0.882353 0.541176 0.101961
0.945098 0.541176 0.105882
0.054902 0.564706 0.035294
0.109804 0.568627 0.039216
0.176471 0.576471 0.043137
0.231373 0.576471 0.047059
0.298039 0.580392 0.054902
0.352941 0.584314 0.058824
0.415686 0.584314 0.050980
0.478431 0.584314 0.070588
0.533333 0.588235 0.062745
0.596078 0.588235 0.066667
0.654902 0.596078 0.086275
0.709804 0.596078 0.098039
0.764706 0.603922 0.101961
0.827451 0.600000 0.105882
0.886275 0.607843 0.109804
0.952941 0.611765 0.117647
0.050980 0.635294 0.062745
0.109804 0.635294 0.058824
0.168627 0.635294 0.066667
0.235294 0.639216 0.066667
0.290196 0.643137 0.062745
0.356863 0.647059 0.082353
0.411765 0.650980 0.074510
0.474510 0.650980 0.078431
0.529412 0.654902 0.086275
0.600000 0.650980 0.086275
0.654902 0.654902 0.082353
0.713725 0.658824 0.101961
0.772549 0.666667 0.109804
0.835294 0.666667 0.113725
0.898039 0.674510 0.113725
0.952941 0.674510 0.125490
0.043137 0.694118 0.074510
0.105882 0.701961 0.078431
0.168627 0.701961 0.082353
0.231373 0.698039 0.082353
0.290196 0.705882 0.090196
0.352941 0.705882 0.086275
0.407843 0.709804 0.086275
0.470588 0.713725 0.098039
0.533333 0.717647 0.094118
0.588235 0.721569 0.101961
0.654902 0.725490 0.109804
0.717647 0.725490 0.113725
0.784314 0.729412 0.113725
0.839216 0.729412 0.125490
0.901961 0.733333 0.117647
0.960784 0.737255 0.125490
0.047059 0.760784 0.090196
0.101961 0.764706 0.090196
0.168627 0.764706 0.098039
0.223529 0.768627 0.094118
0.294118 0.764706 0.094118
0.352941 0.772549 0.101961
0.415686 0.772549 0.105882
0.470588 0.776471 0.101961
0.541176 0.784314 0.109804
0.600000 0.784314 0.113725
0.666667 0.792157 0.113725
0.721569 0.792157 0.125490
0.784314 0.792157 0.117647
0.843137 0.800000 0.125490
0.905882 0.800000 0.129412
0.968627 0.796078 0.129412
0.050980 0.819608 0.094118
0.113725 0.827451 0.094118
0.172549 0.827451 0.094118
0.235294 0.835294 0.101961
0.298039 0.831373 0.105882
0.352941 0.835294 0.101961
0.423529 0.843137 0.117647
0.486275 0.843137 0.113725
0.541176 0.847059 0.117647
0.607843 0.850980 0.125490
0.662745 0.850980 0.125490
0.725490 0.850980 0.121569
0.788235 0.858824 0.129412
0.847059 0.858824 0.129412
0.909804 0.866667 0.129412
0.972549 0.866667 0.133333
0.054902 0.886275 0.094118
0.117647 0.886275 0.098039
0.176471 0.894118 0.105882
0.239216 0.894118 0.101961
0.301961 0.898039 0.113725
0.368627 0.905882 0.113725
0.423529 0.905882 0.117647
0.490196 0.909804 0.125490
0.545098 0.913725 0.125490
0.611765 0.909804 0.121569
0.674510 0.917647 0.129412
0.737255 0.913725 0.129412
0.792157 0.917647 0.133333
0.850980 0.925490 0.133333
0.913725 0.925490 0.133333
0.968627 0.925490 0.137255
0.058824 0.952941 0.105882
0.121569 0.952941 0.101961
0.188235 0.956863 0.113725
0.254902 0.960784 0.113725
0.309804 0.964706 0.117647
0.364706 0.964706 0.117647
0.431373 0.968627 0.125490
0.486275 0.972549 0.121569
0.549020 0.972549 0.121569
0.611765 0.980392 0.129412
0.674510 0.976471 0.133333
0.741176 0.984314 0.133333
0.800000 0.980392 0.141176
0.858824 0.984314 0.137255
0.929412 0.992157 0.149020
0.984314 0.996078 0.149020
0.082353 0.000000 0.007843
0.121569 0.000000 0.019608
0.184314 0.000000 0.011765
0.250980 0.000000 0.019608
0.309804 0.000000 0.019608
0.352941 0.000000 0.031373
0.403922 0.003922 0.039216
0.447059 0.007843 0.050980
0.505882 0.015686 0.066667
0.560784 0.019608 0.066667
0.611765 0.023529 0.074510
0.670588 0.023529 0.101961
0.721569 0.023529 0.105882
0.780392 0.023529 0.117647
0.843137 0.031373 0.117647
0.905882 0.027451 0.125490
0.082353 0.050980 0.019608
0.129412 0.058824 0.019608
0.188235 0.062745 0.015686
0.247059 0.058824 0.023529
0.294118 0.070588 0.031373
0.345098 0.066667 0.043137
0.396078 0.070588 0.054902
0.450980 0.074510 0.066667
0.505882 0.078431 0.062745
0.564706 0.082353 0.090196
0.611765 0.086275 0.094118
0.670588 0.082353 0.105882
0.721569 0.090196 0.117647
0.784314 0.090196 0.125490
0.839216 0.094118 0.121569
0.913725 0.094118 0.129412
0.082353 0.117647 0.023529
0.137255 0.117647 0.023529
0.196078 0.125490 0.031373
0.254902 0.125490 0.031373
0.301961 0.133333 0.039216
0.349020 0.137255 0.054902
0.396078 0.141176 0.058824
0.447059 0.137255 0.070588
0.513725 0.141176 0.074510
0.564706 0.145098 0.086275
0.615686 0.145098 0.090196
0.670588 0.149020 0.117647
0.729412 0.149020 0.121569
0.788235 0.156863 0.129412
0.850980 0.156863 0.129412
0.905882 0.156863 0.133333
0.082353 0.176471 0.027451
0.137255 0.184314 0.031373
0.200000 0.188235 0.043137
0.254902 0.192157 0.039216
0.305882 0.196078 0.054902
0.349020 0.196078 0.062745
0.400000 0.200000 0.078431
0.450980 0.203922 0.074510
0.513725 0.203922 0.066667
0.568627 0.211765 0.098039
0.627451 0.207843 0.105882
0.674510 0.211765 0.113725
0.737255 0.215686 0.129412
0.792157 0.215686 0.133333
0.858824 0.219608 0.133333
0.921569 0.227451 0.145098
0.078431 0.247059 0.043137
0.121569 0.250980 0.047059
0.188235 0.254902 0.054902
0.247059 0.254902 0.054902
0.305882 0.254902 0.058824
0.356863 0.262745 0.066667
0.403922 0.262745 0.074510
0.462745 0.266667 0.082353
0.521569 0.266667 0.094118
0.572549 0.270588 0.094118
0.623529 0.278431 0.113725
0.678431 0.278431 0.129412
0.741176 0.282353 0.133333
0.807843 0.282353 0.145098
0.862745 0.286275 0.141176
0.925490 0.286275 0.145098
0.070588 0.313725 0.054902
0.113725 0.313725 0.062745
0.168627 0.317647 0.066667
0.235294 0.321569 0.066667
0.286275 0.325490 0.066667
0.356863 0.321569 0.070588
0.403922 0.329412 0.086275
0.466667 0.329412 0.078431
0.517647 0.329412 0.098039
0.576471 0.333333 0.109804
0.631373 0.341176 0.129412
0.690196 0.345098 0.145098
0.745098 0.349020 0.141176
0.807843 0.349020 0.145098
0.866667 0.356863 0.141176
0.937255 0.349020 0.152941
0.058824 0.376471 0.066667
0.105882 0.376471 0.070588
0.164706 0.384314 0.074510
0.227451 0.380392 0.078431
0.286275 0.388235 0.086275
0.349020 0.388235 0.078431
0.403922 0.388235 0.090196
0.470588 0.396078 0.090196
0.529412 0.400000 0.109804
0.580392 0.400000 0.117647
0.639216 0.403922 0.137255
0.686275 0.407843 0.145098
0.749020 0.407843 0.145098
0.811765 0.411765 0.152941
0.874510 0.415686 0.149020
0.933333 0.419608 0.152941
0.050980 0.439216 0.074510
0.105882 0.443137 0.078431
0.168627 0.439216 0.082353
0.227451 0.450980 0.078431
0.290196 0.447059 0.090196
0.349020 0.450980 0.086275
0.419608 0.458824 0.101961
0.474510 0.462745 0.101961
0.533333 0.462745 0.117647
0.580392 0.466667 0.125490
0.643137 0.462745 0.137255
0.698039 0.470588 0.152941
0.760784 0.470588 0.156863
0.815686 0.474510 0.149020
0.882353 0.474510 0.164706
0.937255 0.478431 0.160784
0.050980 0.501961 0.082353
0.105882 0.509804 0.086275
0.168627 0.505882 0.098039
0.231373 0.509804 0.094118
0.298039 0.517647 0.109804
0.352941 0.517647 0.109804
0.415686 0.517647 0.113725
0.474510 0.525490 0.117647
0.533333 0.529412 0.117647
0.592157 0.533333 0.133333
0.639216 0.533333 0.149020
0.698039 0.533333 0.149020
0.764706 0.537255 0.164706
0.827451 0.537255 0.160784
0.882353 0.537255 0.160784
0.952941 0.549020 0.172549
0.050980 0.568627 0.098039
0.101961 0.568627 0.105882
0.164706 0.580392 0.121569
0.227451 0.580392 0.121569
0.282353 0.580392 0.125490
0.356863 0.584314 0.125490
0.411765 0.584314 0.125490
0.474510 0.584314 0.129412
0.529412 0.592157 0.141176
0.596078 0.592157 0.133333
0.643137 0.592157 0.152941
0.705882 0.596078 0.160784
0.760784 0.600000 0.160784
0.835294 0.607843 0.172549
0.890196 0.611765 0.176471
0.952941 0.611765 0.172549
0.050980 0.631373 0.109804
0.109804 0.635294 0.129412
0.160784 0.639216 0.137255
0.227451 0.639216 0.129412
0.286275 0.647059 0.137255
0.345098 0.643137 0.141176
0.407843 0.650980 0.152941
0.470588 0.650980 0.141176
0.533333 0.650980 0.156863
0.588235 0.658824 0.156863
0.650980 0.658824 0.156863
0.705882 0.658824 0.164706
0.776471 0.666667 0.176471
0.831373 0.670588 0.172549
0.894118 0.670588 0.172549
0.956863 0.678431 0.180392
0.050980 0.694118 0.137255
0.101961 0.698039 0.149020
0.168627 0.701961 0.145098
0.223529 0.705882 0.156863
0.286275 0.705882 0.152941
0.345098 0.713725 0.149020
0.407843 0.709804 0.160784
0.462745 0.713725 0.156863
0.529412 0.717647 0.160784
0.588235 0.721569 0.164706
0.662745 0.725490 0.176471
0.721569 0.729412 0.172549
0.780392 0.729412 0.172549
0.843137 0.733333 0.180392
0.905882 0.733333 0.184314
0.960784 0.737255 0.176471
0.050980 0.764706 0.145098
0.105882 0.764706 0.156863
0.168627 0.764706 0.152941
0.235294 0.768627 0.156863
0.294118 0.768627 0.160784
0.352941 0.768627 0.164706
0.419608 0.776471 0.160784
0.474510 0.776471 0.164706
0.533333 0.784314 0.172549
0.600000 0.788235 0.172549
0.658824 0.792157 0.172549
0.725490 0.796078 0.180392
0.784314 0.792157 0.184314
0.847059 0.796078 0.176471
0.909804 0.800000 0.192157
0.968627 0.800000 0.188235
0.047059 0.827451 0.152941
0.109804 0.823529 0.152941
0.172549 0.831373 0.160784
0.231373 0.831373 0.164706
0.294118 0.839216 0.160784
0.360784 0.835294 0.164706
0.423529 0.843137 0.172549
0.490196 0.843137 0.180392
0.545098 0.847059 0.172549
0.607843 0.847059 0.176471
0.666667 0.854902 0.184314
0.729412 0.854902 0.176471
0.784314 0.854902 0.188235
0.850980 0.862745 0.188235
0.905882 0.862745 0.188235
0.972549 0.866667 0.196078
0.058824 0.890196 0.160784
0.121569 0.886275 0.164706
0.176471 0.890196 0.156863
0.243137 0.894118 0.164706
0.301961 0.901961 0.172549
0.364706 0.901961 0.172549
0.423529 0.909804 0.172549
0.486275 0.905882 0.184314
0.552941 0.913725 0.184314
0.611765 0.913725 0.184314
0.670588 0.913725 0.188235
0.733333 0.921569 0.196078
0.796078 0.921569 0.188235
0.850980 0.921569 0.192157
0.917647 0.925490 0.200000
0.976471 0.933333 0.196078
0.062745 0.949020 0.156863
0.125490 0.956863 0.164706
0.192157 0.960784 0.172549
0.247059 0.960784 0.172549
0.313725 0.968627 0.172549
0.368627 0.968627 0.184314
0.431373 0.968627 0.176471
0.490196 0.976471 0.184314
0.552941 0.972549 0.188235
0.611765 0.980392 0.196078
0.682353 0.976471 0.188235
0.737255 0.980392 0.192157
0.803922 0.984314 0.200000
0.866667 0.992157 0.203922
0.921569 0.996078 0.200000
0.988235 0.996078 0.207843
0.082353 0.000000 0.066667
0.129412 0.000000 0.074510
0.192157 0.000000 0.078431
0.247059 0.000000 0.070588
0.305882 0.003922 0.090196
0.352941 0.003922 0.090196
0.400000 0.011765 0.101961
0.447059 0.011765 0.105882
0.498039 0.015686 0.125490
0.564706 0.019608 0.129412
0.611765 0.023529 0.137255
0.674510 0.019608 0.152941
0.725490 0.027451 0.172549
0.784314 0.027451 0.172549
0.839216 0.027451 0.184314
0.905882 0.031373 0.184314
0.082353 0.058824 0.078431
0.129412 0.058824 0.070588
0.188235 0.062745 0.086275
0.247059 0.062745 0.086275
0.298039 0.062745 0.090196
0.345098 0.066667 0.098039
0.392157 0.074510 0.121569
0.447059 0.074510 0.117647
0.505882 0.082353 0.129412
0.560784 0.078431 0.141176
0.615686 0.086275 0.160784
0.662745 0.090196 0.164706
0.721569 0.086275 0.184314
0.788235 0.094118 0.184314
0.850980 0.090196 0.184314
0.905882 0.094118 0.180392
0.082353 0.117647 0.082353
0.137255 0.121569 0.090196
0.192157 0.121569 0.086275
0.239216 0.133333 0.090196
0.286275 0.133333 0.113725
0.333333 0.137255 0.113725
0.396078 0.137255 0.125490
0.450980 0.141176 0.129412
0.505882 0.137255 0.141176
0.556863 0.149020 0.152941
0.611765 0.145098 0.176471
0.662745 0.149020 0.176471
0.729412 0.152941 0.184314
0.788235 0.156863 0.180392
0.854902 0.156863 0.196078
0.913725 0.164706 0.192157
0.082353 0.180392 0.082353
0.133333 0.184314 0.090196
0.184314 0.192157 0.109804
0.243137 0.192157 0.109804
0.298039 0.200000 0.117647
0.337255 0.200000 0.125490
0.396078 0.200000 0.129412
0.454902 0.207843 0.133333
0.509804 0.203922 0.156863
0.564706 0.207843 0.156863
0.615686 0.211765 0.176471
0.674510 0.211765 0.180392
0.729412 0.215686 0.192157
0.800000 0.223529 0.192157
0.858824 0.227451 0.196078
0.925490 0.231373 0.203922
0.082353 0.250980 0.101961
0.129412 0.250980 0.109804
0.172549 0.254902 0.113725
0.235294 0.254902 0.129412
0.290196 0.258824 0.121569
0.341176 0.258824 0.133333
0.400000 0.266667 0.141176
0.454902 0.266667 0.149020
0.509804 0.274510 0.156863
0.568627 0.274510 0.164706
0.615686 0.274510 0.184314
0.690196 0.282353 0.192157
0.745098 0.282353 0.196078
0.807843 0.282353 0.200000
0.866667 0.290196 0.203922
0.929412 0.290196 0.200000
0.066667 0.313725 0.105882
0.117647 0.317647 0.129412
0.160784 0.321569 0.129412
0.219608 0.321569 0.133333
0.286275 0.321569 0.141176
0.349020 0.321569 0.145098
0.403922 0.325490 0.137255
0.466667 0.329412 0.152941
0.513725 0.333333 0.168627
0.568627 0.329412 0.176471
0.623529 0.345098 0.192157
0.682353 0.345098 0.200000
0.749020 0.349020 0.203922
0.811765 0.349020 0.200000
0.870588 0.349020 0.211765
0.933333 0.356863 0.211765
0.058824 0.376471 0.121569
0.105882 0.376471 0.133333
0.160784 0.380392 0.137255
0.223529 0.388235 0.145098
0.286275 0.388235 0.137255
0.345098 0.392157 0.145098
0.411765 0.388235 0.149020
0.466667 0.392157 0.156863
0.529412 0.400000 0.172549
0.576471 0.403922 0.196078
0.631373 0.403922 0.200000
0.690196 0.407843 0.207843
0.752941 0.407843 0.211765
0.811765 0.415686 0.211765
0.874510 0.415686 0.211765
0.933333 0.419608 0.207843
0.050980 0.435294 0.137255
0.109804 0.443137 0.145098
0.168627 0.443137 0.145098
0.223529 0.447059 0.149020
0.286275 0.450980 0.156863
0.341176 0.450980 0.156863
0.411765 0.462745 0.164706
0.470588 0.462745 0.180392
0.525490 0.462745 0.180392
0.584314 0.466667 0.200000
0.635294 0.470588 0.211765
0.698039 0.466667 0.211765
0.756863 0.474510 0.211765
0.819608 0.474510 0.215686
0.874510 0.478431 0.215686
0.941176 0.482353 0.215686
0.050980 0.505882 0.137255
0.109804 0.501961 0.149020
0.164706 0.509804 0.168627
0.227451 0.509804 0.168627
0.286275 0.517647 0.168627
0.349020 0.521569 0.188235
0.403922 0.525490 0.180392
0.466667 0.521569 0.184314
0.525490 0.529412 0.196078
0.580392 0.529412 0.203922
0.639216 0.537255 0.211765
0.705882 0.533333 0.215686
0.760784 0.533333 0.215686
0.827451 0.537255 0.223529
0.886275 0.541176 0.219608
0.952941 0.545098 0.235294
0.047059 0.564706 0.149020
0.105882 0.568627 0.168627
0.160784 0.580392 0.180392
0.223529 0.580392 0.200000
0.286275 0.580392 0.188235
0.345098 0.580392 0.196078
0.407843 0.588235 0.203922
0.470588 0.584314 0.203922
0.525490 0.588235 0.200000
0.584314 0.596078 0.211765
0.643137 0.596078 0.215686
0.698039 0.596078 0.219608
0.764706 0.603922 0.219608
0.831373 0.603922 0.235294
0.898039 0.611765 0.231373
0.952941 0.611765 0.235294
0.050980 0.635294 0.180392
0.101961 0.635294 0.192157
0.160784 0.643137 0.200000
0.215686 0.643137 0.203922
0.278431 0.643137 0.207843
0.341176 0.650980 0.211765
0.407843 0.647059 0.207843
0.466667 0.654902 0.215686
0.529412 0.650980 0.215686
0.584314 0.654902 0.219608
0.650980 0.658824 0.219608
0.713725 0.666667 0.235294
0.776471 0.666667 0.227451
0.835294 0.674510 0.235294
0.898039 0.670588 0.239216
0.956863 0.678431 0.243137
0.050980 0.698039 0.200000
0.105882 0.701961 0.203922
0.164706 0.701961 0.207843
0.227451 0.705882 0.211765
0.290196 0.705882 0.207843
0.345098 0.709804 0.211765
0.411765 0.713725 0.215686
0.466667 0.713725 0.219608
0.533333 0.721569 0.219608
0.600000 0.721569 0.235294
0.654902 0.725490 0.227451
0.721569 0.729412 0.235294
0.780392 0.733333 0.239216
0.839216 0.733333 0.239216
0.901961 0.741176 0.239216
0.964706 0.737255 0.243137
0.047059 0.760784 0.207843
0.113725 0.764706 0.211765
0.168627 0.768627 0.215686
0.231373 0.768627 0.211765
0.294118 0.772549 0.223529
0.352941 0.772549 0.219608
0.411765 0.776471 0.215686
0.482353 0.784314 0.235294
0.537255 0.788235 0.227451
0.600000 0.784314 0.231373
0.658824 0.792157 0.239216
0.729412 0.788235 0.239216
0.788235 0.796078 0.239216
0.850980 0.796078 0.243137
0.905882 0.800000 0.243137
0.968627 0.803922 0.250980
0.050980 0.827451 0.215686
0.113725 0.827451 0.211765
0.168627 0.827451 0.219608
0.235294 0.835294 0.219608
0.298039 0.831373 0.223529
0.368627 0.839216 0.235294
0.423529 0.843137 0.235294
0.486275 0.843137 0.231373
0.549020 0.850980 0.239216
0.603922 0.850980 0.239216
0.666667 0.854902 0.235294
0.725490 0.858824 0.243137
0.788235 0.858824 0.243137
0.850980 0.858824 0.247059
0.917647 0.862745 0.247059
0.972549 0.862745 0.254902
0.054902 0.886275 0.219608
0.117647 0.894118 0.219608
0.180392 0.894118 0.223529
0.239216 0.898039 0.227451
0.305882 0.901961 0.235294
0.360784 0.905882 0.231373
0.435294 0.905882 0.239216
0.490196 0.909804 0.239216
0.552941 0.909804 0.243137
0.611765 0.917647 0.243137
0.674510 0.917647 0.243137
0.729412 0.917647 0.247059
0.796078 0.925490 0.247059
0.854902 0.925490 0.254902
0.913725 0.925490 0.250980
0.980392 0.937255 0.262745
0.066667 0.949020 0.223529
0.125490 0.956863 0.227451
0.192157 0.960784 0.235294
0.250980 0.964706 0.231373
0.309804 0.964706 0.231373
0.372549 0.968627 0.239216
0.435294 0.968627 0.243137
0.490196 0.972549 0.235294
0.556863 0.976471 0.250980
0.619608 0.976471 0.247059
0.678431 0.984314 0.254902
0.741176 0.980392 0.254902
0.796078 0.984314 0.258824
0.866667 0.992157 0.262745
0.921569 0.996078 0.262745
0.984314 0.996078 0.266667
0.082353 0.000000 0.125490
0.129412 0.000000 0.133333
0.188235 0.000000 0.133333
0.250980 0.000000 0.137255
0.305882 0.000000 0.137255
0.356863 0.003922 0.152941
0.396078 0.007843 0.156863
0.450980 0.015686 0.184314
0.501961 0.019608 0.180392
0.564706 0.019608 0.188235
0.623529 0.023529 0.200000
0.678431 0.019608 0.215686
0.725490 0.023529 0.223529
0.780392 0.031373 0.239216
0.843137 0.031373 0.239216
0.898039 0.031373 0.243137
0.082353 0.058824 0.133333
0.133333 0.058824 0.137255
0.196078 0.058824 0.137255
0.254902 0.062745 0.149020
0.298039 0.066667 0.152941
0.341176 0.070588 0.168627
0.392157 0.074510 0.176471
0.443137 0.078431 0.184314
0.505882 0.078431 0.180392
0.560784 0.086275 0.207843
0.611765 0.086275 0.211765
0.666667 0.090196 0.231373
0.729412 0.086275 0.239216
0.784314 0.090196 0.243137
0.850980 0.094118 0.243137
0.909804 0.094118 0.250980
0.082353 0.117647 0.145098
0.133333 0.125490 0.145098
0.180392 0.125490 0.149020
0.235294 0.133333 0.164706
0.290196 0.137255 0.172549
0.337255 0.137255 0.184314
0.392157 0.137255 0.176471
0.450980 0.141176 0.196078
0.509804 0.141176 0.203922
0.556863 0.145098 0.215686
0.615686 0.149020 0.231373
0.666667 0.149020 0.243137
0.729412 0.156863 0.243137
0.788235 0.156863 0.250980
0.850980 0.156863 0.247059
0.921569 0.164706 0.258824
0.086275 0.184314 0.149020
0.137255 0.188235 0.156863
0.184314 0.188235 0.168627
0.231373 0.196078 0.176471
0.278431 0.200000 0.172549
0.337255 0.203922 0.192157
0.392157 0.207843 0.188235
0.450980 0.200000 0.203922
0.505882 0.207843 0.219608
0.556863 0.207843 0.235294
0.611765 0.211765 0.239216
0.678431 0.211765 0.250980
0.733333 0.215686 0.247059
0.800000 0.219608 0.254902
0.858824 0.227451 0.254902
0.921569 0.227451 0.262745
0.082353 0.247059 0.160784
0.129412 0.254902 0.168627
0.172549 0.254902 0.180392
0.223529 0.254902 0.188235
0.278431 0.262745 0.196078
0.341176 0.262745 0.192157
0.396078 0.262745 0.196078
0.450980 0.266667 0.215686
0.501961 0.270588 0.219608
0.560784 0.274510 0.247059
0.619608 0.274510 0.247059
0.682353 0.282353 0.254902
0.749020 0.286275 0.254902
0.803922 0.286275 0.262745
0.866667 0.286275 0.258824
0.925490 0.294118 0.266667
0.066667 0.317647 0.172549
0.113725 0.317647 0.180392
0.164706 0.317647 0.196078
0.223529 0.321569 0.192157
0.282353 0.321569 0.200000
0.345098 0.329412 0.200000
0.403922 0.329412 0.211765
0.450980 0.329412 0.219608
0.509804 0.333333 0.239216
0.564706 0.341176 0.250980
0.627451 0.349020 0.254902
0.682353 0.349020 0.262745
0.752941 0.345098 0.258824
0.811765 0.352941 0.266667
0.874510 0.349020 0.266667
0.929412 0.352941 0.270588
0.058824 0.376471 0.184314
0.101961 0.384314 0.192157
0.164706 0.380392 0.200000
0.219608 0.388235 0.207843
0.282353 0.388235 0.211765
0.345098 0.388235 0.211765
0.407843 0.392157 0.223529
0.466667 0.400000 0.231373
0.517647 0.400000 0.243137
0.572549 0.403922 0.262745
0.635294 0.403922 0.266667
0.690196 0.407843 0.258824
0.749020 0.415686 0.266667
0.811765 0.411765 0.270588
