public/luts/teal-orange.cube
# Studiio — look « teal-orange », genere par scripts/lut/generer-luts.mjs
# Source : les coefficients de LOOKS_RENDUS, calcules par ffmpeg lui-meme.
# Aucune LUT tierce, aucun telechargement : provenance et licence du depot.
LUT_3D_SIZE 16
DOMAIN_MIN 0.0 0.0 0.0
DOMAIN_MAX 1.0 1.0 1.0
0.000000 0.015686 0.098039
0.000000 0.015686 0.098039
0.007843 0.015686 0.098039
0.078431 0.015686 0.098039
0.156863 0.011765 0.090196
0.258824 0.007843 0.062745
0.356863 0.003922 0.031373
0.454902 0.000000 0.000000
0.541176 0.000000 0.000000
0.631373 0.003922 0.000000
0.741176 0.007843 0.000000
0.835294 0.011765 0.000000
0.921569 0.015686 0.000000
0.996078 0.015686 0.000000
1.000000 0.015686 0.000000
1.000000 0.015686 0.000000
0.000000 0.027451 0.098039
0.000000 0.031373 0.098039
0.003922 0.023529 0.098039
0.082353 0.031373 0.098039
0.168627 0.027451 0.090196
0.254902 0.019608 0.062745
0.368627 0.015686 0.027451
0.458824 0.007843 0.000000
0.529412 0.011765 0.000000
0.635294 0.015686 0.000000
0.729412 0.019608 0.000000
0.835294 0.019608 0.000000
0.917647 0.027451 0.000000
0.992157 0.019608 0.000000
1.000000 0.027451 0.000000
1.000000 0.019608 0.000000
0.000000 0.105882 0.098039
0.000000 0.105882 0.098039
0.003922 0.109804 0.098039
0.078431 0.101961 0.098039
0.164706 0.105882 0.090196
0.258824 0.094118 0.062745
0.349020 0.094118 0.035294
0.458824 0.086275 0.000000
0.533333 0.086275 0.000000
0.631373 0.086275 0.000000
0.733333 0.094118 0.000000
0.835294 0.094118 0.000000
0.917647 0.101961 0.000000
0.992157 0.098039 0.000000
1.000000 0.098039 0.000000
1.000000 0.098039 0.000000
0.000000 0.188235 0.098039
0.000000 0.180392 0.098039
0.000000 0.176471 0.098039
0.082353 0.180392 0.098039
0.156863 0.176471 0.090196
0.266667 0.168627 0.058824
0.364706 0.168627 0.027451
0.458824 0.156863 0.000000
0.533333 0.164706 0.000000
0.623529 0.164706 0.000000
0.729412 0.168627 0.000000
0.827451 0.172549 0.000000
0.917647 0.176471 0.000000
0.984314 0.172549 0.000000
1.000000 0.172549 0.000000
1.000000 0.168627 0.000000
0.000000 0.250980 0.086275
0.000000 0.254902 0.082353
0.015686 0.254902 0.082353
0.078431 0.250980 0.086275
0.168627 0.254902 0.082353
0.247059 0.247059 0.062745
0.356863 0.239216 0.031373
0.447059 0.235294 0.003922
0.533333 0.235294 0.000000
0.623529 0.243137 0.000000
0.729412 0.243137 0.000000
0.823529 0.247059 0.000000
0.917647 0.250980 0.000000
0.988235 0.250980 0.000000
1.000000 0.247059 0.000000
1.000000 0.247059 0.000000
0.000000 0.325490 0.054902
0.000000 0.321569 0.054902
0.035294 0.329412 0.054902
0.105882 0.325490 0.054902
0.192157 0.321569 0.054902
0.262745 0.321569 0.054902
0.356863 0.317647 0.031373
0.447059 0.309804 0.003922
0.525490 0.317647 0.000000
0.623529 0.313725 0.000000
0.725490 0.325490 0.000000
0.823529 0.321569 0.000000
0.909804 0.329412 0.000000
0.996078 0.325490 0.000000
1.000000 0.325490 0.000000
1.000000 0.321569 0.000000
0.000000 0.400000 0.023529
0.000000 0.396078 0.027451
0.050980 0.400000 0.023529
0.125490 0.396078 0.027451
0.203922 0.400000 0.023529
0.278431 0.388235 0.027451
0.356863 0.396078 0.027451
0.447059 0.384314 0.003922
0.525490 0.388235 0.000000
0.623529 0.388235 0.000000
0.725490 0.396078 0.000000
0.823529 0.392157 0.000000
0.909804 0.403922 0.000000
0.992157 0.396078 0.000000
1.000000 0.400000 0.000000
1.000000 0.400000 0.000000
0.000000 0.470588 0.000000
0.000000 0.466667 0.000000
0.066667 0.470588 0.000000
0.149020 0.462745 0.000000
0.223529 0.462745 0.000000
0.301961 0.462745 0.000000
0.372549 0.466667 0.000000
0.447059 0.466667 0.000000
0.525490 0.466667 0.000000
0.615686 0.466667 0.000000
0.725490 0.474510 0.000000
0.811765 0.474510 0.000000
0.913725 0.474510 0.000000
0.988235 0.474510 0.000000
1.000000 0.474510 0.000000
1.000000 0.470588 0.000000
0.003922 0.549020 0.000000
0.000000 0.545098 0.000000
0.066667 0.545098 0.000000
0.137255 0.545098 0.000000
0.223529 0.541176 0.000000
0.294118 0.537255 0.000000
0.376471 0.541176 0.000000
0.443137 0.537255 0.000000
0.525490 0.537255 0.000000
0.615686 0.541176 0.000000
0.717647 0.545098 0.000000
0.819608 0.549020 0.000000
0.917647 0.549020 0.000000
0.984314 0.545098 0.000000
1.000000 0.552941 0.000000
1.000000 0.549020 0.000000
0.027451 0.623529 0.000000
0.027451 0.623529 0.000000
0.101961 0.623529 0.000000
0.164706 0.619608 0.000000
0.254902 0.623529 0.000000
0.317647 0.619608 0.000000
0.392157 0.619608 0.000000
0.470588 0.619608 0.000000
0.541176 0.619608 0.000000
0.615686 0.615686 0.000000
0.713725 0.627451 0.000000
0.823529 0.619608 0.000000
0.913725 0.631373 0.000000
0.988235 0.623529 0.000000
1.000000 0.627451 0.000000
1.000000 0.627451 0.000000
0.050980 0.705882 0.000000
0.050980 0.701961 0.000000
0.109804 0.701961 0.000000
0.196078 0.698039 0.000000
0.266667 0.701961 0.000000
0.349020 0.698039 0.000000
0.419608 0.701961 0.000000
0.490196 0.694118 0.000000
0.572549 0.701961 0.000000
0.643137 0.694118 0.000000
0.721569 0.698039 0.000000
0.823529 0.698039 0.000000
0.909804 0.701961 0.000000
0.984314 0.698039 0.000000
1.000000 0.701961 0.000000
1.000000 0.701961 0.000000
0.074510 0.780392 0.000000
0.074510 0.780392 0.000000
0.141176 0.780392 0.000000
0.215686 0.776471 0.000000
0.294118 0.780392 0.000000
0.368627 0.776471 0.000000
0.439216 0.776471 0.000000
0.513725 0.780392 0.000000
0.592157 0.780392 0.000000
0.666667 0.780392 0.000000
0.752941 0.776471 0.000000
0.819608 0.772549 0.000000
0.909804 0.780392 0.000000
0.984314 0.780392 0.000000
1.000000 0.776471 0.000000
1.000000 0.780392 0.000000
0.082353 0.862745 0.000000
0.082353 0.862745 0.000000
0.152941 0.862745 0.000000
0.219608 0.858824 0.000000
0.298039 0.858824 0.000000
0.372549 0.858824 0.000000
0.450980 0.854902 0.000000
0.517647 0.854902 0.000000
0.603922 0.858824 0.000000
0.670588 0.854902 0.000000
0.760784 0.854902 0.000000
0.835294 0.854902 0.000000
0.909804 0.850980 0.000000
0.984314 0.858824 0.000000
1.000000 0.854902 0.000000
1.000000 0.854902 0.000000
0.082353 0.933333 0.000000
0.082353 0.933333 0.000000
0.149020 0.933333 0.000000
0.219608 0.937255 0.000000
0.301961 0.933333 0.000000
0.368627 0.933333 0.000000
0.447059 0.937255 0.000000
0.521569 0.933333 0.000000
0.592157 0.933333 0.000000
0.682353 0.933333 0.000000
0.752941 0.929412 0.000000
0.827451 0.925490 0.000000
0.905882 0.933333 0.000000
0.984314 0.929412 0.000000
1.000000 0.933333 0.000000
1.000000 0.929412 0.000000
0.082353 1.000000 0.000000
0.082353 1.000000 0.000000
0.145098 1.000000 0.000000
0.219608 1.000000 0.000000
0.290196 1.000000 0.000000
0.372549 1.000000 0.000000
0.443137 1.000000 0.000000
0.525490 1.000000 0.000000
0.596078 1.000000 0.000000
0.674510 1.000000 0.000000
0.752941 1.000000 0.000000
0.831373 1.000000 0.000000
0.901961 1.000000 0.000000
0.980392 1.000000 0.000000
1.000000 1.000000 0.000000
1.000000 1.000000 0.000000
0.082353 1.000000 0.000000
0.082353 1.000000 0.000000
0.141176 1.000000 0.000000
0.219608 1.000000 0.000000
0.294118 1.000000 0.000000
0.360784 1.000000 0.000000
0.447059 1.000000 0.000000
0.513725 1.000000 0.000000
0.600000 1.000000 0.000000
0.678431 1.000000 0.000000
0.752941 1.000000 0.000000
0.827451 1.000000 0.000000
0.901961 1.000000 0.000000
0.976471 1.000000 0.000000
1.000000 1.000000 0.000000
1.000000 1.000000 0.000000
0.000000 0.015686 0.098039
0.000000 0.015686 0.098039
0.007843 0.015686 0.098039
0.082353 0.015686 0.098039
0.168627 0.011765 0.090196
0.258824 0.007843 0.062745
0.364706 0.003922 0.027451
0.447059 0.000000 0.003922
0.541176 0.000000 0.000000
0.635294 0.003922 0.000000
0.729412 0.007843 0.000000
0.839216 0.011765 0.000000
0.917647 0.015686 0.000000
0.992157 0.015686 0.000000
1.000000 0.015686 0.000000
1.000000 0.015686 0.000000
0.000000 0.027451 0.101961
0.000000 0.031373 0.098039
0.003922 0.031373 0.098039
0.078431 0.027451 0.098039
0.164706 0.031373 0.090196
0.258824 0.019608 0.062745
0.352941 0.015686 0.031373
0.454902 0.011765 0.000000
0.525490 0.011765 0.000000
0.635294 0.011765 0.000000
0.733333 0.019608 0.000000
0.835294 0.015686 0.000000
0.921569 0.027451 0.000000
0.996078 0.019608 0.000000
1.000000 0.023529 0.000000
1.000000 0.023529 0.000000
0.000000 0.109804 0.098039
0.000000 0.101961 0.098039
0.007843 0.105882 0.105882
0.082353 0.101961 0.098039
0.156863 0.101961 0.090196
0.262745 0.094118 0.058824
0.352941 0.094118 0.031373
0.458824 0.078431 0.000000
0.537255 0.086275 0.000000
0.623529 0.086275 0.000000
0.729412 0.090196 0.000000
0.827451 0.094118 0.000000
0.917647 0.098039 0.000000
0.996078 0.105882 0.000000
1.000000 0.098039 0.000000
1.000000 0.094118 0.000000
0.000000 0.180392 0.098039
0.000000 0.184314 0.098039
0.003922 0.180392 0.098039
0.074510 0.180392 0.098039
0.164706 0.176471 0.090196
0.247059 0.168627 0.062745
0.356863 0.168627 0.031373
0.443137 0.164706 0.003922
0.533333 0.160784 0.000000
0.623529 0.164706 0.000000
0.733333 0.168627 0.000000
0.823529 0.168627 0.000000
0.917647 0.176471 0.000000
0.988235 0.172549 0.000000
1.000000 0.172549 0.000000
1.000000 0.176471 0.000000
0.000000 0.250980 0.086275
0.000000 0.250980 0.086275
0.019608 0.254902 0.082353
0.082353 0.250980 0.086275
0.160784 0.250980 0.086275
0.254902 0.247059 0.062745
0.364706 0.239216 0.027451
0.454902 0.235294 0.000000
0.533333 0.235294 0.000000
0.623529 0.235294 0.000000
0.729412 0.247059 0.000000
0.827451 0.243137 0.000000
0.909804 0.250980 0.000000
0.992157 0.254902 0.000000
1.000000 0.250980 0.000000
1.000000 0.247059 0.000000
0.000000 0.325490 0.054902
0.000000 0.321569 0.054902
0.027451 0.325490 0.054902
0.105882 0.325490 0.054902
0.180392 0.325490 0.054902
0.254902 0.321569 0.054902
0.349020 0.321569 0.035294
0.447059 0.309804 0.003922
0.525490 0.309804 0.000000
0.623529 0.313725 0.000000
0.725490 0.317647 0.000000
0.835294 0.325490 0.000000
0.913725 0.329412 0.000000
0.992157 0.325490 0.000000
1.000000 0.329412 0.000000
1.000000 0.321569 0.000000
0.000000 0.396078 0.027451
0.000000 0.392157 0.027451
0.050980 0.396078 0.027451
0.125490 0.392157 0.027451
0.203922 0.396078 0.027451
0.282353 0.388235 0.027451
0.356863 0.392157 0.027451
0.454902 0.384314 0.000000
0.529412 0.388235 0.000000
0.615686 0.388235 0.000000
0.725490 0.392157 0.000000
0.823529 0.400000 0.000000
0.909804 0.396078 0.000000
0.988235 0.407843 0.000000
1.000000 0.396078 0.000000
1.000000 0.403922 0.000000
0.000000 0.470588 0.000000
0.000000 0.466667 0.000000
0.066667 0.466667 0.000000
0.141176 0.470588 0.000000
0.219608 0.466667 0.000000
0.286275 0.462745 0.000000
0.376471 0.462745 0.000000
0.447059 0.462745 0.000000
0.529412 0.462745 0.000000
0.623529 0.470588 0.000000
0.725490 0.466667 0.000000
0.823529 0.478431 0.000000
0.909804 0.474510 0.000000
0.984314 0.478431 0.000000
1.000000 0.474510 0.000000
1.000000 0.474510 0.000000
0.000000 0.541176 0.000000
0.000000 0.545098 0.000000
0.070588 0.541176 0.000000
0.137255 0.541176 0.000000
0.227451 0.541176 0.000000
0.294118 0.537255 0.000000
0.376471 0.533333 0.000000
0.450980 0.541176 0.000000
0.521569 0.537255 0.000000
0.623529 0.549020 0.000000
0.713725 0.549020 0.000000
0.823529 0.549020 0.000000
0.905882 0.556863 0.000000
0.992157 0.552941 0.000000
1.000000 0.545098 0.000000
1.000000 0.552941 0.000000
0.027451 0.627451 0.000000
0.023529 0.619608 0.000000
0.090196 0.627451 0.000000
0.160784 0.619608 0.000000
0.235294 0.619608 0.000000
0.329412 0.623529 0.000000
0.392157 0.619608 0.000000
0.466667 0.615686 0.000000
0.545098 0.619608 0.000000
0.623529 0.619608 0.000000
0.713725 0.619608 0.000000
0.823529 0.627451 0.000000
0.905882 0.627451 0.000000
0.996078 0.627451 0.000000
1.000000 0.623529 0.000000
1.000000 0.627451 0.000000
0.050980 0.701961 0.000000
0.050980 0.698039 0.000000
0.113725 0.701961 0.000000
0.188235 0.694118 0.000000
0.270588 0.698039 0.000000
0.341176 0.694118 0.000000
0.423529 0.701961 0.000000
0.494118 0.701961 0.000000
0.568627 0.698039 0.000000
0.647059 0.701961 0.000000
0.717647 0.694118 0.000000
0.811765 0.701961 0.000000
0.913725 0.701961 0.000000
0.984314 0.705882 0.000000
1.000000 0.698039 0.000000
1.000000 0.701961 0.000000
0.078431 0.784314 0.000000
0.074510 0.780392 0.000000
0.141176 0.784314 0.000000
0.207843 0.780392 0.000000
0.290196 0.776471 0.000000
0.372549 0.784314 0.000000
0.443137 0.776471 0.000000
0.517647 0.780392 0.000000
0.596078 0.776471 0.000000
0.670588 0.780392 0.000000
0.749020 0.776471 0.000000
0.819608 0.780392 0.000000
0.909804 0.772549 0.000000
0.988235 0.780392 0.000000
1.000000 0.772549 0.000000
1.000000 0.776471 0.000000
0.082353 0.862745 0.000000
0.082353 0.858824 0.000000
0.149020 0.854902 0.000000
0.227451 0.862745 0.000000
0.301961 0.858824 0.000000
0.372549 0.858824 0.000000
0.454902 0.854902 0.000000
0.525490 0.858824 0.000000
0.596078 0.854902 0.000000
0.678431 0.858824 0.000000
0.745098 0.854902 0.000000
0.835294 0.854902 0.000000
0.905882 0.854902 0.000000
0.984314 0.850980 0.000000
1.000000 0.850980 0.000000
1.000000 0.854902 0.000000
0.082353 0.941176 0.000000
0.082353 0.933333 0.000000
0.137255 0.941176 0.000000
0.223529 0.933333 0.000000
0.298039 0.937255 0.000000
0.376471 0.933333 0.000000
0.443137 0.933333 0.000000
0.529412 0.933333 0.000000
0.596078 0.933333 0.000000
0.674510 0.933333 0.000000
0.749020 0.933333 0.000000
0.835294 0.929412 0.000000
0.901961 0.925490 0.000000
0.984314 0.929412 0.000000
1.000000 0.925490 0.000000
1.000000 0.933333 0.000000
0.082353 1.000000 0.000000
0.082353 1.000000 0.000000
0.141176 1.000000 0.000000
0.227451 1.000000 0.000000
0.294118 1.000000 0.000000
0.372549 1.000000 0.000000
0.447059 1.000000 0.000000
0.517647 1.000000 0.000000
0.600000 1.000000 0.000000
0.670588 1.000000 0.000000
0.752941 1.000000 0.000000
0.831373 1.000000 0.000000
0.905882 1.000000 0.000000
0.976471 1.000000 0.000000
1.000000 1.000000 0.000000
1.000000 1.000000 0.000000
0.082353 1.000000 0.000000
0.082353 1.000000 0.000000
0.145098 1.000000 0.000000
0.215686 1.000000 0.000000
0.298039 1.000000 0.000000
0.368627 1.000000 0.000000
0.443137 1.000000 0.000000
0.521569 1.000000 0.000000
0.596078 1.000000 0.000000
0.674510 1.000000 0.000000
0.752941 1.000000 0.000000
0.827451 1.000000 0.000000
0.905882 1.000000 0.000000
0.980392 1.000000 0.000000
1.000000 1.000000 0.000000
1.000000 1.000000 0.000000
0.000000 0.015686 0.172549
0.000000 0.015686 0.164706
0.011765 0.015686 0.172549
0.082353 0.015686 0.168627
0.164706 0.011765 0.164706
0.258824 0.007843 0.129412
0.356863 0.003922 0.109804
0.454902 0.000000 0.066667
0.529412 0.000000 0.070588
0.635294 0.003922 0.047059
0.729412 0.007843 0.031373
0.839216 0.011765 0.007843
0.921569 0.015686 0.000000
1.000000 0.015686 0.000000
1.000000 0.015686 0.000000
1.000000 0.015686 0.000000
0.000000 0.035294 0.172549
0.000000 0.023529 0.168627
0.007843 0.031373 0.172549
0.082353 0.027451 0.164706
0.164706 0.023529 0.160784
0.266667 0.019608 0.121569
0.356863 0.015686 0.098039
0.450980 0.007843 0.058824
0.529412 0.011765 0.070588
0.643137 0.011765 0.047059
0.741176 0.015686 0.027451
0.839216 0.023529 0.003922
0.917647 0.019608 0.000000
0.996078 0.027451 0.000000
1.000000 0.019608 0.000000
1.000000 0.023529 0.000000
0.000000 0.105882 0.164706
0.000000 0.101961 0.172549
0.003922 0.101961 0.172549
0.082353 0.101961 0.160784
0.184314 0.094118 0.133333
0.270588 0.090196 0.098039
0.376471 0.090196 0.074510
0.454902 0.090196 0.070588
0.545098 0.090196 0.047059
0.647059 0.098039 0.031373
0.756863 0.090196 0.011765
0.839216 0.098039 0.000000
0.921569 0.098039 0.000000
0.992157 0.101961 0.000000
1.000000 0.098039 0.000000
1.000000 0.098039 0.000000
0.000000 0.180392 0.172549
0.000000 0.176471 0.168627
0.015686 0.176471 0.156863
0.082353 0.172549 0.160784
0.188235 0.172549 0.133333
0.278431 0.172549 0.105882
0.372549 0.160784 0.070588
0.454902 0.168627 0.066667
0.560784 0.160784 0.050980
0.650980 0.168627 0.027451
0.752941 0.172549 0.011765
0.843137 0.176471 0.000000
0.909804 0.172549 0.000000
0.996078 0.176471 0.000000
1.000000 0.172549 0.000000
1.000000 0.176471 0.000000
0.000000 0.250980 0.156863
0.000000 0.247059 0.160784
0.027451 0.247059 0.125490
0.113725 0.250980 0.133333
0.176471 0.247059 0.125490
0.266667 0.235294 0.105882
0.368627 0.239216 0.074510
0.450980 0.239216 0.070588
0.545098 0.243137 0.054902
0.654902 0.247059 0.023529
0.745098 0.247059 0.007843
0.843137 0.250980 0.000000
0.913725 0.250980 0.000000
0.992157 0.247059 0.000000
1.000000 0.247059 0.000000
1.000000 0.250980 0.000000
0.000000 0.325490 0.121569
0.000000 0.325490 0.133333
0.047059 0.321569 0.094118
0.121569 0.313725 0.098039
0.203922 0.321569 0.098039
0.282353 0.317647 0.098039
0.360784 0.313725 0.074510
0.458824 0.309804 0.074510
0.545098 0.313725 0.047059
0.654902 0.313725 0.031373
0.749020 0.321569 0.003922
0.835294 0.329412 0.000000
0.913725 0.325490 0.000000
0.988235 0.329412 0.000000
1.000000 0.321569 0.000000
1.000000 0.329412 0.000000
0.000000 0.396078 0.090196
0.000000 0.392157 0.094118
0.066667 0.388235 0.066667
0.145098 0.396078 0.070588
0.215686 0.388235 0.066667
0.298039 0.392157 0.074510
0.368627 0.388235 0.066667
0.443137 0.388235 0.070588
0.545098 0.392157 0.047059
0.647059 0.396078 0.031373
0.745098 0.392157 0.007843
0.839216 0.403922 0.000000
0.913725 0.396078 0.000000
0.988235 0.407843 0.000000
1.000000 0.400000 0.000000
1.000000 0.400000 0.000000
0.000000 0.466667 0.066667
0.000000 0.470588 0.070588
0.070588 0.466667 0.062745
0.141176 0.466667 0.070588
0.223529 0.466667 0.062745
0.294118 0.466667 0.070588
0.380392 0.462745 0.058824
0.454902 0.462745 0.066667
0.545098 0.462745 0.047059
0.647059 0.470588 0.031373
0.737255 0.474510 0.003922
0.835294 0.474510 0.000000
0.909804 0.478431 0.000000
0.988235 0.474510 0.000000
1.000000 0.474510 0.000000
1.000000 0.474510 0.000000
0.000000 0.541176 0.062745
0.000000 0.541176 0.070588
0.090196 0.549020 0.043137
0.168627 0.545098 0.050980
0.231373 0.545098 0.039216
0.321569 0.549020 0.047059
0.384314 0.545098 0.047059
0.470588 0.541176 0.047059
0.541176 0.541176 0.043137
0.647059 0.545098 0.031373
0.737255 0.552941 0.003922
0.835294 0.552941 0.000000
0.905882 0.552941 0.000000
0.988235 0.552941 0.000000
1.000000 0.549020 0.000000
1.000000 0.545098 0.000000
0.027451 0.623529 0.035294
0.027451 0.623529 0.047059
0.105882 0.627451 0.019608
0.192157 0.627451 0.027451
0.262745 0.623529 0.023529
0.345098 0.619608 0.027451
0.415686 0.623529 0.023529
0.498039 0.619608 0.027451
0.564706 0.619608 0.019608
0.647059 0.623529 0.027451
0.737255 0.623529 0.000000
0.827451 0.627451 0.000000
0.905882 0.627451 0.000000
0.980392 0.627451 0.000000
1.000000 0.623529 0.000000
1.000000 0.623529 0.000000
0.050980 0.698039 0.027451
0.050980 0.701961 0.019608
0.133333 0.705882 0.003922
0.207843 0.705882 0.003922
0.278431 0.701961 0.000000
0.364706 0.705882 0.003922
0.435294 0.698039 0.000000
0.521569 0.705882 0.003922
0.588235 0.701961 0.000000
0.666667 0.701961 0.000000
0.741176 0.698039 0.000000
0.831373 0.705882 0.000000
0.905882 0.698039 0.000000
0.980392 0.705882 0.000000
1.000000 0.698039 0.000000
1.000000 0.701961 0.000000
0.074510 0.780392 0.007843
0.078431 0.784314 0.000000
0.145098 0.780392 0.000000
0.223529 0.788235 0.000000
0.301961 0.780392 0.000000
0.376471 0.780392 0.000000
0.454902 0.780392 0.000000
0.529412 0.780392 0.000000
0.600000 0.784314 0.000000
0.678431 0.780392 0.000000
0.749020 0.780392 0.000000
0.831373 0.780392 0.000000
0.898039 0.780392 0.000000
0.984314 0.772549 0.000000
1.000000 0.776471 0.000000
1.000000 0.772549 0.000000
0.082353 0.858824 0.000000
0.082353 0.862745 0.000000
0.141176 0.862745 0.000000
0.219608 0.858824 0.000000
0.290196 0.858824 0.000000
0.376471 0.858824 0.000000
0.447059 0.854902 0.000000
0.529412 0.858824 0.000000
0.596078 0.854902 0.000000
0.678431 0.850980 0.000000
0.749020 0.854902 0.000000
0.827451 0.854902 0.000000
0.901961 0.858824 0.000000
0.988235 0.850980 0.000000
1.000000 0.847059 0.000000
1.000000 0.854902 0.000000
0.082353 0.937255 0.000000
0.082353 0.937255 0.000000
0.137255 0.933333 0.000000
0.227451 0.933333 0.000000
0.294118 0.929412 0.000000
0.380392 0.933333 0.000000
0.447059 0.929412 0.000000
0.525490 0.929412 0.000000
0.600000 0.933333 0.000000
0.670588 0.933333 0.000000
0.745098 0.929412 0.000000
0.823529 0.933333 0.000000
0.905882 0.925490 0.000000
0.976471 0.925490 0.000000
1.000000 0.929412 0.000000
1.000000 0.925490 0.000000
0.082353 1.000000 0.000000
0.082353 1.000000 0.000000
0.137255 1.000000 0.000000
0.211765 1.000000 0.000000
0.298039 1.000000 0.000000
0.368627 1.000000 0.000000
0.450980 1.000000 0.000000
0.521569 1.000000 0.000000
0.596078 1.000000 0.000000
0.674510 1.000000 0.000000
0.749020 1.000000 0.000000
0.823529 1.000000 0.000000
0.909804 1.000000 0.000000
0.980392 1.000000 0.000000
1.000000 1.000000 0.000000
1.000000 1.000000 0.000000
0.082353 1.000000 0.000000
0.082353 1.000000 0.000000
0.145098 1.000000 0.000000
0.219608 1.000000 0.000000
0.294118 1.000000 0.000000
0.372549 1.000000 0.000000
0.447059 1.000000 0.000000
0.517647 1.000000 0.000000
0.592157 1.000000 0.000000
0.670588 1.000000 0.000000
0.749020 1.000000 0.000000
0.831373 1.000000 0.000000
0.898039 1.000000 0.000000
0.980392 1.000000 0.000000
1.000000 1.000000 0.000000
1.000000 1.000000 0.000000
0.000000 0.015686 0.247059
0.000000 0.015686 0.250980
0.003922 0.015686 0.243137
0.090196 0.015686 0.250980
0.164706 0.011765 0.231373
0.266667 0.007843 0.211765
0.356863 0.003922 0.176471
0.462745 0.000000 0.149020
0.529412 0.000000 0.145098
0.635294 0.003922 0.133333
0.729412 0.007843 0.101961
0.843137 0.011765 0.086275
0.917647 0.015686 0.066667
0.996078 0.015686 0.078431
1.000000 0.015686 0.070588
1.000000 0.015686 0.070588
0.000000 0.035294 0.243137
0.000000 0.031373 0.250980
0.000000 0.031373 0.239216
0.090196 0.027451 0.250980
0.164706 0.023529 0.231373
0.262745 0.019608 0.200000
0.360784 0.015686 0.172549
0.454902 0.011765 0.152941
0.529412 0.007843 0.137255
0.635294 0.015686 0.125490
0.733333 0.015686 0.094118
0.831373 0.023529 0.086275
0.921569 0.019608 0.070588
0.996078 0.019608 0.070588
1.000000 0.019608 0.070588
1.000000 0.019608 0.078431
0.000000 0.101961 0.254902
0.000000 0.109804 0.250980
0.011765 0.098039 0.235294
0.094118 0.101961 0.227451
0.192157 0.094118 0.200000
0.282353 0.090196 0.180392
0.376471 0.082353 0.137255
0.454902 0.090196 0.149020
0.552941 0.090196 0.117647
0.654902 0.094118 0.101961
0.764706 0.090196 0.078431
0.843137 0.098039 0.070588
0.917647 0.098039 0.070588
0.996078 0.098039 0.078431
1.000000 0.094118 0.062745
1.000000 0.098039 0.074510
0.000000 0.180392 0.250980
0.000000 0.184314 0.243137
0.011765 0.168627 0.239216
0.113725 0.172549 0.207843
0.196078 0.168627 0.176471
0.305882 0.164706 0.149020
0.372549 0.164706 0.137255
0.474510 0.164706 0.129412
0.568627 0.172549 0.105882
0.670588 0.172549 0.082353
0.756863 0.176471 0.066667
0.847059 0.172549 0.078431
0.913725 0.172549 0.062745
0.992157 0.168627 0.070588
1.000000 0.172549 0.062745
1.000000 0.168627 0.070588
0.000000 0.250980 0.235294
0.000000 0.250980 0.235294
0.027451 0.247059 0.203922
0.125490 0.239216 0.176471
0.203922 0.243137 0.180392
0.298039 0.239216 0.149020
0.372549 0.235294 0.137255
0.474510 0.243137 0.125490
0.560784 0.243137 0.105882
0.686275 0.247059 0.086275
0.764706 0.250980 0.062745
0.835294 0.250980 0.070588
0.917647 0.250980 0.062745
0.988235 0.250980 0.070588
1.000000 0.243137 0.062745
1.000000 0.250980 0.066667
0.000000 0.325490 0.200000
0.000000 0.321569 0.200000
0.054902 0.317647 0.180392
0.145098 0.317647 0.145098
0.219608 0.309804 0.145098
0.298039 0.317647 0.141176
0.372549 0.309804 0.145098
0.462745 0.317647 0.129412
0.568627 0.317647 0.105882
0.666667 0.325490 0.086275
0.764706 0.325490 0.062745
0.839216 0.325490 0.070588
0.913725 0.321569 0.062745
0.992157 0.325490 0.066667
1.000000 0.321569 0.062745
1.000000 0.321569 0.070588
0.000000 0.388235 0.176471
0.000000 0.396078 0.172549
0.070588 0.388235 0.145098
0.149020 0.396078 0.141176
0.223529 0.388235 0.145098
0.294118 0.388235 0.145098
0.376471 0.388235 0.141176
0.462745 0.392157 0.129412
0.572549 0.388235 0.109804
0.678431 0.400000 0.082353
0.764706 0.396078 0.070588
0.835294 0.400000 0.062745
0.909804 0.400000 0.062745
0.988235 0.400000 0.070588
