public/luts/teal-orange.cube
# Studiio — look « teal-orange », genere par scripts/lut/generer-luts.mjs
# Source : les coefficients de LOOKS_RENDUS, calcules par ffmpeg lui-meme.
# Aucune LUT tierce, aucun telechargement : provenance et licence du depot.
LUT_3D_SIZE 6
DOMAIN_MIN 0.0 0.0 0.0
DOMAIN_MAX 1.0 1.0 1.0
0.000000 0.015686 0.098039
0.078431 0.015686 0.098039
0.356863 0.003922 0.031373
0.631373 0.003922 0.000000
0.921569 0.015686 0.000000
1.000000 0.015686 0.000000
0.000000 0.188235 0.098039
0.082353 0.180392 0.098039
0.364706 0.168627 0.027451
0.623529 0.164706 0.000000
0.917647 0.176471 0.000000
1.000000 0.168627 0.000000
0.000000 0.400000 0.023529
0.125490 0.396078 0.027451
0.356863 0.396078 0.027451
0.623529 0.388235 0.000000
0.909804 0.403922 0.000000
1.000000 0.400000 0.000000
0.027451 0.623529 0.000000
0.164706 0.619608 0.000000
0.392157 0.619608 0.000000
0.615686 0.615686 0.000000
0.913725 0.631373 0.000000
1.000000 0.627451 0.000000
0.082353 0.862745 0.000000
0.219608 0.858824 0.000000
0.450980 0.854902 0.000000
0.670588 0.854902 0.000000
0.909804 0.850980 0.000000
1.000000 0.854902 0.000000
0.082353 1.000000 0.000000
0.219608 1.000000 0.000000
0.447059 1.000000 0.000000
0.678431 1.000000 0.000000
0.901961 1.000000 0.000000
1.000000 1.000000 0.000000
0.000000 0.015686 0.247059
0.090196 0.015686 0.250980
0.356863 0.003922 0.176471
0.635294 0.003922 0.133333
0.917647 0.015686 0.066667
1.000000 0.015686 0.070588
0.000000 0.180392 0.250980
0.113725 0.172549 0.207843
0.372549 0.164706 0.137255
0.670588 0.172549 0.082353
0.913725 0.172549 0.062745
1.000000 0.168627 0.070588
0.000000 0.388235 0.176471
0.149020 0.396078 0.141176
0.376471 0.388235 0.141176
0.678431 0.400000 0.082353
0.909804 0.400000 0.062745
1.000000 0.400000 0.066667
0.023529 0.619608 0.117647
0.207843 0.631373 0.078431
0.435294 0.623529 0.078431
0.662745 0.623529 0.074510
0.913725 0.631373 0.070588
1.000000 0.627451 0.066667
0.082353 0.858824 0.066667
0.223529 0.858824 0.070588
0.447059 0.854902 0.062745
0.674510 0.854902 0.058824
0.905882 0.854902 0.066667
1.000000 0.850980 0.050980
0.082353 1.000000 0.062745
0.215686 1.000000 0.066667
0.447059 1.000000 0.066667
0.674510 1.000000 0.066667
0.898039 1.000000 0.054902
1.000000 1.000000 0.047059
0.000000 0.003922 0.411765
0.125490 0.003922 0.407843
0.356863 0.003922 0.411765
0.631373 0.003922 0.352941
0.913725 0.015686 0.305882
1.000000 0.015686 0.298039
0.000000 0.172549 0.411765
0.145098 0.164706 0.372549
0.384314 0.160784 0.376471
0.678431 0.168627 0.305882
0.917647 0.172549 0.305882
1.000000 0.172549 0.294118
0.000000 0.396078 0.400000
0.145098 0.388235 0.376471
0.450980 0.400000 0.313725
0.686275 0.407843 0.294118
0.909804 0.400000 0.294118
1.000000 0.400000 0.294118
0.027451 0.623529 0.349020
0.211765 0.619608 0.313725
0.450980 0.631373 0.290196
0.682353 0.627451 0.294118
0.913725 0.627451 0.294118
1.000000 0.631373 0.290196
0.082353 0.862745 0.290196
0.223529 0.858824 0.294118
0.443137 0.858824 0.290196
0.674510 0.854902 0.294118
0.901961 0.850980 0.286275
1.000000 0.847059 0.290196
0.082353 1.000000 0.298039
0.219608 1.000000 0.294118
0.447059 1.000000 0.294118
0.678431 1.000000 0.290196
0.898039 1.000000 0.286275
1.000000 1.000000 0.290196
0.023529 0.003922 0.592157
0.176471 0.003922 0.596078
0.400000 0.003922 0.584314
0.623529 0.003922 0.580392
0.921569 0.015686 0.529412
1.000000 0.015686 0.525490
0.019608 0.172549 0.584314
0.223529 0.172549 0.545098
0.447059 0.172549 0.537255
0.678431 0.168627 0.541176
0.917647 0.172549 0.529412
1.000000 0.168627 0.529412
0.019608 0.392157 0.584314
0.219608 0.403922 0.545098
0.454902 0.407843 0.529412
0.690196 0.400000 0.529412
0.913725 0.400000 0.529412
1.000000 0.396078 0.529412
0.023529 0.615686 0.580392
0.207843 0.627451 0.537255
0.450980 0.627451 0.533333
0.678431 0.623529 0.525490
0.901961 0.627451 0.513725
1.000000 0.623529 0.517647
0.082353 0.862745 0.533333
0.215686 0.858824 0.525490
0.454902 0.854902 0.529412
0.674510 0.854902 0.513725
0.905882 0.850980 0.517647
1.000000 0.847059 0.513725
0.082353 1.000000 0.529412
0.215686 1.000000 0.513725
0.447059 1.000000 0.517647
0.666667 1.000000 0.513725
0.898039 1.000000 0.517647
1.000000 1.000000 0.509804
0.082353 0.015686 0.772549
0.231373 0.015686 0.764706
0.458824 0.015686 0.764706
0.690196 0.015686 0.764706
0.917647 0.015686 0.760784
1.000000 0.015686 0.756863
0.082353 0.176471 0.772549
0.227451 0.176471 0.764706
0.458824 0.172549 0.768627
0.690196 0.176471 0.756863
0.909804 0.172549 0.749020
1.000000 0.168627 0.756863
0.082353 0.403922 0.764706
0.219608 0.403922 0.749020
0.458824 0.400000 0.756863
0.686275 0.403922 0.756863
0.909804 0.396078 0.756863
1.000000 0.396078 0.752941
0.082353 0.631373 0.752941
0.223529 0.631373 0.760784
0.450980 0.627451 0.752941
0.674510 0.627451 0.749020
0.909804 0.619608 0.749020
1.000000 0.623529 0.752941
0.082353 0.862745 0.752941
0.223529 0.854902 0.756863
0.443137 0.854902 0.749020
0.674510 0.850980 0.756863
0.901961 0.847059 0.749020
1.000000 0.850980 0.737255
0.082353 1.000000 0.749020
0.219608 1.000000 0.756863
0.439216 1.000000 0.749020
0.678431 1.000000 0.752941
0.901961 1.000000 0.741176
1.000000 1.000000 0.745098
0.082353 0.015686 0.929412
0.227451 0.015686 0.929412
0.466667 0.015686 0.929412
0.686275 0.015686 0.929412
0.913725 0.015686 0.929412
1.000000 0.015686 0.929412
0.082353 0.184314 0.929412
0.223529 0.180392 0.929412
0.462745 0.176471 0.929412
0.682353 0.172549 0.929412
0.917647 0.168627 0.929412
1.000000 0.168627 0.929412
0.082353 0.407843 0.929412
0.227451 0.396078 0.929412
0.454902 0.403922 0.929412
0.682353 0.400000 0.929412
0.913725 0.400000 0.929412
1.000000 0.396078 0.929412
0.082353 0.627451 0.929412
0.219608 0.627451 0.929412
0.447059 0.631373 0.929412
0.678431 0.619608 0.929412
0.905882 0.623529 0.929412
1.000000 0.627451 0.929412
0.082353 0.858824 0.929412
0.215686 0.854902 0.929412
0.447059 0.854902 0.929412
0.674510 0.850980 0.929412
0.898039 0.850980 0.929412
1.000000 0.847059 0.929412
0.082353 1.000000 0.929412
0.211765 1.000000 0.929412
0.447059 1.000000 0.929412
0.674510 1.000000 0.929412
0.898039 1.000000 0.929412
1.000000 1.000000 0.929412
