public/luts/tropical.cube
# Studiio — look « tropical », genere par scripts/lut/generer-luts.mjs
# Source : les coefficients de LOOKS_RENDUS, calcules par ffmpeg lui-meme.
# Aucune LUT tierce, aucun telechargement : provenance et licence du depot.
LUT_3D_SIZE 16
DOMAIN_MIN 0.0 0.0 0.0
DOMAIN_MAX 1.0 1.0 1.0
0.000000 0.000000 0.000000
0.000000 0.000000 0.000000
0.047059 0.000000 0.000000
0.129412 0.000000 0.000000
0.223529 0.015686 0.015686
0.329412 0.047059 0.039216
0.423529 0.074510 0.062745
0.517647 0.082353 0.070588
0.603922 0.078431 0.050980
0.686275 0.066667 0.031373
0.776471 0.058824 0.003922
0.854902 0.054902 0.000000
0.949020 0.054902 0.000000
1.000000 0.054902 0.000000
1.000000 0.054902 0.000000
1.000000 0.054902 0.000000
0.000000 0.011765 0.000000
0.000000 0.011765 0.000000
0.039216 0.000000 0.000000
0.121569 0.003922 0.000000
0.219608 0.015686 0.011765
0.317647 0.043137 0.035294
0.423529 0.074510 0.062745
0.509804 0.082353 0.070588
0.588235 0.078431 0.058824
0.682353 0.066667 0.031373
0.760784 0.058824 0.007843
0.854902 0.054902 0.000000
0.929412 0.054902 0.000000
1.000000 0.054902 0.000000
1.000000 0.054902 0.000000
1.000000 0.054902 0.000000
0.000000 0.094118 0.000000
0.000000 0.094118 0.000000
0.027451 0.086275 0.000000
0.113725 0.082353 0.000000
0.211765 0.094118 0.011765
0.305882 0.109804 0.035294
0.403922 0.137255 0.058824
0.505882 0.145098 0.070588
0.584314 0.141176 0.058824
0.674510 0.125490 0.031373
0.756863 0.113725 0.011765
0.847059 0.101961 0.000000
0.929412 0.105882 0.000000
1.000000 0.094118 0.000000
1.000000 0.094118 0.000000
1.000000 0.105882 0.000000
0.000000 0.176471 0.000000
0.000000 0.168627 0.000000
0.019608 0.160784 0.000000
0.109804 0.160784 0.000000
0.203922 0.168627 0.007843
0.301961 0.192157 0.031373
0.400000 0.215686 0.054902
0.501961 0.227451 0.070588
0.580392 0.223529 0.058824
0.658824 0.215686 0.039216
0.745098 0.196078 0.011765
0.831373 0.192157 0.000000
0.921569 0.180392 0.000000
1.000000 0.176471 0.000000
1.000000 0.176471 0.000000
1.000000 0.168627 0.000000
0.000000 0.266667 0.011765
0.000000 0.270588 0.011765
0.027451 0.258824 0.011765
0.101961 0.254902 0.011765
0.200000 0.250980 0.007843
0.290196 0.274510 0.031373
0.392157 0.290196 0.054902
0.482353 0.313725 0.070588
0.572549 0.301961 0.062745
0.654902 0.294118 0.039216
0.745098 0.278431 0.011765
0.819608 0.266667 0.000000
0.917647 0.262745 0.000000
0.992157 0.258824 0.000000
1.000000 0.250980 0.000000
1.000000 0.254902 0.000000
0.000000 0.384314 0.039216
0.000000 0.368627 0.035294
0.035294 0.368627 0.035294
0.113725 0.368627 0.035294
0.200000 0.352941 0.031373
0.286275 0.360784 0.031373
0.384314 0.372549 0.050980
0.474510 0.388235 0.070588
0.564706 0.392157 0.062745
0.647059 0.372549 0.039216
0.737255 0.364706 0.015686
0.815686 0.349020 0.000000
0.901961 0.345098 0.000000
0.992157 0.345098 0.000000
1.000000 0.337255 0.000000
1.000000 0.329412 0.000000
0.000000 0.490196 0.058824
0.000000 0.486275 0.058824
0.027451 0.478431 0.058824
0.125490 0.478431 0.058824
0.200000 0.470588 0.054902
0.286275 0.458824 0.050980
0.376471 0.462745 0.054902
0.470588 0.470588 0.070588
0.549020 0.470588 0.066667
0.643137 0.454902 0.043137
0.725490 0.443137 0.019608
0.811765 0.427451 0.000000
0.898039 0.423529 0.000000
0.984314 0.419608 0.000000
1.000000 0.423529 0.000000
1.000000 0.419608 0.000000
0.000000 0.584314 0.070588
0.000000 0.576471 0.070588
0.031373 0.576471 0.070588
0.125490 0.568627 0.070588
0.203922 0.568627 0.070588
0.294118 0.560784 0.070588
0.372549 0.560784 0.070588
0.458824 0.556863 0.070588
0.545098 0.552941 0.070588
0.631373 0.541176 0.043137
0.721569 0.521569 0.019608
0.800000 0.513725 0.000000
0.890196 0.501961 0.000000
0.972549 0.505882 0.000000
1.000000 0.498039 0.000000
1.000000 0.494118 0.000000
0.000000 0.662745 0.058824
0.000000 0.658824 0.058824
0.027451 0.654902 0.058824
0.105882 0.654902 0.062745
0.200000 0.650980 0.062745
0.278431 0.643137 0.066667
0.368627 0.643137 0.066667
0.454902 0.635294 0.066667
0.537255 0.631373 0.066667
0.627451 0.623529 0.047059
0.705882 0.607843 0.023529
0.796078 0.596078 0.000000
0.890196 0.588235 0.000000
0.964706 0.580392 0.000000
1.000000 0.588235 0.000000
1.000000 0.572549 0.000000
0.000000 0.733333 0.035294
0.000000 0.733333 0.035294
0.023529 0.729412 0.039216
0.098039 0.721569 0.039216
0.196078 0.721569 0.039216
0.278431 0.717647 0.043137
0.352941 0.713725 0.043137
0.450980 0.709804 0.043137
0.525490 0.705882 0.043137
0.615686 0.698039 0.047059
0.701961 0.698039 0.023529
0.788235 0.670588 0.000000
0.870588 0.674510 0.000000
0.960784 0.662745 0.000000
1.000000 0.662745 0.000000
1.000000 0.658824 0.000000
0.000000 0.811765 0.011765
0.000000 0.803922 0.015686
0.007843 0.796078 0.015686
0.098039 0.800000 0.015686
0.180392 0.792157 0.015686
0.274510 0.788235 0.019608
0.349020 0.784314 0.019608
0.443137 0.780392 0.023529
0.525490 0.780392 0.019608
0.611765 0.772549 0.023529
0.690196 0.772549 0.023529
0.784314 0.752941 0.003922
0.862745 0.752941 0.000000
0.952941 0.745098 0.000000
1.000000 0.745098 0.000000
1.000000 0.741176 0.000000
0.000000 0.878431 0.000000
0.000000 0.882353 0.000000
0.003922 0.870588 0.000000
0.090196 0.870588 0.000000
0.176471 0.862745 0.000000
0.258824 0.862745 0.000000
0.345098 0.858824 0.000000
0.423529 0.854902 0.000000
0.517647 0.850980 0.000000
0.596078 0.847059 0.000000
0.686275 0.843137 0.000000
0.768627 0.839216 0.003922
0.858824 0.835294 0.000000
0.945098 0.831373 0.000000
1.000000 0.823529 0.000000
1.000000 0.823529 0.000000
0.000000 0.960784 0.000000
0.000000 0.960784 0.000000
0.000000 0.952941 0.000000
0.078431 0.952941 0.000000
0.172549 0.945098 0.000000
0.250980 0.945098 0.000000
0.341176 0.937255 0.000000
0.415686 0.933333 0.000000
0.513725 0.933333 0.000000
0.592157 0.929412 0.000000
0.682353 0.925490 0.000000
0.760784 0.921569 0.000000
0.850980 0.913725 0.000000
0.933333 0.913725 0.000000
1.000000 0.909804 0.000000
1.000000 0.894118 0.000000
0.000000 1.000000 0.000000
0.000000 1.000000 0.000000
0.000000 1.000000 0.000000
0.074510 1.000000 0.000000
0.164706 1.000000 0.000000
0.239216 1.000000 0.000000
0.325490 1.000000 0.000000
0.415686 1.000000 0.000000
0.498039 1.000000 0.000000
0.588235 1.000000 0.000000
0.666667 1.000000 0.000000
0.752941 1.000000 0.000000
0.843137 1.000000 0.000000
0.925490 0.988235 0.000000
1.000000 0.984314 0.000000
1.000000 0.964706 0.000000
0.000000 1.000000 0.000000
0.000000 1.000000 0.000000
0.000000 1.000000 0.000000
0.066667 1.000000 0.000000
0.145098 1.000000 0.000000
0.239216 1.000000 0.000000
0.313725 1.000000 0.000000
0.411765 1.000000 0.000000
0.486275 1.000000 0.000000
0.576471 1.000000 0.000000
0.666667 1.000000 0.000000
0.749020 1.000000 0.000000
0.835294 1.000000 0.000000
0.913725 1.000000 0.000000
1.000000 1.000000 0.000000
1.000000 1.000000 0.000000
0.000000 1.000000 0.000000
0.000000 1.000000 0.000000
0.000000 1.000000 0.000000
0.066667 1.000000 0.000000
0.141176 1.000000 0.000000
0.227451 1.000000 0.000000
0.309804 1.000000 0.000000
0.396078 1.000000 0.000000
0.482353 1.000000 0.000000
0.568627 1.000000 0.000000
0.658824 1.000000 0.000000
0.737255 1.000000 0.000000
0.831373 1.000000 0.000000
0.909804 1.000000 0.000000
1.000000 1.000000 0.000000
1.000000 1.000000 0.000000
0.000000 0.000000 0.000000
0.000000 0.000000 0.007843
0.047059 0.000000 0.000000
0.129412 0.000000 0.000000
0.223529 0.015686 0.015686
0.321569 0.043137 0.039216
0.431373 0.074510 0.062745
0.509804 0.082353 0.070588
0.607843 0.078431 0.050980
0.682353 0.066667 0.031373
0.768627 0.058824 0.007843
0.862745 0.054902 0.000000
0.937255 0.054902 0.000000
1.000000 0.054902 0.000000
1.000000 0.054902 0.000000
1.000000 0.054902 0.000000
0.000000 0.003922 0.000000
0.000000 0.007843 0.000000
0.031373 0.003922 0.000000
0.121569 0.000000 0.000000
0.211765 0.015686 0.011765
0.317647 0.043137 0.035294
0.411765 0.070588 0.058824
0.505882 0.082353 0.070588
0.592157 0.078431 0.054902
0.682353 0.066667 0.031373
0.760784 0.058824 0.007843
0.847059 0.054902 0.000000
0.937255 0.054902 0.000000
1.000000 0.054902 0.000000
1.000000 0.054902 0.000000
1.000000 0.054902 0.000000
0.000000 0.094118 0.000000
0.000000 0.086275 0.000000
0.031373 0.090196 0.000000
0.117647 0.078431 0.000000
0.203922 0.090196 0.007843
0.305882 0.109804 0.035294
0.407843 0.137255 0.058824
0.501961 0.145098 0.070588
0.588235 0.137255 0.058824
0.666667 0.129412 0.035294
0.752941 0.105882 0.011765
0.839216 0.105882 0.000000
0.929412 0.098039 0.000000
1.000000 0.098039 0.000000
1.000000 0.090196 0.000000
1.000000 0.094118 0.000000
0.000000 0.172549 0.000000
0.000000 0.168627 0.000000
0.019608 0.164706 0.000000
0.101961 0.156863 0.000000
0.196078 0.164706 0.007843
0.298039 0.196078 0.031373
0.396078 0.215686 0.054902
0.490196 0.227451 0.070588
0.576471 0.215686 0.058824
0.662745 0.211765 0.035294
0.752941 0.192157 0.011765
0.827451 0.180392 0.000000
0.925490 0.180392 0.000000
1.000000 0.176471 0.000000
1.000000 0.168627 0.000000
1.000000 0.172549 0.000000
0.000000 0.270588 0.011765
0.000000 0.258824 0.011765
0.023529 0.258824 0.011765
0.109804 0.254902 0.011765
0.188235 0.243137 0.007843
0.294118 0.270588 0.031373
0.384314 0.290196 0.050980
0.486275 0.309804 0.070588
0.580392 0.298039 0.058824
0.654902 0.286275 0.039216
0.737255 0.282353 0.015686
0.823529 0.262745 0.000000
0.901961 0.262745 0.000000
1.000000 0.258824 0.000000
1.000000 0.250980 0.000000
1.000000 0.247059 0.000000
0.000000 0.380392 0.035294
0.000000 0.376471 0.035294
0.019608 0.364706 0.031373
0.117647 0.364706 0.031373
0.192157 0.352941 0.031373
0.282353 0.349020 0.031373
0.380392 0.380392 0.050980
0.478431 0.388235 0.070588
0.556863 0.388235 0.066667
0.647059 0.368627 0.039216
0.729412 0.356863 0.015686
0.823529 0.349020 0.000000
0.898039 0.345098 0.000000
0.992157 0.337255 0.000000
1.000000 0.341176 0.000000
1.000000 0.329412 0.000000
0.000000 0.486275 0.058824
0.000000 0.478431 0.058824
0.031373 0.474510 0.054902
0.125490 0.470588 0.054902
0.207843 0.470588 0.054902
0.290196 0.458824 0.050980
0.368627 0.454902 0.050980
0.474510 0.470588 0.070588
0.552941 0.466667 0.066667
0.639216 0.454902 0.043137
0.721569 0.439216 0.019608
0.807843 0.431373 0.000000
0.890196 0.419608 0.000000
0.980392 0.423529 0.000000
1.000000 0.419608 0.000000
1.000000 0.411765 0.000000
0.000000 0.580392 0.070588
0.000000 0.580392 0.070588
0.035294 0.572549 0.070588
0.113725 0.572549 0.070588
0.207843 0.564706 0.070588
0.282353 0.560784 0.070588
0.376471 0.556863 0.070588
0.454902 0.556863 0.070588
0.549020 0.549020 0.066667
0.627451 0.541176 0.047059
0.713725 0.521569 0.023529
0.803922 0.509804 0.000000
0.890196 0.505882 0.000000
0.972549 0.498039 0.000000
1.000000 0.498039 0.000000
1.000000 0.494118 0.000000
0.000000 0.658824 0.058824
0.000000 0.658824 0.058824
0.031373 0.654902 0.062745
0.105882 0.650980 0.062745
0.203922 0.647059 0.062745
0.282353 0.647059 0.062745
0.368627 0.635294 0.066667
0.450980 0.639216 0.066667
0.533333 0.631373 0.066667
0.623529 0.623529 0.047059
0.709804 0.611765 0.023529
0.796078 0.588235 0.000000
0.878431 0.592157 0.000000
0.972549 0.584314 0.000000
1.000000 0.580392 0.000000
1.000000 0.576471 0.000000
0.000000 0.737255 0.035294
0.000000 0.729412 0.039216
0.015686 0.729412 0.039216
0.105882 0.725490 0.039216
0.180392 0.717647 0.039216
0.278431 0.717647 0.039216
0.356863 0.709804 0.043137
0.443137 0.709804 0.043137
0.533333 0.705882 0.043137
0.615686 0.698039 0.047059
0.698039 0.686275 0.027451
0.788235 0.678431 0.000000
0.870588 0.666667 0.000000
0.964706 0.666667 0.000000
1.000000 0.658824 0.000000
1.000000 0.658824 0.000000
0.000000 0.807843 0.011765
0.000000 0.803922 0.015686
0.003922 0.800000 0.015686
0.098039 0.792157 0.015686
0.176471 0.792157 0.015686
0.266667 0.784314 0.019608
0.356863 0.784314 0.019608
0.431373 0.780392 0.019608
0.525490 0.776471 0.023529
0.607843 0.780392 0.023529
0.694118 0.768627 0.023529
0.772549 0.760784 0.003922
0.866667 0.749020 0.000000
0.945098 0.749020 0.000000
1.000000 0.737255 0.000000
1.000000 0.741176 0.000000
0.000000 0.882353 0.000000
0.000000 0.874510 0.000000
0.000000 0.874510 0.000000
0.086275 0.866667 0.000000
0.172549 0.862745 0.000000
0.258824 0.862745 0.000000
0.349020 0.854902 0.000000
0.423529 0.850980 0.000000
0.521569 0.847059 0.000000
0.600000 0.847059 0.000000
0.690196 0.839216 0.003922
0.768627 0.839216 0.003922
0.854902 0.827451 0.000000
0.941176 0.831373 0.000000
1.000000 0.823529 0.000000
1.000000 0.819608 0.000000
0.000000 0.960784 0.000000
0.000000 0.956863 0.000000
0.000000 0.952941 0.000000
0.082353 0.949020 0.000000
0.168627 0.945098 0.000000
0.247059 0.937255 0.000000
0.337255 0.937255 0.000000
0.423529 0.937255 0.000000
0.498039 0.929412 0.000000
0.596078 0.925490 0.000000
0.670588 0.921569 0.000000
0.764706 0.921569 0.000000
0.843137 0.917647 0.000000
0.933333 0.909804 0.000000
1.000000 0.909804 0.000000
1.000000 0.905882 0.000000
0.000000 1.000000 0.000000
0.000000 1.000000 0.000000
0.000000 1.000000 0.000000
0.074510 1.000000 0.000000
0.156863 1.000000 0.000000
0.247059 1.000000 0.000000
0.321569 1.000000 0.000000
0.419608 1.000000 0.000000
0.494118 1.000000 0.000000
0.584314 1.000000 0.000000
0.670588 1.000000 0.000000
0.756863 0.996078 0.000000
0.835294 0.996078 0.000000
0.933333 0.996078 0.000000
1.000000 0.988235 0.000000
1.000000 0.988235 0.000000
0.000000 1.000000 0.000000
0.000000 1.000000 0.000000
0.000000 1.000000 0.000000
0.074510 1.000000 0.000000
0.149020 1.000000 0.000000
0.239216 1.000000 0.000000
0.317647 1.000000 0.000000
0.396078 1.000000 0.000000
0.494118 1.000000 0.000000
0.576471 1.000000 0.000000
0.658824 1.000000 0.000000
0.749020 1.000000 0.000000
0.831373 1.000000 0.000000
0.917647 1.000000 0.000000
1.000000 1.000000 0.000000
1.000000 1.000000 0.000000
0.000000 1.000000 0.000000
0.000000 1.000000 0.000000
0.000000 1.000000 0.000000
0.050980 1.000000 0.000000
0.145098 1.000000 0.000000
0.223529 1.000000 0.000000
0.313725 1.000000 0.000000
0.392157 1.000000 0.000000
0.486275 1.000000 0.000000
0.568627 1.000000 0.000000
0.654902 1.000000 0.000000
0.741176 1.000000 0.000000
0.827451 1.000000 0.000000
0.913725 1.000000 0.000000
0.988235 1.000000 0.000000
1.000000 1.000000 0.000000
0.000000 0.000000 0.090196
0.000000 0.000000 0.086275
0.043137 0.000000 0.082353
0.129412 0.000000 0.070588
0.219608 0.015686 0.094118
0.321569 0.043137 0.109804
0.423529 0.074510 0.137255
0.513725 0.082353 0.133333
0.592157 0.078431 0.113725
0.690196 0.066667 0.082353
0.764706 0.058824 0.066667
0.854902 0.054902 0.050980
0.945098 0.054902 0.054902
1.000000 0.054902 0.039216
1.000000 0.054902 0.039216
1.000000 0.054902 0.031373
0.000000 0.007843 0.082353
0.000000 0.003922 0.070588
0.035294 0.003922 0.082353
0.125490 0.000000 0.070588
0.211765 0.011765 0.082353
0.317647 0.043137 0.098039
0.407843 0.070588 0.117647
0.509804 0.082353 0.121569
0.588235 0.078431 0.117647
0.678431 0.070588 0.082353
0.764706 0.058824 0.062745
0.843137 0.054902 0.039216
0.937255 0.054902 0.039216
1.000000 0.054902 0.031373
1.000000 0.054902 0.035294
1.000000 0.054902 0.019608
0.000000 0.090196 0.078431
0.000000 0.082353 0.078431
0.027451 0.082353 0.070588
0.105882 0.082353 0.062745
0.215686 0.105882 0.086275
0.305882 0.129412 0.098039
0.411765 0.149020 0.129412
0.498039 0.145098 0.117647
0.580392 0.129412 0.090196
0.670588 0.121569 0.062745
0.752941 0.105882 0.039216
0.835294 0.098039 0.023529
0.925490 0.098039 0.035294
1.000000 0.098039 0.019608
1.000000 0.086275 0.027451
1.000000 0.094118 0.019608
0.000000 0.172549 0.070588
0.000000 0.164706 0.062745
0.027451 0.168627 0.062745
0.105882 0.168627 0.070588
0.211765 0.188235 0.082353
0.301961 0.211765 0.094118
0.403922 0.223529 0.109804
0.494118 0.227451 0.109804
0.580392 0.215686 0.086275
0.658824 0.200000 0.054902
0.745098 0.192157 0.039216
0.835294 0.184314 0.019608
0.909804 0.176471 0.023529
1.000000 0.176471 0.019608
1.000000 0.172549 0.011765
1.000000 0.168627 0.007843
0.000000 0.270588 0.070588
0.000000 0.266667 0.078431
0.023529 0.270588 0.078431
0.113725 0.274510 0.086275
0.192157 0.258824 0.062745
0.290196 0.278431 0.082353
0.392157 0.305882 0.101961
0.478431 0.305882 0.113725
0.568627 0.301961 0.086275
0.658824 0.290196 0.050980
0.733333 0.270588 0.035294
0.831373 0.266667 0.019608
0.905882 0.258824 0.011765
0.996078 0.254902 0.003922
1.000000 0.258824 0.007843
1.000000 0.247059 0.000000
0.000000 0.380392 0.090196
0.000000 0.376471 0.094118
0.031373 0.380392 0.086275
0.117647 0.372549 0.086275
0.207843 0.372549 0.082353
0.286275 0.364706 0.086275
0.380392 0.380392 0.090196
0.478431 0.392157 0.105882
0.560784 0.380392 0.082353
0.650980 0.364706 0.054902
0.729412 0.356863 0.027451
0.811765 0.349020 0.003922
0.905882 0.345098 0.007843
0.980392 0.341176 0.000000
1.000000 0.333333 0.000000
1.000000 0.329412 0.000000
0.000000 0.490196 0.101961
0.000000 0.478431 0.101961
0.039216 0.486275 0.101961
0.121569 0.482353 0.109804
0.211765 0.474510 0.094118
0.294118 0.474510 0.098039
0.376471 0.462745 0.082353
0.462745 0.470588 0.094118
0.556863 0.466667 0.074510
0.635294 0.450980 0.050980
0.721569 0.435294 0.019608
0.803922 0.427451 0.011765
0.898039 0.423529 0.000000
0.976471 0.423529 0.000000
1.000000 0.415686 0.000000
1.000000 0.415686 0.000000
0.000000 0.580392 0.105882
0.000000 0.576471 0.113725
0.031373 0.572549 0.101961
0.113725 0.564706 0.098039
0.207843 0.560784 0.094118
0.290196 0.560784 0.094118
0.380392 0.556863 0.082353
0.458824 0.552941 0.082353
0.545098 0.545098 0.070588
0.631373 0.537255 0.054902
0.713725 0.525490 0.023529
0.796078 0.505882 0.000000
0.886275 0.505882 0.000000
0.972549 0.501961 0.000000
1.000000 0.494118 0.000000
1.000000 0.498039 0.000000
0.000000 0.658824 0.090196
0.000000 0.654902 0.090196
0.023529 0.654902 0.078431
0.113725 0.647059 0.078431
0.188235 0.647059 0.070588
0.282353 0.643137 0.074510
0.356863 0.639216 0.066667
0.450980 0.631373 0.070588
0.533333 0.635294 0.066667
0.619608 0.615686 0.047059
0.705882 0.611765 0.023529
0.796078 0.592157 0.000000
0.878431 0.584314 0.000000
0.968627 0.584314 0.000000
1.000000 0.576471 0.000000
1.000000 0.572549 0.000000
0.000000 0.729412 0.058824
0.000000 0.729412 0.062745
0.011765 0.725490 0.043137
0.109804 0.721569 0.047059
0.184314 0.717647 0.039216
0.274510 0.709804 0.047059
0.360784 0.717647 0.043137
0.447059 0.701961 0.047059
0.525490 0.705882 0.043137
0.615686 0.705882 0.043137
0.694118 0.690196 0.027451
0.780392 0.674510 0.003922
0.874510 0.666667 0.000000
0.952941 0.662745 0.000000
1.000000 0.662745 0.000000
1.000000 0.654902 0.000000
0.000000 0.803922 0.031373
0.000000 0.803922 0.023529
0.007843 0.796078 0.015686
0.086275 0.796078 0.019608
0.180392 0.788235 0.019608
0.258824 0.788235 0.019608
0.349020 0.780392 0.019608
0.439216 0.780392 0.019608
0.521569 0.776471 0.023529
0.607843 0.772549 0.023529
0.690196 0.768627 0.023529
0.776471 0.756863 0.003922
0.858824 0.745098 0.000000
0.949020 0.745098 0.000000
1.000000 0.741176 0.000000
1.000000 0.737255 0.000000
0.000000 0.874510 0.015686
0.000000 0.878431 0.003922
0.003922 0.870588 0.003922
0.082353 0.870588 0.000000
0.176471 0.862745 0.000000
0.250980 0.858824 0.000000
0.345098 0.854902 0.000000
0.431373 0.850980 0.000000
0.509804 0.850980 0.000000
0.600000 0.843137 0.000000
0.674510 0.839216 0.003922
0.772549 0.839216 0.003922
0.850980 0.835294 0.000000
0.937255 0.819608 0.000000
1.000000 0.827451 0.000000
1.000000 0.819608 0.000000
0.000000 0.956863 0.003922
0.000000 0.956863 0.000000
0.000000 0.952941 0.000000
0.074510 0.945098 0.000000
0.164706 0.945098 0.000000
0.250980 0.941176 0.000000
0.329412 0.933333 0.000000
0.427451 0.933333 0.000000
0.501961 0.925490 0.000000
0.592157 0.921569 0.000000
0.678431 0.925490 0.000000
0.764706 0.909804 0.000000
0.847059 0.917647 0.000000
0.937255 0.909804 0.000000
1.000000 0.901961 0.000000
1.000000 0.901961 0.000000
0.000000 1.000000 0.000000
0.000000 1.000000 0.000000
0.000000 1.000000 0.000000
0.074510 1.000000 0.000000
0.156863 1.000000 0.000000
0.243137 1.000000 0.000000
0.325490 1.000000 0.000000
0.411765 1.000000 0.000000
0.501961 1.000000 0.000000
0.576471 1.000000 0.000000
0.666667 1.000000 0.000000
0.752941 1.000000 0.000000
0.839216 0.992157 0.000000
0.917647 0.992157 0.000000
1.000000 0.984314 0.000000
1.000000 0.980392 0.000000
0.000000 1.000000 0.000000
0.000000 1.000000 0.000000
0.000000 1.000000 0.000000
0.058824 1.000000 0.000000
0.149020 1.000000 0.000000
0.231373 1.000000 0.000000
0.325490 1.000000 0.000000
0.400000 1.000000 0.000000
0.494118 1.000000 0.000000
0.576471 1.000000 0.000000
0.662745 1.000000 0.000000
0.741176 1.000000 0.000000
0.835294 1.000000 0.000000
0.913725 1.000000 0.000000
1.000000 1.000000 0.000000
1.000000 1.000000 0.000000
0.000000 1.000000 0.000000
0.000000 1.000000 0.000000
0.000000 1.000000 0.000000
0.054902 1.000000 0.000000
0.145098 1.000000 0.000000
0.223529 1.000000 0.000000
0.317647 1.000000 0.000000
0.392157 1.000000 0.000000
0.474510 1.000000 0.000000
0.568627 1.000000 0.000000
0.650980 1.000000 0.000000
0.737255 1.000000 0.000000
0.819608 1.000000 0.000000
0.909804 1.000000 0.000000
0.996078 1.000000 0.000000
1.000000 1.000000 0.000000
0.000000 0.000000 0.172549
0.000000 0.000000 0.176471
0.043137 0.000000 0.172549
0.125490 0.000000 0.168627
0.219608 0.015686 0.172549
0.329412 0.047059 0.203922
0.419608 0.070588 0.207843
0.521569 0.082353 0.231373
0.596078 0.078431 0.203922
0.686275 0.066667 0.180392
0.772549 0.058824 0.145098
0.858824 0.054902 0.137255
0.937255 0.054902 0.129412
1.000000 0.054902 0.137255
1.000000 0.054902 0.125490
1.000000 0.054902 0.125490
0.000000 0.011765 0.172549
0.000000 0.000000 0.168627
0.035294 0.000000 0.160784
0.125490 0.000000 0.164706
0.215686 0.015686 0.160784
0.305882 0.039216 0.192157
0.411765 0.070588 0.207843
0.498039 0.082353 0.219608
0.588235 0.078431 0.192157
0.670588 0.070588 0.172549
0.760784 0.058824 0.137255
0.843137 0.054902 0.137255
0.933333 0.054902 0.125490
1.000000 0.054902 0.125490
1.000000 0.054902 0.117647
1.000000 0.054902 0.117647
0.000000 0.086275 0.168627
0.000000 0.090196 0.164706
0.035294 0.086275 0.152941
0.113725 0.086275 0.164706
0.219608 0.105882 0.180392
0.313725 0.133333 0.200000
0.411765 0.141176 0.203922
0.494118 0.145098 0.203922
0.588235 0.129412 0.168627
0.662745 0.117647 0.152941
0.756863 0.101961 0.125490
0.835294 0.101961 0.125490
0.921569 0.098039 0.117647
1.000000 0.090196 0.117647
1.000000 0.086275 0.101961
1.000000 0.086275 0.113725
0.000000 0.168627 0.164706
0.000000 0.168627 0.156863
0.027451 0.160784 0.156863
0.125490 0.196078 0.176471
0.207843 0.207843 0.176471
0.321569 0.235294 0.207843
0.400000 0.235294 0.200000
0.486275 0.211765 0.180392
0.576471 0.207843 0.149020
0.662745 0.192157 0.125490
0.741176 0.184314 0.113725
0.831373 0.184314 0.117647
0.913725 0.176471 0.101961
1.000000 0.168627 0.109804
1.000000 0.172549 0.098039
1.000000 0.160784 0.101961
0.000000 0.266667 0.164706
0.000000 0.266667 0.160784
0.019608 0.270588 0.164706
0.125490 0.294118 0.180392
0.211765 0.298039 0.196078
0.305882 0.305882 0.196078
0.388235 0.309804 0.192157
0.486275 0.301961 0.176471
0.568627 0.286275 0.145098
0.658824 0.278431 0.121569
0.737255 0.266667 0.101961
0.815686 0.262745 0.109804
0.913725 0.262745 0.098039
0.988235 0.254902 0.101961
1.000000 0.250980 0.090196
1.000000 0.247059 0.090196
0.000000 0.376471 0.176471
0.000000 0.364706 0.164706
0.035294 0.384314 0.192157
0.129412 0.403922 0.196078
0.215686 0.396078 0.196078
0.301961 0.396078 0.192157
0.384314 0.392157 0.192157
0.470588 0.384314 0.172549
0.556863 0.372549 0.149020
0.643137 0.356863 0.121569
0.737255 0.352941 0.098039
0.811765 0.345098 0.101961
0.905882 0.337255 0.090196
0.984314 0.337255 0.090196
1.000000 0.333333 0.082353
1.000000 0.329412 0.082353
0.000000 0.478431 0.200000
0.000000 0.478431 0.188235
0.035294 0.482353 0.196078
0.129412 0.490196 0.196078
0.211765 0.482353 0.192157
0.294118 0.478431 0.184314
0.380392 0.470588 0.188235
0.466667 0.466667 0.168627
0.549020 0.447059 0.145098
0.639216 0.443137 0.117647
0.729412 0.427451 0.098039
0.803922 0.423529 0.086275
0.886275 0.427451 0.082353
0.980392 0.419608 0.082353
