public/luts/tropical.cube
# Studiio — look « tropical », genere par scripts/lut/generer-luts.mjs
# Source : les coefficients de LOOKS_RENDUS, calcules par ffmpeg lui-meme.
# Aucune LUT tierce, aucun telechargement : provenance et licence du depot.
LUT_3D_SIZE 6
DOMAIN_MIN 0.0 0.0 0.0
DOMAIN_MAX 1.0 1.0 1.0
0.000000 0.000000 0.000000
0.129412 0.000000 0.000000
0.423529 0.074510 0.062745
0.686275 0.066667 0.031373
0.949020 0.054902 0.000000
1.000000 0.054902 0.000000
0.000000 0.176471 0.000000
0.109804 0.160784 0.000000
0.400000 0.215686 0.054902
0.658824 0.215686 0.039216
0.921569 0.180392 0.000000
1.000000 0.168627 0.000000
0.000000 0.490196 0.058824
0.125490 0.478431 0.058824
0.376471 0.462745 0.054902
0.643137 0.454902 0.043137
0.898039 0.423529 0.000000
1.000000 0.419608 0.000000
0.000000 0.733333 0.035294
0.098039 0.721569 0.039216
0.352941 0.713725 0.043137
0.615686 0.698039 0.047059
0.870588 0.674510 0.000000
1.000000 0.658824 0.000000
0.000000 0.960784 0.000000
0.078431 0.952941 0.000000
0.341176 0.937255 0.000000
0.592157 0.929412 0.000000
0.850980 0.913725 0.000000
1.000000 0.894118 0.000000
0.000000 1.000000 0.000000
0.066667 1.000000 0.000000
0.309804 1.000000 0.000000
0.568627 1.000000 0.000000
0.831373 1.000000 0.000000
1.000000 1.000000 0.000000
0.000000 0.000000 0.172549
0.125490 0.000000 0.168627
0.419608 0.070588 0.207843
0.686275 0.066667 0.180392
0.937255 0.054902 0.129412
1.000000 0.054902 0.125490
0.000000 0.168627 0.164706
0.125490 0.196078 0.176471
0.400000 0.235294 0.200000
0.662745 0.192157 0.125490
0.913725 0.176471 0.101961
1.000000 0.160784 0.101961
0.000000 0.478431 0.200000
0.129412 0.490196 0.196078
0.380392 0.470588 0.188235
0.639216 0.443137 0.117647
0.886275 0.427451 0.082353
1.000000 0.411765 0.078431
0.000000 0.725490 0.152941
0.094118 0.709804 0.109804
0.356863 0.698039 0.105882
0.607843 0.690196 0.101961
0.874510 0.670588 0.066667
1.000000 0.654902 0.054902
0.000000 0.964706 0.086275
0.082353 0.945098 0.082353
0.325490 0.933333 0.058824
0.584314 0.921569 0.047059
0.847059 0.909804 0.039216
1.000000 0.898039 0.027451
0.000000 1.000000 0.058824
0.058824 1.000000 0.054902
0.305882 1.000000 0.039216
0.568627 1.000000 0.035294
0.819608 1.000000 0.015686
1.000000 1.000000 0.000000
0.000000 0.078431 0.509804
0.160784 0.074510 0.494118
0.423529 0.074510 0.486275
0.678431 0.070588 0.435294
0.929412 0.054902 0.396078
1.000000 0.054902 0.376471
0.000000 0.239216 0.482353
0.145098 0.239216 0.470588
0.396078 0.223529 0.466667
0.654902 0.184314 0.380392
0.913725 0.168627 0.376471
1.000000 0.160784 0.356863
0.000000 0.474510 0.447059
0.125490 0.478431 0.466667
0.376471 0.447059 0.384314
0.627451 0.435294 0.356863
0.890196 0.419608 0.352941
1.000000 0.407843 0.337255
0.000000 0.729412 0.411765
0.098039 0.705882 0.384314
0.352941 0.686275 0.349020
0.603922 0.666667 0.341176
0.866667 0.662745 0.329412
1.000000 0.654902 0.309804
0.000000 0.956863 0.349020
0.074510 0.937255 0.341176
0.321569 0.933333 0.325490
0.584314 0.917647 0.313725
0.835294 0.909804 0.301961
1.000000 0.894118 0.294118
0.000000 1.000000 0.333333
0.047059 1.000000 0.313725
0.309804 1.000000 0.309804
0.560784 1.000000 0.294118
0.811765 1.000000 0.278431
1.000000 1.000000 0.266667
0.000000 0.066667 0.733333
0.168627 0.066667 0.725490
0.419608 0.066667 0.713725
0.670588 0.070588 0.698039
0.929412 0.054902 0.662745
1.000000 0.054902 0.643137
0.000000 0.227451 0.713725
0.141176 0.200000 0.670588
0.392157 0.192157 0.662745
0.654902 0.180392 0.654902
0.905882 0.172549 0.631373
1.000000 0.156863 0.631373
0.000000 0.470588 0.701961
0.117647 0.454902 0.658824
0.372549 0.443137 0.631373
0.631373 0.427451 0.631373
0.882353 0.415686 0.607843
1.000000 0.396078 0.603922
0.000000 0.721569 0.682353
0.090196 0.698039 0.639216
0.352941 0.674510 0.619608
0.600000 0.666667 0.600000
0.850980 0.658824 0.580392
1.000000 0.647059 0.584314
0.000000 0.949020 0.619608
0.062745 0.941176 0.600000
0.325490 0.925490 0.596078
0.580392 0.913725 0.576471
0.839216 0.901961 0.576471
1.000000 0.886275 0.552941
0.000000 1.000000 0.596078
0.050980 1.000000 0.576471
0.305882 1.000000 0.576471
0.552941 1.000000 0.552941
0.815686 1.000000 0.541176
1.000000 1.000000 0.529412
0.000000 0.054902 0.980392
0.156863 0.054902 0.956863
0.407843 0.054902 0.941176
0.670588 0.054902 0.937255
0.921569 0.054902 0.917647
1.000000 0.054902 0.917647
0.000000 0.211765 0.949020
0.133333 0.203922 0.937255
0.396078 0.188235 0.925490
0.650980 0.176471 0.917647
0.898039 0.164706 0.894118
1.000000 0.149020 0.890196
0.000000 0.454902 0.921569
0.105882 0.439216 0.905882
0.372549 0.431373 0.901961
0.619608 0.419608 0.890196
0.882353 0.407843 0.878431
1.000000 0.400000 0.862745
0.000000 0.698039 0.894118
0.090196 0.682353 0.894118
0.341176 0.674510 0.874510
0.596078 0.666667 0.854902
0.854902 0.650980 0.854902
1.000000 0.647059 0.839216
0.000000 0.949020 0.874510
0.066667 0.933333 0.870588
0.321569 0.921569 0.854902
0.580392 0.901961 0.847059
0.827451 0.894118 0.827451
1.000000 0.886275 0.807843
0.000000 1.000000 0.854902
0.039216 1.000000 0.847059
0.290196 1.000000 0.827451
0.552941 1.000000 0.823529
0.811765 1.000000 0.807843
1.000000 1.000000 0.803922
0.000000 0.054902 1.000000
0.149020 0.054902 1.000000
0.411765 0.054902 1.000000
0.666667 0.054902 1.000000
0.917647 0.054902 1.000000
1.000000 0.054902 1.000000
0.000000 0.215686 1.000000
0.129412 0.196078 1.000000
0.392157 0.184314 1.000000
0.635294 0.172549 1.000000
0.898039 0.156863 1.000000
1.000000 0.149020 1.000000
0.000000 0.450980 1.000000
0.105882 0.435294 1.000000
0.360784 0.431373 1.000000
0.623529 0.415686 1.000000
0.878431 0.403922 1.000000
1.000000 0.396078 1.000000
0.000000 0.690196 1.000000
0.082353 0.686275 1.000000
0.337255 0.674510 1.000000
0.596078 0.654902 1.000000
0.843137 0.647059 1.000000
1.000000 0.635294 1.000000
0.000000 0.941176 1.000000
0.054902 0.929412 1.000000
0.317647 0.909804 1.000000
0.568627 0.905882 1.000000
0.827451 0.894118 1.000000
1.000000 0.882353 1.000000
0.000000 1.000000 1.000000
0.031373 1.000000 1.000000
0.294118 1.000000 1.000000
0.549020 1.000000 1.000000
0.811765 1.000000 1.000000
1.000000 1.000000 1.000000
