public/luts/urbain.cube
# Studiio — look « urbain », genere par scripts/lut/generer-luts.mjs
# Source : les coefficients de LOOKS_RENDUS, calcules par ffmpeg lui-meme.
# Aucune LUT tierce, aucun telechargement : provenance et licence du depot.
LUT_3D_SIZE 16
DOMAIN_MIN 0.0 0.0 0.0
DOMAIN_MAX 1.0 1.0 1.0
0.000000 0.000000 0.043137
0.000000 0.000000 0.043137
0.000000 0.000000 0.043137
0.047059 0.000000 0.043137
0.121569 0.000000 0.043137
0.188235 0.000000 0.039216
0.262745 0.000000 0.031373
0.333333 0.000000 0.019608
0.415686 0.000000 0.007843
0.474510 0.000000 0.000000
0.545098 0.000000 0.000000
0.607843 0.003922 0.000000
0.678431 0.007843 0.000000
0.745098 0.011765 0.000000
0.811765 0.015686 0.000000
0.870588 0.015686 0.000000
0.000000 0.000000 0.043137
0.000000 0.000000 0.043137
0.003922 0.000000 0.043137
0.066667 0.000000 0.043137
0.133333 0.000000 0.043137
0.200000 0.000000 0.039216
0.278431 0.007843 0.027451
0.345098 0.011765 0.015686
0.411765 0.019608 0.007843
0.494118 0.023529 0.000000
0.552941 0.031373 0.000000
0.623529 0.043137 0.000000
0.686275 0.054902 0.000000
0.756863 0.058824 0.000000
0.823529 0.074510 0.000000
0.886275 0.074510 0.000000
0.000000 0.043137 0.043137
0.000000 0.050980 0.043137
0.007843 0.058824 0.043137
0.082353 0.058824 0.043137
0.145098 0.070588 0.043137
0.211765 0.070588 0.039216
0.278431 0.078431 0.027451
0.364706 0.086275 0.015686
0.431373 0.090196 0.003922
0.501961 0.094118 0.000000
0.564706 0.105882 0.000000
0.639216 0.113725 0.000000
0.705882 0.125490 0.000000
0.764706 0.129412 0.000000
0.827451 0.141176 0.000000
0.898039 0.152941 0.000000
0.000000 0.117647 0.043137
0.000000 0.121569 0.043137
0.019608 0.121569 0.043137
0.090196 0.129412 0.043137
0.156863 0.137255 0.043137
0.231373 0.145098 0.035294
0.301961 0.149020 0.023529
0.376471 0.152941 0.011765
0.454902 0.164706 0.000000
0.513725 0.172549 0.000000
0.576471 0.168627 0.000000
0.639216 0.188235 0.000000
0.713725 0.192157 0.000000
0.772549 0.203922 0.000000
0.847059 0.215686 0.007843
0.905882 0.223529 0.003922
0.000000 0.184314 0.043137
0.000000 0.196078 0.043137
0.039216 0.196078 0.043137
0.098039 0.203922 0.043137
0.168627 0.211765 0.043137
0.235294 0.219608 0.035294
0.313725 0.219608 0.023529
0.388235 0.231373 0.011765
0.458824 0.231373 0.000000
0.521569 0.243137 0.000000
0.596078 0.247059 0.000000
0.654902 0.258824 0.000000
0.725490 0.270588 0.007843
0.788235 0.282353 0.003922
0.858824 0.282353 0.011765
0.925490 0.298039 0.015686
0.000000 0.258824 0.035294
0.000000 0.262745 0.031373
0.058824 0.270588 0.031373
0.125490 0.274510 0.031373
0.192157 0.282353 0.031373
0.254902 0.294118 0.027451
0.325490 0.290196 0.019608
0.396078 0.294118 0.007843
0.470588 0.305882 0.000000
0.537255 0.309804 0.000000
0.600000 0.325490 0.007843
0.674510 0.329412 0.011765
0.733333 0.341176 0.011765
0.807843 0.356863 0.015686
0.862745 0.356863 0.027451
0.933333 0.360784 0.023529
0.000000 0.329412 0.023529
0.015686 0.337255 0.019608
0.074510 0.345098 0.019608
0.145098 0.352941 0.019608
0.200000 0.356863 0.015686
0.274510 0.356863 0.015686
0.337255 0.368627 0.015686
0.411765 0.372549 0.007843
0.478431 0.380392 0.000000
0.556863 0.384314 0.011765
0.615686 0.396078 0.011765
0.678431 0.400000 0.015686
0.741176 0.415686 0.027451
0.815686 0.419608 0.031373
0.882353 0.431373 0.035294
0.941176 0.439216 0.035294
0.000000 0.403922 0.007843
0.019608 0.403922 0.007843
0.098039 0.411765 0.007843
0.164706 0.415686 0.007843
0.223529 0.423529 0.003922
0.294118 0.431373 0.003922
0.360784 0.435294 0.003922
0.431373 0.447059 0.011765
0.498039 0.450980 0.011765
0.552941 0.454902 0.015686
0.631373 0.466667 0.027451
0.690196 0.478431 0.031373
0.756863 0.486275 0.031373
0.823529 0.498039 0.043137
0.894118 0.498039 0.050980
0.956863 0.505882 0.058824
0.000000 0.474510 0.000000
0.043137 0.478431 0.000000
0.109804 0.486275 0.000000
0.172549 0.498039 0.000000
0.247059 0.498039 0.000000
0.305882 0.501961 0.007843
0.376471 0.513725 0.011765
0.435294 0.513725 0.015686
0.505882 0.513725 0.019608
0.572549 0.529412 0.031373
0.639216 0.541176 0.031373
0.701961 0.556863 0.043137
0.776471 0.560784 0.050980
0.835294 0.564706 0.058824
0.901961 0.580392 0.062745
0.964706 0.576471 0.062745
0.000000 0.545098 0.000000
0.062745 0.552941 0.000000
0.129412 0.556863 0.000000
0.188235 0.564706 0.007843
0.258824 0.576471 0.011765
0.321569 0.576471 0.015686
0.380392 0.584314 0.019608
0.450980 0.592157 0.031373
0.513725 0.600000 0.031373
0.584314 0.600000 0.039216
0.650980 0.615686 0.050980
0.717647 0.623529 0.058824
0.784314 0.639216 0.062745
0.850980 0.635294 0.062745
0.909804 0.643137 0.070588
0.984314 0.650980 0.082353
0.003922 0.623529 0.007843
0.070588 0.627451 0.007843
0.125490 0.631373 0.011765
0.203922 0.639216 0.015686
0.262745 0.647059 0.019608
0.333333 0.654902 0.031373
0.396078 0.662745 0.031373
0.466667 0.662745 0.039216
0.533333 0.678431 0.050980
0.600000 0.682353 0.058824
0.654902 0.686275 0.050980
0.733333 0.698039 0.062745
0.792157 0.701961 0.070588
0.858824 0.705882 0.078431
0.925490 0.717647 0.082353
0.992157 0.721569 0.090196
0.011765 0.690196 0.011765
0.082353 0.701961 0.015686
0.145098 0.709804 0.031373
0.211765 0.717647 0.027451
0.282353 0.725490 0.039216
0.349020 0.729412 0.039216
0.407843 0.737255 0.047059
0.474510 0.752941 0.058824
0.541176 0.745098 0.050980
0.607843 0.760784 0.062745
0.674510 0.764706 0.070588
0.733333 0.768627 0.078431
0.811765 0.776471 0.082353
0.870588 0.784314 0.090196
0.937255 0.788235 0.094118
1.000000 0.800000 0.105882
0.023529 0.772549 0.031373
0.086275 0.784314 0.027451
0.160784 0.788235 0.039216
0.223529 0.796078 0.039216
0.290196 0.800000 0.054902
0.352941 0.811765 0.058824
0.423529 0.807843 0.058824
0.482353 0.815686 0.058824
0.552941 0.823529 0.070588
0.615686 0.831373 0.078431
0.694118 0.839216 0.082353
0.752941 0.843137 0.090196
0.819608 0.847059 0.094118
0.886275 0.858824 0.105882
0.945098 0.858824 0.101961
1.000000 0.862745 0.109804
0.039216 0.843137 0.035294
0.105882 0.858824 0.039216
0.172549 0.858824 0.054902
0.243137 0.870588 0.058824
0.305882 0.866667 0.058824
0.364706 0.878431 0.058824
0.427451 0.886275 0.078431
0.501961 0.890196 0.078431
0.560784 0.894118 0.086275
0.635294 0.905882 0.090196
0.694118 0.909804 0.101961
0.760784 0.905882 0.098039
0.827451 0.921569 0.101961
0.894118 0.925490 0.109804
0.960784 0.933333 0.121569
1.000000 0.937255 0.125490
0.047059 0.921569 0.054902
0.113725 0.921569 0.047059
0.180392 0.933333 0.058824
0.247059 0.937255 0.058824
0.305882 0.941176 0.074510
0.384314 0.949020 0.078431
0.443137 0.956863 0.086275
0.513725 0.964706 0.090196
0.576471 0.968627 0.101961
0.643137 0.968627 0.098039
0.709804 0.980392 0.109804
0.776471 0.984314 0.109804
0.835294 0.988235 0.125490
0.905882 1.000000 0.125490
0.972549 1.000000 0.125490
1.000000 1.000000 0.133333
0.058824 0.992157 0.058824
0.125490 0.996078 0.058824
0.192157 1.000000 0.074510
0.262745 1.000000 0.078431
0.325490 1.000000 0.086275
0.384314 1.000000 0.082353
0.462745 1.000000 0.101961
0.517647 1.000000 0.098039
0.584314 1.000000 0.105882
0.650980 1.000000 0.109804
0.721569 1.000000 0.125490
0.788235 1.000000 0.125490
0.854902 1.000000 0.133333
0.913725 1.000000 0.133333
0.992157 1.000000 0.152941
1.000000 1.000000 0.149020
0.000000 0.000000 0.043137
0.000000 0.000000 0.043137
0.000000 0.000000 0.043137
0.062745 0.000000 0.043137
0.125490 0.000000 0.043137
0.184314 0.000000 0.043137
0.262745 0.000000 0.031373
0.337255 0.000000 0.019608
0.415686 0.000000 0.007843
0.482353 0.000000 0.000000
0.541176 0.000000 0.000000
0.619608 0.003922 0.019608
0.674510 0.007843 0.011765
0.741176 0.011765 0.019608
0.807843 0.015686 0.023529
0.878431 0.015686 0.039216
0.000000 0.000000 0.043137
0.000000 0.000000 0.043137
0.000000 0.000000 0.043137
0.066667 0.000000 0.043137
0.129412 0.003922 0.043137
0.207843 0.000000 0.039216
0.270588 0.007843 0.027451
0.352941 0.015686 0.015686
0.419608 0.027451 0.003922
0.501961 0.027451 0.019608
0.556863 0.031373 0.011765
0.623529 0.039216 0.019608
0.686275 0.058824 0.023529
0.760784 0.062745 0.039216
0.819608 0.070588 0.039216
0.894118 0.082353 0.050980
0.000000 0.043137 0.043137
0.000000 0.050980 0.043137
0.019608 0.058824 0.043137
0.086275 0.062745 0.043137
0.145098 0.070588 0.043137
0.219608 0.078431 0.035294
0.294118 0.082353 0.023529
0.364706 0.082353 0.019608
0.439216 0.094118 0.011765
0.498039 0.101961 0.019608
0.572549 0.105882 0.019608
0.635294 0.121569 0.039216
0.701961 0.129412 0.039216
0.768627 0.145098 0.050980
0.839216 0.145098 0.047059
0.898039 0.145098 0.058824
0.000000 0.113725 0.043137
0.000000 0.125490 0.043137
0.027451 0.129412 0.043137
0.086275 0.137255 0.043137
0.164706 0.141176 0.050980
0.223529 0.145098 0.043137
0.305882 0.152941 0.039216
0.372549 0.160784 0.027451
0.450980 0.164706 0.019608
0.517647 0.172549 0.039216
0.584314 0.180392 0.039216
0.643137 0.192157 0.043137
0.721569 0.203922 0.047059
0.776471 0.207843 0.058824
0.843137 0.211765 0.058824
0.909804 0.223529 0.070588
0.000000 0.188235 0.043137
0.000000 0.196078 0.043137
0.047059 0.203922 0.050980
0.101961 0.203922 0.050980
0.168627 0.207843 0.054902
0.247059 0.219608 0.047059
0.321569 0.223529 0.043137
0.392157 0.231373 0.043137
0.462745 0.235294 0.047059
0.529412 0.243137 0.043137
0.596078 0.258824 0.047059
0.658824 0.262745 0.058824
0.717647 0.270588 0.058824
0.796078 0.282353 0.070588
0.854902 0.290196 0.070588
0.921569 0.290196 0.082353
0.000000 0.262745 0.039216
0.000000 0.266667 0.039216
0.050980 0.270588 0.043137
0.129412 0.278431 0.047059
0.192157 0.286275 0.050980
0.258824 0.290196 0.058824
0.333333 0.301961 0.058824
0.411765 0.301961 0.043137
0.466667 0.305882 0.047059
0.541176 0.317647 0.058824
0.600000 0.325490 0.066667
0.678431 0.337255 0.070588
0.737255 0.349020 0.070588
0.803922 0.352941 0.082353
0.870588 0.364706 0.086275
0.941176 0.364706 0.094118
0.000000 0.329412 0.039216
0.011765 0.333333 0.035294
0.082353 0.345098 0.043137
0.149020 0.349020 0.047059
0.219608 0.356863 0.054902
0.290196 0.364706 0.050980
0.345098 0.364706 0.054902
0.419608 0.372549 0.058824
0.486275 0.376471 0.066667
0.549020 0.388235 0.066667
0.619608 0.400000 0.078431
0.678431 0.411765 0.082353
0.752941 0.415686 0.090196
0.815686 0.427451 0.094118
0.878431 0.431373 0.090196
0.945098 0.439216 0.109804
0.000000 0.407843 0.035294
0.031373 0.411765 0.039216
0.101961 0.415686 0.043137
0.168627 0.427451 0.043137
0.231373 0.427451 0.047059
0.290196 0.431373 0.054902
0.368627 0.439216 0.066667
0.427451 0.447059 0.066667
0.498039 0.454902 0.078431
0.560784 0.462745 0.082353
0.631373 0.474510 0.090196
0.698039 0.490196 0.094118
0.760784 0.490196 0.098039
0.819608 0.494118 0.101961
0.898039 0.501961 0.113725
0.956863 0.509804 0.113725
0.000000 0.474510 0.043137
0.050980 0.486275 0.043137
0.109804 0.486275 0.047059
0.176471 0.490196 0.054902
0.250980 0.498039 0.066667
0.309804 0.505882 0.066667
0.376471 0.513725 0.070588
0.447059 0.521569 0.082353
0.509804 0.529412 0.090196
0.580392 0.541176 0.094118
0.635294 0.549020 0.098039
0.705882 0.552941 0.101961
0.772549 0.564706 0.113725
0.839216 0.568627 0.113725
0.898039 0.576471 0.121569
0.976471 0.580392 0.133333
0.000000 0.549020 0.047059
0.058824 0.552941 0.054902
0.125490 0.564706 0.066667
0.192157 0.572549 0.066667
0.250980 0.576471 0.070588
0.329412 0.588235 0.082353
0.388235 0.592157 0.090196
0.450980 0.592157 0.086275
0.517647 0.603922 0.098039
0.588235 0.603922 0.101961
0.650980 0.615686 0.109804
0.721569 0.631373 0.113725
0.780392 0.635294 0.121569
0.858824 0.643137 0.133333
0.917647 0.647059 0.141176
0.976471 0.650980 0.133333
0.000000 0.623529 0.062745
0.070588 0.635294 0.074510
0.137255 0.639216 0.070588
0.203922 0.643137 0.078431
0.270588 0.658824 0.090196
0.333333 0.658824 0.086275
0.403922 0.666667 0.098039
0.462745 0.674510 0.101961
0.529412 0.678431 0.109804
0.596078 0.694118 0.113725
0.666667 0.694118 0.121569
0.729412 0.701961 0.129412
0.800000 0.709804 0.141176
0.854902 0.713725 0.133333
0.929412 0.713725 0.141176
0.992157 0.725490 0.152941
0.019608 0.698039 0.070588
0.078431 0.709804 0.086275
0.152941 0.721569 0.090196
0.207843 0.725490 0.094118
0.278431 0.725490 0.094118
0.345098 0.737255 0.101961
0.411765 0.741176 0.109804
0.470588 0.749020 0.109804
0.549020 0.752941 0.121569
0.607843 0.760784 0.129412
0.682353 0.768627 0.141176
0.737255 0.772549 0.133333
0.807843 0.772549 0.141176
0.874510 0.784314 0.152941
0.941176 0.788235 0.160784
1.000000 0.796078 0.160784
0.031373 0.784314 0.090196
0.094118 0.780392 0.094118
0.160784 0.788235 0.094118
0.227451 0.796078 0.109804
0.294118 0.803922 0.109804
0.360784 0.803922 0.117647
0.431373 0.815686 0.121569
0.490196 0.823529 0.129412
0.545098 0.823529 0.129412
0.623529 0.831373 0.133333
0.686275 0.839216 0.141176
0.756863 0.847059 0.152941
0.815686 0.850980 0.160784
0.890196 0.854902 0.160784
0.952941 0.866667 0.172549
1.000000 0.870588 0.176471
0.035294 0.850980 0.094118
0.101961 0.850980 0.105882
0.168627 0.866667 0.109804
0.239216 0.866667 0.117647
0.305882 0.878431 0.121569
0.372549 0.882353 0.137255
0.427451 0.886275 0.129412
0.505882 0.890196 0.141176
0.564706 0.898039 0.141176
0.631373 0.901961 0.149020
0.698039 0.913725 0.160784
0.768627 0.913725 0.160784
0.831373 0.921569 0.164706
0.901961 0.929412 0.176471
0.956863 0.933333 0.180392
1.000000 0.941176 0.184314
0.054902 0.921569 0.109804
0.121569 0.925490 0.117647
0.180392 0.933333 0.117647
0.250980 0.941176 0.137255
0.313725 0.941176 0.129412
0.380392 0.945098 0.137255
0.447059 0.956863 0.141176
0.505882 0.964706 0.156863
0.584314 0.968627 0.160784
0.643137 0.976471 0.168627
0.709804 0.980392 0.164706
0.776471 0.992157 0.184314
0.843137 0.988235 0.180392
0.905882 0.996078 0.180392
0.976471 1.000000 0.192157
1.000000 1.000000 0.196078
0.062745 0.996078 0.117647
0.129412 1.000000 0.137255
0.196078 1.000000 0.129412
0.254902 1.000000 0.137255
0.329412 1.000000 0.141176
0.388235 1.000000 0.156863
0.462745 1.000000 0.156863
0.525490 1.000000 0.168627
0.592157 1.000000 0.164706
0.658824 1.000000 0.184314
0.725490 1.000000 0.180392
0.784314 1.000000 0.188235
0.858824 1.000000 0.192157
0.917647 1.000000 0.207843
0.984314 1.000000 0.203922
1.000000 1.000000 0.207843
0.000000 0.000000 0.066667
0.000000 0.000000 0.050980
0.000000 0.000000 0.066667
0.058824 0.000000 0.062745
0.125490 0.000000 0.074510
0.192157 0.000000 0.070588
0.266667 0.000000 0.078431
0.341176 0.000000 0.066667
0.407843 0.000000 0.062745
0.486275 0.000000 0.054902
0.545098 0.000000 0.070588
0.619608 0.003922 0.070588
0.682353 0.007843 0.082353
0.749020 0.011765 0.082353
0.803922 0.015686 0.090196
0.882353 0.015686 0.094118
0.000000 0.000000 0.066667
0.000000 0.000000 0.062745
0.007843 0.000000 0.074510
0.074510 0.000000 0.074510
0.137255 0.000000 0.086275
0.211765 0.003922 0.082353
0.278431 0.011765 0.082353
0.352941 0.015686 0.062745
0.431373 0.023529 0.070588
0.498039 0.027451 0.070588
0.564706 0.043137 0.082353
0.623529 0.054902 0.082353
0.694118 0.054902 0.090196
0.756863 0.070588 0.094118
0.823529 0.074510 0.101961
0.886275 0.082353 0.101961
0.000000 0.047059 0.070588
0.000000 0.054902 0.082353
0.015686 0.054902 0.086275
0.082353 0.066667 0.090196
0.152941 0.070588 0.094118
0.215686 0.078431 0.078431
0.305882 0.082353 0.082353
0.372549 0.090196 0.074510
0.439216 0.094118 0.078431
0.505882 0.113725 0.082353
0.572549 0.109804 0.090196
0.635294 0.121569 0.090196
0.705882 0.133333 0.101961
0.764706 0.141176 0.101961
0.843137 0.145098 0.121569
0.901961 0.152941 0.121569
0.000000 0.113725 0.086275
0.000000 0.121569 0.094118
0.027451 0.133333 0.098039
0.094118 0.137255 0.101961
0.176471 0.145098 0.101961
0.239216 0.152941 0.094118
0.313725 0.156863 0.086275
0.392157 0.164706 0.082353
0.454902 0.164706 0.090196
0.513725 0.176471 0.090196
0.580392 0.192157 0.101961
0.654902 0.196078 0.101961
0.713725 0.203922 0.117647
0.784314 0.215686 0.121569
0.843137 0.223529 0.125490
0.921569 0.227451 0.129412
0.000000 0.192157 0.098039
0.000000 0.196078 0.101961
0.047059 0.203922 0.098039
0.117647 0.211765 0.105882
0.176471 0.219608 0.105882
0.250980 0.215686 0.098039
0.325490 0.227451 0.098039
0.396078 0.231373 0.098039
0.462745 0.243137 0.101961
0.533333 0.247059 0.101961
0.596078 0.258824 0.117647
0.666667 0.274510 0.121569
0.725490 0.282353 0.125490
0.796078 0.278431 0.121569
0.858824 0.290196 0.141176
0.925490 0.294118 0.141176
0.000000 0.262745 0.098039
0.000000 0.270588 0.105882
0.070588 0.278431 0.094118
0.133333 0.274510 0.098039
0.203922 0.286275 0.101961
0.270588 0.290196 0.109804
0.345098 0.294118 0.101961
0.415686 0.305882 0.109804
0.474510 0.313725 0.117647
0.541176 0.321569 0.121569
0.611765 0.337255 0.125490
0.670588 0.345098 0.121569
0.741176 0.349020 0.141176
0.800000 0.356863 0.141176
0.874510 0.356863 0.149020
0.937255 0.372549 0.149020
0.000000 0.337255 0.098039
0.015686 0.337255 0.094118
0.082353 0.345098 0.090196
0.152941 0.352941 0.098039
0.223529 0.356863 0.098039
0.290196 0.368627 0.109804
0.356863 0.372549 0.117647
0.415686 0.376471 0.121569
0.494118 0.388235 0.125490
0.549020 0.396078 0.129412
0.615686 0.403922 0.137255
0.682353 0.415686 0.149020
0.752941 0.419608 0.149020
0.819608 0.431373 0.149020
0.886275 0.435294 0.164706
0.945098 0.443137 0.164706
0.000000 0.403922 0.094118
0.039216 0.411765 0.098039
0.105882 0.415686 0.098039
0.164706 0.423529 0.105882
0.239216 0.431373 0.117647
0.305882 0.435294 0.121569
0.376471 0.447059 0.125490
0.431373 0.447059 0.129412
0.498039 0.454902 0.137255
0.568627 0.470588 0.149020
0.631373 0.478431 0.149020
0.698039 0.486275 0.152941
0.760784 0.498039 0.164706
0.835294 0.498039 0.172549
0.890196 0.501961 0.168627
0.960784 0.513725 0.172549
0.000000 0.478431 0.098039
0.047059 0.486275 0.105882
0.113725 0.498039 0.117647
0.184314 0.501961 0.121569
0.243137 0.501961 0.117647
0.313725 0.513725 0.129412
0.372549 0.521569 0.137255
0.447059 0.521569 0.145098
0.509804 0.537255 0.149020
0.576471 0.545098 0.152941
0.643137 0.556863 0.164706
0.713725 0.560784 0.172549
0.772549 0.564706 0.168627
0.843137 0.572549 0.180392
0.901961 0.576471 0.184314
0.976471 0.576471 0.192157
0.000000 0.549020 0.113725
0.066667 0.560784 0.121569
0.121569 0.568627 0.117647
0.192157 0.576471 0.129412
0.258824 0.580392 0.137255
0.325490 0.588235 0.145098
0.392157 0.600000 0.149020
0.458824 0.603922 0.152941
0.525490 0.607843 0.160784
0.588235 0.619608 0.172549
0.650980 0.623529 0.168627
0.713725 0.631373 0.172549
0.788235 0.635294 0.184314
0.850980 0.643137 0.192157
0.921569 0.650980 0.196078
0.980392 0.658824 0.203922
0.003922 0.623529 0.125490
0.062745 0.635294 0.125490
0.141176 0.643137 0.137255
0.200000 0.650980 0.145098
0.266667 0.654902 0.141176
0.333333 0.670588 0.152941
0.407843 0.670588 0.160784
0.470588 0.682353 0.172549
0.533333 0.682353 0.168627
0.592157 0.690196 0.172549
0.670588 0.694118 0.184314
0.733333 0.701961 0.192157
0.800000 0.705882 0.192157
0.862745 0.717647 0.203922
0.937255 0.717647 0.211765
1.000000 0.729412 0.223529
0.023529 0.698039 0.145098
0.082353 0.713725 0.145098
0.149020 0.717647 0.149020
0.219608 0.729412 0.152941
0.286275 0.733333 0.160784
0.341176 0.733333 0.164706
0.415686 0.745098 0.168627
0.482353 0.749020 0.172549
0.545098 0.760784 0.184314
0.611765 0.764706 0.192157
0.674510 0.772549 0.192157
0.749020 0.776471 0.203922
0.811765 0.784314 0.211765
0.874510 0.780392 0.211765
0.937255 0.796078 0.215686
1.000000 0.796078 0.223529
0.031373 0.780392 0.149020
0.101961 0.788235 0.152941
0.160784 0.796078 0.168627
0.223529 0.796078 0.164706
0.290196 0.807843 0.176471
0.360784 0.807843 0.172549
0.423529 0.815686 0.180392
0.494118 0.823529 0.192157
0.552941 0.831373 0.192157
0.627451 0.831373 0.200000
0.690196 0.843137 0.211765
0.752941 0.843137 0.211765
0.819608 0.854902 0.215686
0.890196 0.854902 0.223529
0.952941 0.862745 0.231373
1.000000 0.874510 0.243137
0.043137 0.854902 0.168627
0.105882 0.854902 0.164706
0.172549 0.858824 0.172549
0.243137 0.870588 0.172549
0.301961 0.874510 0.188235
0.376471 0.882353 0.192157
0.443137 0.886275 0.200000
0.509804 0.894118 0.200000
0.572549 0.905882 0.211765
0.627451 0.905882 0.211765
0.701961 0.909804 0.211765
0.764706 0.921569 0.223529
0.831373 0.921569 0.231373
0.894118 0.929412 0.239216
0.972549 0.937255 0.243137
1.000000 0.945098 0.247059
0.054902 0.921569 0.172549
0.117647 0.933333 0.172549
0.184314 0.933333 0.188235
0.243137 0.945098 0.188235
0.321569 0.949020 0.200000
0.384314 0.956863 0.200000
0.454902 0.964706 0.219608
0.509804 0.968627 0.211765
0.584314 0.968627 0.219608
0.647059 0.980392 0.223529
0.713725 0.984314 0.231373
0.776471 0.992157 0.239216
0.850980 0.996078 0.243137
0.913725 1.000000 0.247059
0.976471 1.000000 0.250980
1.000000 1.000000 0.262745
0.066667 0.996078 0.188235
0.133333 1.000000 0.188235
0.203922 1.000000 0.200000
0.262745 1.000000 0.200000
0.325490 1.000000 0.207843
0.396078 1.000000 0.211765
0.462745 1.000000 0.219608
0.525490 1.000000 0.219608
0.588235 1.000000 0.239216
0.662745 1.000000 0.239216
0.725490 1.000000 0.250980
0.792157 1.000000 0.247059
0.850980 1.000000 0.258824
0.925490 1.000000 0.262745
0.988235 1.000000 0.262745
1.000000 1.000000 0.266667
0.000000 0.000000 0.113725
0.000000 0.000000 0.117647
0.000000 0.000000 0.121569
0.062745 0.000000 0.129412
0.125490 0.000000 0.129412
0.196078 0.000000 0.145098
0.270588 0.000000 0.129412
0.349020 0.000000 0.129412
0.415686 0.000000 0.121569
0.482353 0.000000 0.125490
0.552941 0.000000 0.129412
0.619608 0.003922 0.133333
0.682353 0.007843 0.133333
0.745098 0.011765 0.152941
0.819608 0.015686 0.152941
0.878431 0.015686 0.160784
0.000000 0.000000 0.121569
0.000000 0.000000 0.129412
0.003922 0.000000 0.129412
0.074510 0.000000 0.149020
0.141176 0.003922 0.145098
0.207843 0.007843 0.145098
0.286275 0.019608 0.137255
0.349020 0.019608 0.137255
0.431373 0.019608 0.125490
0.494118 0.031373 0.133333
0.560784 0.043137 0.133333
0.627451 0.054902 0.152941
0.701961 0.062745 0.152941
0.760784 0.070588 0.160784
0.831373 0.082353 0.164706
0.886275 0.082353 0.172549
0.000000 0.050980 0.137255
0.000000 0.058824 0.149020
0.023529 0.062745 0.145098
0.086275 0.070588 0.152941
0.160784 0.078431 0.145098
0.227451 0.078431 0.149020
0.301961 0.082353 0.137255
0.376471 0.094118 0.133333
0.443137 0.098039 0.133333
0.509804 0.105882 0.149020
0.580392 0.117647 0.152941
0.643137 0.129412 0.160784
0.705882 0.145098 0.164706
0.776471 0.141176 0.172549
0.835294 0.149020 0.172549
0.905882 0.156863 0.184314
0.000000 0.121569 0.152941
0.000000 0.129412 0.152941
0.027451 0.129412 0.156863
0.101961 0.137255 0.156863
0.172549 0.145098 0.149020
0.250980 0.152941 0.145098
0.317647 0.160784 0.133333
0.392157 0.160784 0.149020
0.454902 0.176471 0.152941
0.521569 0.184314 0.160784
0.580392 0.192157 0.152941
0.654902 0.200000 0.172549
0.717647 0.207843 0.172549
0.784314 0.211765 0.180392
0.847059 0.223529 0.184314
0.921569 0.223529 0.200000
0.000000 0.188235 0.156863
0.000000 0.196078 0.168627
0.047059 0.203922 0.164706
0.121569 0.207843 0.149020
0.192157 0.219608 0.156863
0.266667 0.219608 0.156863
0.333333 0.231373 0.149020
0.403922 0.239216 0.160784
0.466667 0.243137 0.152941
0.537255 0.250980 0.172549
0.596078 0.266667 0.172549
0.658824 0.274510 0.180392
0.733333 0.282353 0.184314
0.796078 0.286275 0.200000
0.862745 0.294118 0.196078
0.925490 0.305882 0.207843
0.000000 0.266667 0.164706
0.000000 0.270588 0.156863
0.074510 0.278431 0.156863
0.141176 0.286275 0.152941
0.211765 0.290196 0.156863
0.278431 0.301961 0.160784
0.345098 0.298039 0.160784
0.407843 0.305882 0.168627
0.478431 0.321569 0.180392
0.537255 0.333333 0.180392
0.615686 0.341176 0.184314
0.678431 0.349020 0.200000
0.745098 0.352941 0.196078
0.807843 0.364706 0.207843
0.878431 0.360784 0.203922
0.937255 0.368627 0.219608
0.000000 0.333333 0.156863
0.019608 0.345098 0.164706
0.094118 0.349020 0.160784
0.164706 0.360784 0.160784
0.227451 0.356863 0.160784
0.290196 0.364706 0.168627
0.360784 0.372549 0.180392
0.427451 0.380392 0.180392
0.494118 0.388235 0.188235
0.556863 0.403922 0.200000
0.623529 0.411765 0.203922
0.686275 0.411765 0.200000
0.752941 0.427451 0.203922
0.819608 0.427451 0.219608
