public/luts/urbain.cube
# Studiio — look « urbain », genere par scripts/lut/generer-luts.mjs
# Source : les coefficients de LOOKS_RENDUS, calcules par ffmpeg lui-meme.
# Aucune LUT tierce, aucun telechargement : provenance et licence du depot.
LUT_3D_SIZE 6
DOMAIN_MIN 0.0 0.0 0.0
DOMAIN_MAX 1.0 1.0 1.0
0.000000 0.000000 0.043137
0.047059 0.000000 0.043137
0.262745 0.000000 0.031373
0.474510 0.000000 0.000000
0.678431 0.007843 0.000000
0.870588 0.015686 0.000000
0.000000 0.117647 0.043137
0.090196 0.129412 0.043137
0.301961 0.149020 0.023529
0.513725 0.172549 0.000000
0.713725 0.192157 0.000000
0.905882 0.223529 0.003922
0.000000 0.329412 0.023529
0.145098 0.352941 0.019608
0.337255 0.368627 0.015686
0.556863 0.384314 0.011765
0.741176 0.415686 0.027451
0.941176 0.439216 0.035294
0.000000 0.545098 0.000000
0.188235 0.564706 0.007843
0.380392 0.584314 0.019608
0.584314 0.600000 0.039216
0.784314 0.639216 0.062745
0.984314 0.650980 0.082353
0.023529 0.772549 0.031373
0.223529 0.796078 0.039216
0.423529 0.807843 0.058824
0.615686 0.831373 0.078431
0.819608 0.847059 0.094118
1.000000 0.862745 0.109804
0.058824 0.992157 0.058824
0.262745 1.000000 0.078431
0.462745 1.000000 0.101961
0.650980 1.000000 0.109804
0.854902 1.000000 0.133333
1.000000 1.000000 0.149020
0.000000 0.000000 0.113725
0.062745 0.000000 0.129412
0.270588 0.000000 0.129412
0.482353 0.000000 0.125490
0.682353 0.007843 0.133333
0.878431 0.015686 0.160784
0.000000 0.121569 0.152941
0.101961 0.137255 0.156863
0.317647 0.160784 0.133333
0.521569 0.184314 0.160784
0.717647 0.207843 0.172549
0.921569 0.223529 0.200000
0.000000 0.333333 0.156863
0.164706 0.360784 0.160784
0.360784 0.372549 0.180392
0.556863 0.403922 0.200000
0.752941 0.427451 0.203922
0.956863 0.439216 0.231373
0.000000 0.549020 0.176471
0.192157 0.584314 0.192157
0.388235 0.600000 0.207843
0.588235 0.619608 0.223529
0.796078 0.643137 0.254902
0.984314 0.658824 0.266667
0.035294 0.784314 0.207843
0.231373 0.800000 0.231373
0.423529 0.815686 0.247059
0.623529 0.835294 0.262745
0.827451 0.854902 0.282353
1.000000 0.874510 0.294118
0.066667 1.000000 0.247059
0.266667 1.000000 0.270588
0.466667 1.000000 0.282353
0.666667 1.000000 0.301961
0.858824 1.000000 0.321569
1.000000 1.000000 0.333333
0.000000 0.000000 0.294118
0.074510 0.000000 0.301961
0.278431 0.000000 0.325490
0.490196 0.000000 0.301961
0.682353 0.007843 0.329412
0.886275 0.015686 0.345098
0.000000 0.129412 0.325490
0.125490 0.149020 0.305882
0.333333 0.164706 0.329412
0.529412 0.192157 0.345098
0.725490 0.211765 0.364706
0.921569 0.235294 0.376471
0.000000 0.345098 0.341176
0.172549 0.364706 0.352941
0.368627 0.392157 0.364706
0.560784 0.419608 0.376471
0.760784 0.431373 0.396078
0.956863 0.450980 0.415686
0.000000 0.560784 0.360784
0.203922 0.588235 0.380392
0.400000 0.607843 0.392157
0.596078 0.627451 0.419608
0.800000 0.650980 0.439216
0.992157 0.666667 0.447059
0.043137 0.788235 0.392157
0.239216 0.807843 0.419608
0.427451 0.827451 0.431373
0.631373 0.843137 0.450980
0.831373 0.862745 0.466667
1.000000 0.874510 0.486275
0.078431 1.000000 0.439216
0.274510 1.000000 0.450980
0.474510 1.000000 0.474510
0.666667 1.000000 0.486275
0.866667 1.000000 0.505882
1.000000 1.000000 0.517647
0.000000 0.000000 0.447059
0.101961 0.000000 0.466667
0.301961 0.000000 0.474510
0.494118 0.000000 0.486275
0.698039 0.007843 0.513725
0.898039 0.023529 0.529412
0.000000 0.137255 0.474510
0.137255 0.156863 0.494118
0.337255 0.180392 0.513725
0.541176 0.200000 0.537255
0.733333 0.219608 0.545098
0.925490 0.243137 0.568627
0.000000 0.349020 0.517647
0.176471 0.380392 0.537255
0.368627 0.403922 0.545098
0.576471 0.419608 0.568627
0.768627 0.435294 0.584314
0.968627 0.454902 0.607843
0.007843 0.564706 0.549020
0.207843 0.600000 0.564706
0.407843 0.611765 0.588235
0.603922 0.631373 0.603922
0.792157 0.650980 0.607843
1.000000 0.670588 0.639216
0.043137 0.796078 0.588235
0.243137 0.815686 0.603922
0.443137 0.831373 0.615686
0.639216 0.850980 0.635294
0.839216 0.866667 0.658824
1.000000 0.882353 0.674510
0.078431 1.000000 0.615686
0.282353 1.000000 0.635294
0.482353 1.000000 0.658824
0.670588 1.000000 0.674510
0.874510 1.000000 0.690196
1.000000 1.000000 0.705882
0.000000 0.003922 0.639216
0.109804 0.003922 0.643137
0.309804 0.007843 0.658824
0.501961 0.007843 0.682353
0.701961 0.007843 0.698039
0.898039 0.031373 0.717647
0.000000 0.152941 0.666667
0.145098 0.176471 0.682353
0.345098 0.192157 0.705882
0.541176 0.215686 0.717647
0.737255 0.231373 0.729412
0.941176 0.247059 0.756863
0.000000 0.360784 0.701961
0.176471 0.388235 0.705882
0.380392 0.411765 0.737255
0.576471 0.431373 0.756863
0.776471 0.443137 0.776471
0.976471 0.462745 0.784314
0.019608 0.584314 0.733333
0.215686 0.607843 0.756863
0.407843 0.623529 0.772549
0.607843 0.643137 0.780392
0.807843 0.654902 0.803922
1.000000 0.678431 0.823529
0.054902 0.803922 0.772549
0.250980 0.823529 0.788235
0.443137 0.839216 0.803922
0.650980 0.854902 0.827451
0.847059 0.874510 0.847059
1.000000 0.894118 0.850980
0.086275 1.000000 0.803922
0.286275 1.000000 0.827451
0.486275 1.000000 0.847059
0.686275 1.000000 0.858824
0.882353 1.000000 0.878431
1.000000 1.000000 0.898039
0.000000 0.015686 0.815686
0.113725 0.015686 0.827451
0.317647 0.015686 0.854902
0.509804 0.015686 0.866667
0.709804 0.019608 0.886275
0.905882 0.039216 0.901961
0.000000 0.168627 0.854902
0.149020 0.184314 0.874510
0.352941 0.200000 0.886275
0.549020 0.219608 0.901961
0.745098 0.235294 0.921569
0.941176 0.254902 0.941176
0.000000 0.380392 0.878431
0.184314 0.392157 0.901961
0.388235 0.415686 0.921569
0.584314 0.435294 0.949020
0.780392 0.450980 0.952941
0.976471 0.470588 0.972549
0.027451 0.592157 0.925490
0.223529 0.611765 0.945098
0.419608 0.631373 0.949020
0.615686 0.647059 0.976471
0.811765 0.662745 0.988235
1.000000 0.682353 1.000000
0.062745 0.807843 0.956863
0.258824 0.831373 0.976471
0.454902 0.843137 0.996078
0.650980 0.862745 1.000000
0.850980 0.886275 1.000000
1.000000 0.894118 1.000000
0.098039 1.000000 0.996078
0.294118 1.000000 1.000000
0.494118 1.000000 1.000000
0.686275 1.000000 1.000000
0.890196 1.000000 1.000000
1.000000 1.000000 1.000000
