public/luts/vibrant.cube
# Studiio — look « vibrant », genere par scripts/lut/generer-luts.mjs
# Source : les coefficients de LOOKS_RENDUS, calcules par ffmpeg lui-meme.
# Aucune LUT tierce, aucun telechargement : provenance et licence du depot.
LUT_3D_SIZE 6
DOMAIN_MIN 0.0 0.0 0.0
DOMAIN_MAX 1.0 1.0 1.0
0.000000 0.000000 0.000000
0.176471 0.000000 0.000000
0.435294 0.000000 0.000000
0.678431 0.000000 0.000000
0.933333 0.000000 0.000000
1.000000 0.000000 0.000000
0.000000 0.192157 0.000000
0.164706 0.176471 0.000000
0.411765 0.160784 0.000000
0.654902 0.156863 0.000000
0.905882 0.141176 0.000000
1.000000 0.125490 0.000000
0.000000 0.423529 0.000000
0.141176 0.415686 0.000000
0.388235 0.403922 0.000000
0.639216 0.388235 0.000000
0.878431 0.376471 0.000000
1.000000 0.368627 0.000000
0.000000 0.658824 0.000000
0.113725 0.647059 0.000000
0.352941 0.635294 0.000000
0.611765 0.623529 0.000000
0.862745 0.615686 0.000000
1.000000 0.600000 0.000000
0.000000 0.898039 0.000000
0.090196 0.886275 0.000000
0.345098 0.870588 0.000000
0.584314 0.862745 0.000000
0.839216 0.850980 0.000000
1.000000 0.835294 0.000000
0.000000 1.000000 0.000000
0.074510 1.000000 0.000000
0.317647 1.000000 0.000000
0.564706 1.000000 0.000000
0.815686 1.000000 0.000000
1.000000 1.000000 0.000000
0.000000 0.000000 0.184314
0.188235 0.000000 0.180392
0.427451 0.000000 0.164706
0.678431 0.000000 0.156863
0.929412 0.000000 0.137255
1.000000 0.000000 0.129412
0.000000 0.180392 0.172549
0.156863 0.168627 0.156863
0.400000 0.164706 0.137255
0.654902 0.149020 0.129412
0.898039 0.133333 0.113725
1.000000 0.121569 0.113725
0.000000 0.415686 0.149020
0.133333 0.411765 0.129412
0.384314 0.392157 0.121569
0.635294 0.384314 0.113725
0.874510 0.376471 0.090196
1.000000 0.360784 0.082353
0.000000 0.654902 0.117647
0.105882 0.647059 0.109804
0.356863 0.631373 0.101961
0.603922 0.619608 0.078431
0.862745 0.611765 0.078431
1.000000 0.600000 0.062745
0.000000 0.894118 0.101961
0.090196 0.878431 0.094118
0.333333 0.866667 0.070588
0.580392 0.858824 0.058824
0.831373 0.843137 0.050980
1.000000 0.831373 0.031373
0.000000 1.000000 0.070588
0.066667 1.000000 0.066667
0.309804 1.000000 0.050980
0.560784 1.000000 0.047059
0.807843 1.000000 0.027451
1.000000 1.000000 0.011765
0.000000 0.000000 0.447059
0.172549 0.000000 0.431373
0.427451 0.000000 0.427451
0.674510 0.000000 0.403922
0.913725 0.000000 0.400000
1.000000 0.000000 0.388235
0.000000 0.180392 0.427451
0.152941 0.168627 0.403922
0.407843 0.152941 0.400000
0.650980 0.145098 0.388235
0.901961 0.129412 0.380392
1.000000 0.117647 0.356863
0.000000 0.415686 0.392157
0.137255 0.407843 0.396078
0.380392 0.392157 0.380392
0.619608 0.384314 0.356863
0.874510 0.364706 0.349020
1.000000 0.356863 0.341176
0.000000 0.650980 0.376471
0.109804 0.635294 0.368627
0.349020 0.627451 0.345098
0.603922 0.611765 0.341176
0.854902 0.603922 0.333333
1.000000 0.596078 0.309804
0.000000 0.886275 0.345098
0.086275 0.878431 0.341176
0.325490 0.866667 0.325490
0.576471 0.850980 0.321569
0.827451 0.843137 0.301961
1.000000 0.823529 0.294118
0.000000 1.000000 0.337255
0.054902 1.000000 0.321569
0.313725 1.000000 0.317647
0.556863 1.000000 0.294118
0.796078 1.000000 0.278431
1.000000 1.000000 0.270588
0.000000 0.000000 0.701961
0.172549 0.000000 0.694118
0.419608 0.000000 0.674510
0.666667 0.000000 0.658824
0.921569 0.000000 0.654902
1.000000 0.000000 0.639216
0.000000 0.176471 0.674510
0.152941 0.160784 0.666667
0.396078 0.152941 0.654902
0.647059 0.137255 0.647059
0.894118 0.125490 0.623529
1.000000 0.117647 0.623529
0.000000 0.407843 0.658824
0.129412 0.400000 0.647059
0.372549 0.388235 0.623529
0.631373 0.376471 0.623529
0.870588 0.364706 0.607843
1.000000 0.349020 0.600000
0.000000 0.643137 0.635294
0.098039 0.639216 0.615686
0.352941 0.619608 0.611765
0.596078 0.607843 0.596078
0.835294 0.600000 0.572549
1.000000 0.592157 0.572549
0.000000 0.886275 0.611765
0.078431 0.870588 0.596078
0.329412 0.854902 0.588235
0.572549 0.850980 0.568627
0.823529 0.831373 0.560784
1.000000 0.819608 0.545098
0.000000 1.000000 0.588235
0.058824 1.000000 0.568627
0.305882 1.000000 0.560784
0.545098 1.000000 0.545098
0.800000 1.000000 0.545098
1.000000 1.000000 0.521569
0.000000 0.000000 0.964706
0.164706 0.000000 0.941176
0.415686 0.000000 0.929412
0.666667 0.000000 0.921569
0.905882 0.000000 0.905882
1.000000 0.000000 0.898039
0.000000 0.172549 0.937255
0.149020 0.156863 0.921569
0.392157 0.141176 0.913725
0.643137 0.137255 0.898039
0.890196 0.121569 0.882353
1.000000 0.105882 0.874510
0.000000 0.403922 0.909804
0.113725 0.392157 0.886275
0.376471 0.384314 0.890196
0.615686 0.372549 0.874510
0.866667 0.352941 0.866667
1.000000 0.349020 0.847059
0.000000 0.643137 0.886275
0.098039 0.627451 0.878431
0.341176 0.615686 0.862745
0.592157 0.607843 0.843137
0.843137 0.588235 0.835294
1.000000 0.584314 0.827451
0.000000 0.878431 0.862745
0.078431 0.866667 0.858824
0.317647 0.858824 0.835294
0.568627 0.839216 0.827451
0.819608 0.831373 0.819608
1.000000 0.823529 0.796078
0.000000 1.000000 0.835294
0.050980 1.000000 0.827451
0.301961 1.000000 0.819608
0.552941 1.000000 0.811765
0.792157 1.000000 0.788235
1.000000 1.000000 0.780392
0.000000 0.000000 1.000000
0.160784 0.000000 1.000000
0.415686 0.000000 1.000000
0.658824 0.000000 1.000000
0.901961 0.000000 1.000000
1.000000 0.000000 1.000000
0.000000 0.164706 1.000000
0.133333 0.152941 1.000000
0.388235 0.145098 1.000000
0.635294 0.129412 1.000000
0.886275 0.113725 1.000000
1.000000 0.105882 1.000000
0.000000 0.403922 1.000000
0.117647 0.384314 1.000000
0.368627 0.376471 1.000000
0.615686 0.368627 1.000000
0.862745 0.356863 1.000000
1.000000 0.341176 1.000000
0.000000 0.631373 1.000000
0.094118 0.627451 1.000000
0.337255 0.615686 1.000000
0.592157 0.596078 1.000000
0.831373 0.588235 1.000000
1.000000 0.580392 1.000000
0.000000 0.874510 1.000000
0.070588 0.862745 1.000000
0.317647 0.847059 1.000000
0.564706 0.839216 1.000000
0.811765 0.827451 1.000000
1.000000 0.807843 1.000000
0.000000 1.000000 1.000000
0.047059 1.000000 1.000000
0.298039 1.000000 1.000000
0.537255 1.000000 1.000000
0.792157 1.000000 1.000000
1.000000 1.000000 1.000000
