public/luts/vibrant.cube
# Studiio — look « vibrant », genere par scripts/lut/generer-luts.mjs
# Source : les coefficients de LOOKS_RENDUS, calcules par ffmpeg lui-meme.
# Aucune LUT tierce, aucun telechargement : provenance et licence du depot.
LUT_3D_SIZE 16
DOMAIN_MIN 0.0 0.0 0.0
DOMAIN_MAX 1.0 1.0 1.0
0.000000 0.000000 0.000000
0.011765 0.000000 0.000000
0.101961 0.000000 0.000000
0.176471 0.000000 0.000000
0.270588 0.000000 0.000000
0.349020 0.000000 0.000000
0.435294 0.000000 0.000000
0.513725 0.000000 0.000000
0.603922 0.000000 0.000000
0.678431 0.000000 0.000000
0.764706 0.000000 0.000000
0.843137 0.000000 0.000000
0.933333 0.000000 0.000000
1.000000 0.000000 0.000000
1.000000 0.000000 0.000000
1.000000 0.000000 0.000000
0.000000 0.031373 0.000000
0.007843 0.023529 0.000000
0.101961 0.019608 0.000000
0.180392 0.019608 0.000000
0.266667 0.015686 0.000000
0.341176 0.011765 0.000000
0.435294 0.003922 0.000000
0.509804 0.000000 0.000000
0.584314 0.000000 0.000000
0.674510 0.000000 0.000000
0.749020 0.000000 0.000000
0.847059 0.000000 0.000000
0.921569 0.000000 0.000000
1.000000 0.000000 0.000000
1.000000 0.000000 0.000000
1.000000 0.000000 0.000000
0.000000 0.109804 0.000000
0.003922 0.105882 0.000000
0.082353 0.105882 0.000000
0.172549 0.094118 0.000000
0.254902 0.098039 0.000000
0.337255 0.090196 0.000000
0.411765 0.086275 0.000000
0.505882 0.082353 0.000000
0.580392 0.074510 0.000000
0.666667 0.074510 0.000000
0.745098 0.070588 0.000000
0.839216 0.066667 0.000000
0.917647 0.062745 0.000000
0.996078 0.054902 0.000000
1.000000 0.054902 0.000000
1.000000 0.054902 0.000000
0.000000 0.192157 0.000000
0.003922 0.180392 0.000000
0.078431 0.176471 0.000000
0.164706 0.176471 0.000000
0.243137 0.172549 0.000000
0.337255 0.164706 0.000000
0.411765 0.160784 0.000000
0.498039 0.156863 0.000000
0.576471 0.156863 0.000000
0.654902 0.156863 0.000000
0.741176 0.145098 0.000000
0.823529 0.145098 0.000000
0.905882 0.141176 0.000000
0.980392 0.137255 0.000000
1.000000 0.129412 0.000000
1.000000 0.125490 0.000000
0.000000 0.262745 0.000000
0.000000 0.266667 0.000000
0.070588 0.254902 0.000000
0.152941 0.254902 0.000000
0.235294 0.250980 0.000000
0.317647 0.250980 0.000000
0.403922 0.239216 0.000000
0.486275 0.239216 0.000000
0.568627 0.235294 0.000000
0.647059 0.231373 0.000000
0.737255 0.227451 0.000000
0.811765 0.223529 0.000000
0.901961 0.219608 0.000000
0.976471 0.215686 0.000000
1.000000 0.207843 0.000000
1.000000 0.207843 0.000000
0.000000 0.341176 0.000000
0.000000 0.341176 0.000000
0.066667 0.337255 0.000000
0.145098 0.337255 0.000000
0.235294 0.325490 0.000000
0.317647 0.325490 0.000000
0.400000 0.317647 0.000000
0.474510 0.313725 0.000000
0.556863 0.317647 0.000000
0.643137 0.305882 0.000000
0.729412 0.309804 0.000000
0.807843 0.301961 0.000000
0.886275 0.301961 0.000000
0.980392 0.294118 0.000000
1.000000 0.286275 0.000000
1.000000 0.286275 0.000000
0.000000 0.423529 0.000000
0.000000 0.423529 0.000000
0.050980 0.415686 0.000000
0.141176 0.415686 0.000000
0.215686 0.411765 0.000000
0.305882 0.400000 0.000000
0.388235 0.403922 0.000000
0.470588 0.392157 0.000000
0.549020 0.396078 0.000000
0.639216 0.388235 0.000000
0.717647 0.388235 0.000000
0.800000 0.376471 0.000000
0.878431 0.376471 0.000000
0.968627 0.368627 0.000000
1.000000 0.368627 0.000000
1.000000 0.368627 0.000000
0.000000 0.501961 0.000000
0.000000 0.494118 0.000000
0.047059 0.498039 0.000000
0.133333 0.486275 0.000000
0.215686 0.486275 0.000000
0.298039 0.478431 0.000000
0.380392 0.482353 0.000000
0.458824 0.478431 0.000000
0.549020 0.474510 0.000000
0.623529 0.466667 0.000000
0.709804 0.462745 0.000000
0.788235 0.462745 0.000000
0.874510 0.450980 0.000000
0.960784 0.450980 0.000000
1.000000 0.447059 0.000000
1.000000 0.443137 0.000000
0.000000 0.584314 0.000000
0.000000 0.576471 0.000000
0.039216 0.576471 0.000000
0.117647 0.572549 0.000000
0.211765 0.564706 0.000000
0.286275 0.560784 0.000000
0.376471 0.560784 0.000000
0.450980 0.556863 0.000000
0.537255 0.545098 0.000000
0.619608 0.549020 0.000000
0.701961 0.541176 0.000000
0.784314 0.541176 0.000000
0.870588 0.529412 0.000000
0.949020 0.529412 0.000000
1.000000 0.529412 0.000000
1.000000 0.521569 0.000000
0.000000 0.658824 0.000000
0.000000 0.658824 0.000000
0.039216 0.650980 0.000000
0.113725 0.647059 0.000000
0.203922 0.647059 0.000000
0.278431 0.639216 0.000000
0.352941 0.635294 0.000000
0.450980 0.635294 0.000000
0.525490 0.631373 0.000000
0.611765 0.623529 0.000000
0.690196 0.623529 0.000000
0.780392 0.615686 0.000000
0.862745 0.615686 0.000000
0.941176 0.603922 0.000000
1.000000 0.607843 0.000000
1.000000 0.600000 0.000000
0.000000 0.745098 0.000000
0.000000 0.737255 0.000000
0.015686 0.729412 0.000000
0.109804 0.725490 0.000000
0.184314 0.721569 0.000000
0.274510 0.721569 0.000000
0.349020 0.717647 0.000000
0.443137 0.709804 0.000000
0.521569 0.709804 0.000000
0.607843 0.705882 0.000000
0.682353 0.701961 0.000000
0.772549 0.690196 0.000000
0.850980 0.694118 0.000000
0.933333 0.682353 0.000000
1.000000 0.686275 0.000000
1.000000 0.678431 0.000000
0.000000 0.815686 0.000000
0.000000 0.811765 0.000000
0.015686 0.807843 0.000000
0.101961 0.803922 0.000000
0.180392 0.800000 0.000000
0.274510 0.796078 0.000000
0.349020 0.792157 0.000000
0.431373 0.796078 0.000000
0.513725 0.788235 0.000000
0.592157 0.784314 0.000000
0.682353 0.776471 0.000000
0.756863 0.772549 0.000000
0.847059 0.772549 0.000000
0.921569 0.768627 0.000000
1.000000 0.760784 0.000000
1.000000 0.760784 0.000000
0.000000 0.898039 0.000000
0.000000 0.898039 0.000000
0.011765 0.886275 0.000000
0.090196 0.886275 0.000000
0.172549 0.878431 0.000000
0.254902 0.882353 0.000000
0.345098 0.870588 0.000000
0.419608 0.866667 0.000000
0.509804 0.866667 0.000000
0.584314 0.862745 0.000000
0.678431 0.858824 0.000000
0.752941 0.850980 0.000000
0.839216 0.850980 0.000000
0.917647 0.847059 0.000000
1.000000 0.843137 0.000000
1.000000 0.835294 0.000000
0.000000 0.968627 0.000000
0.000000 0.972549 0.000000
0.003922 0.964706 0.000000
0.086275 0.968627 0.000000
0.172549 0.956863 0.000000
0.247059 0.952941 0.000000
0.333333 0.956863 0.000000
0.411765 0.949020 0.000000
0.494118 0.945098 0.000000
0.584314 0.937255 0.000000
0.662745 0.937255 0.000000
0.745098 0.929412 0.000000
0.823529 0.929412 0.000000
0.913725 0.921569 0.000000
0.996078 0.917647 0.000000
1.000000 0.909804 0.000000
0.000000 1.000000 0.000000
0.000000 1.000000 0.000000
0.000000 1.000000 0.000000
0.074510 1.000000 0.000000
0.152941 1.000000 0.000000
0.243137 1.000000 0.000000
0.325490 1.000000 0.000000
0.407843 1.000000 0.000000
0.486275 1.000000 0.000000
0.576471 1.000000 0.000000
0.654902 1.000000 0.000000
0.741176 1.000000 0.000000
0.815686 1.000000 0.000000
0.905882 0.996078 0.000000
0.984314 0.984314 0.000000
1.000000 0.976471 0.000000
0.000000 1.000000 0.000000
0.000000 1.000000 0.000000
0.000000 1.000000 0.000000
0.074510 1.000000 0.000000
0.152941 1.000000 0.000000
0.227451 1.000000 0.000000
0.317647 1.000000 0.000000
0.392157 1.000000 0.000000
0.482353 1.000000 0.000000
0.564706 1.000000 0.000000
0.647059 1.000000 0.000000
0.729412 1.000000 0.000000
0.815686 1.000000 0.000000
0.894118 1.000000 0.000000
0.980392 1.000000 0.000000
1.000000 1.000000 0.000000
0.000000 0.000000 0.015686
0.019608 0.000000 0.015686
0.101961 0.000000 0.003922
0.184314 0.000000 0.015686
0.274510 0.000000 0.000000
0.349020 0.000000 0.000000
0.439216 0.000000 0.000000
0.513725 0.000000 0.000000
0.607843 0.000000 0.000000
0.682353 0.000000 0.000000
0.760784 0.000000 0.000000
0.847059 0.000000 0.000000
0.921569 0.000000 0.000000
1.000000 0.000000 0.000000
1.000000 0.000000 0.000000
1.000000 0.000000 0.000000
0.000000 0.023529 0.019608
0.015686 0.027451 0.015686
0.090196 0.023529 0.000000
0.172549 0.015686 0.000000
0.254902 0.019608 0.000000
0.341176 0.003922 0.000000
0.423529 0.003922 0.000000
0.505882 0.000000 0.000000
0.588235 0.000000 0.000000
0.678431 0.000000 0.000000
0.752941 0.000000 0.000000
0.839216 0.000000 0.000000
0.917647 0.000000 0.000000
1.000000 0.000000 0.000000
1.000000 0.000000 0.000000
1.000000 0.000000 0.000000
0.000000 0.105882 0.007843
0.003922 0.101961 0.000000
0.086275 0.101961 0.007843
0.172549 0.090196 0.000000
0.254902 0.090196 0.000000
0.337255 0.086275 0.000000
0.415686 0.086275 0.000000
0.505882 0.074510 0.000000
0.584314 0.074510 0.000000
0.662745 0.074510 0.000000
0.745098 0.066667 0.000000
0.827451 0.066667 0.000000
0.913725 0.054902 0.000000
1.000000 0.058824 0.000000
1.000000 0.050980 0.000000
1.000000 0.043137 0.000000
0.000000 0.184314 0.003922
0.000000 0.184314 0.000000
0.078431 0.180392 0.000000
0.152941 0.176471 0.000000
0.247059 0.172549 0.000000
0.321569 0.164706 0.000000
0.407843 0.160784 0.000000
0.486275 0.160784 0.000000
0.576471 0.152941 0.000000
0.658824 0.152941 0.000000
0.741176 0.145098 0.000000
0.819608 0.145098 0.000000
0.909804 0.137255 0.000000
0.984314 0.129412 0.000000
1.000000 0.129412 0.000000
1.000000 0.125490 0.000000
0.000000 0.266667 0.000000
0.000000 0.262745 0.000000
0.078431 0.254902 0.000000
0.152941 0.250980 0.000000
0.235294 0.243137 0.000000
0.317647 0.247059 0.000000
0.407843 0.235294 0.000000
0.490196 0.239216 0.000000
0.568627 0.231373 0.000000
0.650980 0.231373 0.000000
0.729412 0.231373 0.000000
0.815686 0.215686 0.000000
0.894118 0.215686 0.000000
0.980392 0.211765 0.000000
1.000000 0.211765 0.000000
1.000000 0.200000 0.000000
0.000000 0.345098 0.000000
0.000000 0.341176 0.000000
0.054902 0.337255 0.000000
0.149020 0.333333 0.000000
0.223529 0.325490 0.000000
0.309804 0.325490 0.000000
0.388235 0.321569 0.000000
0.482353 0.317647 0.000000
0.556863 0.309804 0.000000
0.639216 0.305882 0.000000
0.721569 0.305882 0.000000
0.811765 0.298039 0.000000
0.890196 0.298039 0.000000
0.972549 0.290196 0.000000
1.000000 0.294118 0.000000
1.000000 0.282353 0.000000
0.000000 0.423529 0.000000
0.000000 0.415686 0.000000
0.054902 0.411765 0.000000
0.141176 0.411765 0.000000
0.219608 0.407843 0.000000
0.309804 0.403922 0.000000
0.388235 0.396078 0.000000
0.470588 0.392157 0.000000
0.549020 0.392157 0.000000
0.623529 0.388235 0.000000
0.721569 0.384314 0.000000
0.796078 0.376471 0.000000
0.882353 0.372549 0.000000
0.960784 0.372549 0.000000
1.000000 0.364706 0.000000
1.000000 0.364706 0.000000
0.000000 0.501961 0.000000
0.000000 0.501961 0.000000
0.047059 0.490196 0.000000
0.129412 0.494118 0.000000
0.211765 0.486275 0.000000
0.286275 0.482353 0.000000
0.380392 0.478431 0.000000
0.454902 0.474510 0.000000
0.545098 0.470588 0.000000
0.619608 0.466667 0.000000
0.713725 0.458824 0.000000
0.792157 0.458824 0.000000
0.874510 0.450980 0.000000
0.952941 0.450980 0.000000
1.000000 0.443137 0.000000
1.000000 0.443137 0.000000
0.000000 0.576471 0.000000
0.000000 0.580392 0.000000
0.043137 0.572549 0.000000
0.117647 0.564706 0.000000
0.211765 0.564706 0.000000
0.286275 0.560784 0.000000
0.372549 0.552941 0.000000
0.450980 0.552941 0.000000
0.529412 0.552941 0.000000
0.623529 0.545098 0.000000
0.698039 0.537255 0.000000
0.784314 0.537255 0.000000
0.862745 0.533333 0.000000
0.952941 0.529412 0.000000
1.000000 0.521569 0.000000
1.000000 0.521569 0.000000
0.000000 0.662745 0.000000
0.000000 0.650980 0.000000
0.031373 0.654902 0.000000
0.113725 0.647059 0.000000
0.192157 0.647059 0.000000
0.282353 0.639216 0.000000
0.360784 0.639216 0.000000
0.443137 0.631373 0.000000
0.521569 0.627451 0.000000
0.615686 0.623529 0.000000
0.690196 0.615686 0.000000
0.780392 0.619608 0.000000
0.854902 0.611765 0.000000
0.949020 0.607843 0.000000
1.000000 0.603922 0.000000
1.000000 0.600000 0.000000
0.000000 0.737255 0.000000
0.000000 0.733333 0.000000
0.023529 0.733333 0.000000
0.109804 0.721569 0.000000
0.192157 0.725490 0.000000
0.274510 0.717647 0.000000
0.352941 0.713725 0.000000
0.431373 0.713725 0.000000
0.517647 0.701961 0.000000
0.603922 0.705882 0.000000
0.682353 0.698039 0.000000
0.764706 0.698039 0.000000
0.854902 0.690196 0.000000
0.929412 0.686275 0.000000
1.000000 0.678431 0.000000
1.000000 0.678431 0.000000
0.000000 0.819608 0.000000
0.000000 0.811765 0.000000
0.019608 0.811765 0.000000
0.094118 0.807843 0.000000
0.180392 0.796078 0.000000
0.262745 0.800000 0.000000
0.345098 0.792157 0.000000
0.423529 0.792157 0.000000
0.513725 0.784314 0.000000
0.596078 0.784314 0.000000
0.678431 0.776471 0.000000
0.752941 0.772549 0.000000
0.847059 0.764706 0.000000
0.925490 0.764706 0.000000
1.000000 0.760784 0.000000
1.000000 0.756863 0.000000
0.000000 0.898039 0.000000
0.000000 0.894118 0.000000
0.011765 0.882353 0.000000
0.094118 0.886275 0.000000
0.176471 0.878431 0.000000
0.254902 0.874510 0.000000
0.345098 0.870588 0.000000
0.423529 0.870588 0.000000
0.498039 0.862745 0.000000
0.584314 0.858824 0.000000
0.662745 0.858824 0.000000
0.756863 0.850980 0.000000
0.835294 0.850980 0.000000
0.917647 0.843137 0.000000
1.000000 0.843137 0.000000
1.000000 0.835294 0.000000
0.000000 0.972549 0.000000
0.000000 0.968627 0.000000
0.000000 0.968627 0.000000
0.086275 0.960784 0.000000
0.164706 0.960784 0.000000
0.250980 0.956863 0.000000
0.325490 0.952941 0.000000
0.415686 0.945098 0.000000
0.494118 0.945098 0.000000
0.576471 0.937255 0.000000
0.658824 0.941176 0.000000
0.749020 0.929412 0.000000
0.827451 0.925490 0.000000
0.913725 0.921569 0.000000
0.988235 0.917647 0.000000
1.000000 0.917647 0.000000
0.000000 1.000000 0.000000
0.000000 1.000000 0.000000
0.000000 1.000000 0.000000
0.082353 1.000000 0.000000
0.156863 1.000000 0.000000
0.243137 1.000000 0.000000
0.325490 1.000000 0.000000
0.400000 1.000000 0.000000
0.490196 1.000000 0.000000
0.564706 1.000000 0.000000
0.658824 1.000000 0.000000
0.737255 1.000000 0.000000
0.815686 1.000000 0.000000
0.898039 1.000000 0.000000
0.988235 0.996078 0.000000
1.000000 0.988235 0.000000
0.000000 1.000000 0.000000
0.000000 1.000000 0.000000
0.000000 1.000000 0.000000
0.062745 1.000000 0.000000
0.152941 1.000000 0.000000
0.227451 1.000000 0.000000
0.317647 1.000000 0.000000
0.396078 1.000000 0.000000
0.482353 1.000000 0.000000
0.560784 1.000000 0.000000
0.647059 1.000000 0.000000
0.729412 1.000000 0.000000
0.811765 1.000000 0.000000
0.890196 1.000000 0.000000
0.972549 1.000000 0.000000
1.000000 1.000000 0.000000
0.000000 0.000000 0.101961
0.015686 0.000000 0.098039
0.105882 0.000000 0.098039
0.184314 0.000000 0.090196
0.262745 0.000000 0.090196
0.349020 0.000000 0.082353
0.427451 0.000000 0.086275
0.513725 0.000000 0.074510
0.592157 0.000000 0.074510
0.678431 0.000000 0.066667
0.756863 0.000000 0.070588
0.847059 0.000000 0.058824
0.929412 0.000000 0.062745
1.000000 0.000000 0.047059
1.000000 0.000000 0.050980
1.000000 0.000000 0.047059
0.000000 0.027451 0.098039
0.015686 0.019608 0.090196
0.094118 0.019608 0.090196
0.180392 0.015686 0.082353
0.254902 0.011765 0.082353
0.345098 0.003922 0.074510
0.423529 0.003922 0.074510
0.505882 0.000000 0.058824
0.588235 0.000000 0.070588
0.678431 0.000000 0.058824
0.760784 0.000000 0.062745
0.835294 0.000000 0.047059
0.917647 0.000000 0.050980
1.000000 0.000000 0.047059
1.000000 0.000000 0.043137
1.000000 0.000000 0.031373
0.000000 0.105882 0.086275
0.011765 0.101961 0.098039
0.086275 0.094118 0.082353
0.164706 0.098039 0.074510
0.250980 0.090196 0.074510
0.325490 0.086275 0.058824
0.419608 0.082353 0.070588
0.494118 0.078431 0.058824
0.580392 0.074510 0.058824
0.658824 0.074510 0.047059
0.745098 0.062745 0.050980
0.827451 0.062745 0.043137
0.909804 0.054902 0.043137
0.992157 0.058824 0.031373
1.000000 0.047059 0.039216
1.000000 0.047059 0.031373
0.000000 0.180392 0.082353
0.000000 0.176471 0.078431
0.082353 0.176471 0.074510
0.156863 0.172549 0.074510
0.250980 0.168627 0.070588
0.325490 0.164706 0.058824
0.411765 0.160784 0.058824
0.490196 0.160784 0.047059
0.576471 0.145098 0.050980
0.658824 0.149020 0.043137
0.737255 0.145098 0.043137
0.819608 0.141176 0.031373
0.898039 0.137255 0.035294
0.992157 0.133333 0.031373
1.000000 0.129412 0.023529
1.000000 0.129412 0.019608
0.000000 0.262745 0.074510
0.000000 0.254902 0.074510
0.066667 0.258824 0.066667
0.149020 0.250980 0.066667
0.231373 0.250980 0.058824
0.317647 0.239216 0.058824
0.396078 0.239216 0.050980
0.482353 0.235294 0.050980
0.560784 0.235294 0.043137
0.650980 0.227451 0.031373
0.725490 0.223529 0.035294
0.815686 0.223529 0.031373
0.890196 0.215686 0.023529
0.980392 0.207843 0.011765
1.000000 0.207843 0.023529
1.000000 0.200000 0.011765
0.000000 0.341176 0.066667
0.000000 0.337255 0.066667
0.062745 0.337255 0.058824
0.149020 0.325490 0.058824
0.227451 0.325490 0.050980
0.313725 0.321569 0.050980
0.388235 0.317647 0.035294
0.482353 0.313725 0.047059
0.556863 0.309804 0.035294
0.643137 0.301961 0.035294
0.721569 0.301961 0.023529
0.796078 0.298039 0.011765
0.894118 0.294118 0.023529
0.968627 0.290196 0.011765
1.000000 0.286275 0.007843
1.000000 0.286275 0.000000
0.000000 0.423529 0.058824
0.000000 0.415686 0.058824
0.047059 0.411765 0.047059
0.129412 0.411765 0.050980
0.219608 0.403922 0.035294
0.301961 0.403922 0.047059
0.384314 0.396078 0.035294
0.462745 0.396078 0.035294
0.552941 0.388235 0.023529
0.627451 0.384314 0.027451
0.713725 0.380392 0.019608
0.792157 0.376471 0.019608
0.886275 0.372549 0.007843
0.964706 0.372549 0.000000
1.000000 0.364706 0.007843
1.000000 0.360784 0.000000
0.000000 0.498039 0.047059
0.000000 0.498039 0.050980
0.050980 0.490196 0.035294
0.129412 0.486275 0.043137
0.215686 0.482353 0.035294
0.294118 0.482353 0.035294
0.384314 0.474510 0.023529
0.458824 0.466667 0.027451
0.545098 0.466667 0.019608
0.623529 0.462745 0.019608
0.701961 0.462745 0.007843
0.792157 0.450980 0.011765
0.874510 0.454902 0.007843
0.952941 0.447059 0.003922
1.000000 0.443137 0.000000
1.000000 0.439216 0.000000
0.000000 0.576471 0.035294
0.000000 0.576471 0.043137
0.031373 0.576471 0.035294
0.125490 0.568627 0.035294
0.200000 0.564706 0.019608
0.282353 0.556863 0.027451
0.364706 0.556863 0.019608
0.450980 0.545098 0.011765
0.533333 0.549020 0.007843
0.615686 0.541176 0.011765
0.698039 0.545098 0.007843
0.784314 0.533333 0.003922
0.858824 0.529412 0.000000
0.949020 0.525490 0.000000
1.000000 0.521569 0.000000
1.000000 0.513725 0.000000
0.000000 0.658824 0.031373
0.000000 0.654902 0.035294
0.031373 0.650980 0.019608
0.113725 0.643137 0.027451
0.196078 0.643137 0.019608
0.282353 0.631373 0.011765
0.364706 0.635294 0.007843
0.447059 0.627451 0.011765
0.525490 0.627451 0.003922
0.603922 0.623529 0.003922
0.690196 0.615686 0.000000
0.768627 0.611765 0.000000
0.854902 0.607843 0.000000
0.933333 0.607843 0.000000
1.000000 0.600000 0.000000
1.000000 0.600000 0.000000
0.000000 0.737255 0.035294
0.000000 0.733333 0.023529
0.023529 0.729412 0.019608
0.098039 0.725490 0.011765
0.184314 0.721569 0.003922
0.262745 0.717647 0.011765
0.356863 0.713725 0.003922
0.435294 0.709804 0.003922
0.517647 0.701961 0.000000
0.596078 0.701961 0.000000
0.686275 0.694118 0.000000
0.764706 0.694118 0.000000
0.847059 0.686275 0.000000
0.929412 0.686275 0.000000
1.000000 0.678431 0.000000
1.000000 0.682353 0.000000
0.000000 0.815686 0.027451
0.000000 0.811765 0.011765
0.015686 0.803922 0.019608
0.094118 0.803922 0.011765
0.188235 0.800000 0.003922
0.262745 0.792157 0.000000
0.349020 0.788235 0.000000
0.427451 0.788235 0.000000
0.505882 0.788235 0.000000
0.596078 0.780392 0.000000
0.670588 0.776471 0.000000
0.760784 0.772549 0.000000
0.835294 0.768627 0.000000
0.921569 0.756863 0.000000
1.000000 0.760784 0.000000
1.000000 0.752941 0.000000
0.000000 0.890196 0.019608
0.000000 0.890196 0.011765
0.003922 0.890196 0.011765
0.086275 0.882353 0.000000
0.164706 0.878431 0.003922
0.258824 0.874510 0.000000
0.333333 0.870588 0.000000
0.423529 0.870588 0.000000
0.498039 0.866667 0.000000
0.588235 0.854902 0.000000
0.666667 0.854902 0.000000
0.749020 0.847059 0.000000
0.831373 0.850980 0.000000
0.917647 0.839216 0.000000
1.000000 0.839216 0.000000
1.000000 0.835294 0.000000
0.000000 0.976471 0.011765
0.000000 0.968627 0.000000
0.000000 0.960784 0.000000
0.090196 0.960784 0.000000
0.164706 0.952941 0.000000
0.250980 0.956863 0.000000
0.329412 0.949020 0.000000
0.419608 0.941176 0.000000
0.498039 0.941176 0.000000
0.572549 0.937255 0.000000
0.658824 0.933333 0.000000
0.737255 0.929412 0.000000
0.827451 0.925490 0.000000
0.901961 0.917647 0.000000
0.992157 0.921569 0.000000
1.000000 0.913725 0.000000
0.000000 1.000000 0.000000
0.000000 1.000000 0.000000
0.000000 1.000000 0.000000
0.066667 1.000000 0.000000
0.156863 1.000000 0.000000
0.239216 1.000000 0.000000
0.321569 1.000000 0.000000
0.396078 1.000000 0.000000
0.490196 1.000000 0.000000
0.568627 1.000000 0.000000
0.654902 1.000000 0.000000
0.729412 1.000000 0.000000
0.823529 1.000000 0.000000
0.898039 1.000000 0.000000
0.980392 0.992157 0.000000
1.000000 0.996078 0.000000
0.000000 1.000000 0.000000
0.000000 1.000000 0.000000
0.000000 1.000000 0.000000
0.070588 1.000000 0.000000
0.149020 1.000000 0.000000
0.227451 1.000000 0.000000
0.321569 1.000000 0.000000
0.396078 1.000000 0.000000
0.478431 1.000000 0.000000
0.560784 1.000000 0.000000
0.643137 1.000000 0.000000
0.729412 1.000000 0.000000
0.803922 1.000000 0.000000
0.894118 1.000000 0.000000
0.968627 1.000000 0.000000
1.000000 1.000000 0.000000
0.000000 0.000000 0.184314
0.015686 0.000000 0.188235
0.094118 0.000000 0.180392
0.188235 0.000000 0.180392
0.262745 0.000000 0.164706
0.352941 0.000000 0.176471
0.427451 0.000000 0.164706
0.521569 0.000000 0.168627
0.596078 0.000000 0.152941
0.678431 0.000000 0.156863
0.760784 0.000000 0.152941
0.847059 0.000000 0.145098
0.929412 0.000000 0.137255
1.000000 0.000000 0.145098
1.000000 0.000000 0.137255
1.000000 0.000000 0.129412
0.000000 0.027451 0.180392
0.011765 0.023529 0.180392
0.086275 0.015686 0.164706
0.180392 0.011765 0.176471
0.258824 0.007843 0.164706
0.337255 0.007843 0.164706
0.419608 0.003922 0.152941
0.498039 0.000000 0.156863
0.588235 0.000000 0.149020
0.666667 0.000000 0.145098
0.752941 0.000000 0.137255
0.831373 0.000000 0.145098
0.921569 0.000000 0.137255
0.996078 0.000000 0.129412
1.000000 0.000000 0.125490
1.000000 0.000000 0.129412
0.000000 0.101961 0.180392
0.000000 0.105882 0.176471
0.086275 0.094118 0.164706
0.168627 0.094118 0.164706
0.250980 0.090196 0.152941
0.325490 0.082353 0.156863
0.419608 0.078431 0.149020
0.498039 0.074510 0.145098
0.584314 0.074510 0.137255
0.658824 0.066667 0.141176
0.752941 0.062745 0.137255
0.827451 0.058824 0.129412
0.913725 0.062745 0.125490
0.992157 0.050980 0.129412
1.000000 0.047059 0.113725
1.000000 0.043137 0.117647
0.000000 0.180392 0.172549
0.000000 0.184314 0.164706
0.078431 0.168627 0.164706
0.156863 0.168627 0.156863
0.239216 0.168627 0.149020
0.321569 0.164706 0.145098
0.400000 0.164706 0.137255
0.490196 0.152941 0.141176
0.572549 0.156863 0.137255
0.654902 0.149020 0.129412
0.729412 0.141176 0.117647
0.823529 0.137255 0.129412
0.898039 0.133333 0.113725
0.984314 0.129412 0.113725
1.000000 0.129412 0.105882
1.000000 0.121569 0.113725
0.000000 0.262745 0.164706
0.000000 0.254902 0.156863
0.066667 0.254902 0.156863
0.149020 0.247059 0.141176
0.231373 0.247059 0.152941
0.321569 0.239216 0.141176
0.400000 0.239216 0.133333
0.486275 0.235294 0.129412
0.560784 0.227451 0.117647
0.654902 0.223529 0.129412
0.729412 0.219608 0.113725
0.807843 0.219608 0.113725
0.894118 0.215686 0.105882
0.972549 0.211765 0.113725
1.000000 0.203922 0.098039
1.000000 0.207843 0.101961
0.000000 0.345098 0.156863
0.000000 0.333333 0.141176
0.062745 0.333333 0.152941
0.137255 0.329412 0.141176
0.223529 0.325490 0.141176
0.301961 0.325490 0.129412
0.388235 0.313725 0.133333
0.470588 0.313725 0.125490
0.552941 0.309804 0.121569
0.635294 0.309804 0.113725
0.725490 0.301961 0.105882
0.803922 0.298039 0.113725
0.886275 0.290196 0.098039
0.968627 0.294118 0.101961
1.000000 0.286275 0.090196
1.000000 0.278431 0.094118
0.000000 0.415686 0.149020
0.000000 0.415686 0.141176
0.054902 0.411765 0.141176
0.133333 0.411765 0.129412
0.219608 0.400000 0.133333
0.301961 0.400000 0.125490
0.384314 0.392157 0.121569
0.466667 0.396078 0.113725
0.552941 0.380392 0.117647
0.635294 0.384314 0.113725
0.717647 0.376471 0.105882
0.792157 0.372549 0.094118
0.874510 0.376471 0.090196
0.960784 0.364706 0.094118
