public/luts/vintage.cube
# Studiio — look « vintage », genere par scripts/lut/generer-luts.mjs
# Source : les coefficients de LOOKS_RENDUS, calcules par ffmpeg lui-meme.
# Aucune LUT tierce, aucun telechargement : provenance et licence du depot.
LUT_3D_SIZE 16
DOMAIN_MIN 0.0 0.0 0.0
DOMAIN_MAX 1.0 1.0 1.0
0.125490 0.090196 0.007843
0.180392 0.094118 0.011765
0.231373 0.094118 0.015686
0.266667 0.094118 0.027451
0.305882 0.082353 0.050980
0.345098 0.086275 0.050980
0.380392 0.078431 0.074510
0.443137 0.086275 0.074510
0.498039 0.082353 0.070588
0.560784 0.086275 0.054902
0.635294 0.094118 0.054902
0.686275 0.094118 0.035294
0.752941 0.094118 0.035294
0.815686 0.101961 0.039216
0.866667 0.098039 0.039216
0.921569 0.101961 0.039216
0.133333 0.145098 0.011765
0.184314 0.149020 0.023529
0.231373 0.149020 0.035294
0.274510 0.149020 0.035294
0.309804 0.141176 0.058824
0.345098 0.145098 0.054902
0.392157 0.133333 0.078431
0.443137 0.141176 0.074510
0.505882 0.141176 0.074510
0.568627 0.145098 0.058824
0.631373 0.149020 0.054902
0.709804 0.152941 0.043137
0.756863 0.152941 0.039216
0.815686 0.156863 0.039216
0.874510 0.164706 0.047059
0.925490 0.160784 0.047059
0.121569 0.203922 0.035294
0.176471 0.203922 0.035294
0.231373 0.207843 0.039216
0.274510 0.203922 0.054902
0.313725 0.200000 0.062745
0.349020 0.196078 0.078431
0.392157 0.196078 0.082353
0.454902 0.196078 0.078431
0.509804 0.200000 0.078431
0.580392 0.203922 0.066667
0.643137 0.203922 0.054902
0.709804 0.207843 0.043137
0.768627 0.215686 0.047059
0.827451 0.211765 0.047059
0.874510 0.215686 0.047059
0.937255 0.223529 0.054902
0.113725 0.254902 0.050980
0.168627 0.254902 0.054902
0.215686 0.254902 0.050980
0.270588 0.258824 0.058824
0.313725 0.254902 0.066667
0.356863 0.254902 0.082353
0.403922 0.250980 0.090196
0.458824 0.254902 0.090196
0.521569 0.258824 0.078431
0.584314 0.262745 0.066667
0.650980 0.262745 0.058824
0.709804 0.270588 0.050980
0.776471 0.266667 0.047059
0.823529 0.274510 0.050980
0.882353 0.274510 0.054902
0.937255 0.278431 0.054902
0.101961 0.301961 0.058824
0.152941 0.305882 0.070588
0.215686 0.305882 0.070588
0.258824 0.305882 0.070588
0.313725 0.313725 0.078431
0.356863 0.309804 0.086275
0.403922 0.305882 0.090196
0.458824 0.313725 0.090196
0.533333 0.313725 0.082353
0.592157 0.317647 0.078431
0.658824 0.321569 0.058824
0.725490 0.325490 0.050980
0.780392 0.325490 0.054902
0.831373 0.333333 0.054902
0.894118 0.329412 0.058824
0.941176 0.337255 0.058824
0.094118 0.356863 0.078431
0.145098 0.352941 0.078431
0.200000 0.356863 0.090196
0.250980 0.360784 0.090196
0.309804 0.356863 0.090196
0.356863 0.368627 0.094118
0.415686 0.368627 0.098039
0.470588 0.364706 0.098039
0.529412 0.376471 0.086275
0.600000 0.376471 0.082353
0.666667 0.380392 0.066667
0.729412 0.380392 0.062745
0.784314 0.384314 0.058824
0.843137 0.388235 0.058824
0.890196 0.392157 0.070588
0.949020 0.396078 0.066667
0.086275 0.407843 0.082353
0.145098 0.411765 0.090196
0.192157 0.415686 0.090196
0.258824 0.419608 0.094118
0.305882 0.423529 0.098039
0.360784 0.419608 0.105882
0.419608 0.427451 0.101961
0.482353 0.427451 0.101961
0.533333 0.431373 0.082353
0.615686 0.431373 0.082353
0.670588 0.439216 0.066667
0.729412 0.435294 0.062745
0.792157 0.443137 0.070588
0.847059 0.443137 0.074510
0.901961 0.447059 0.074510
0.952941 0.454902 0.070588
0.094118 0.466667 0.086275
0.152941 0.466667 0.086275
0.211765 0.474510 0.090196
0.262745 0.470588 0.098039
0.313725 0.478431 0.090196
0.384314 0.478431 0.101961
0.427451 0.482353 0.094118
0.494118 0.486275 0.101961
0.556863 0.490196 0.090196
0.607843 0.490196 0.082353
0.682353 0.498039 0.074510
0.741176 0.498039 0.074510
0.792157 0.498039 0.070588
0.850980 0.501961 0.078431
0.909804 0.505882 0.082353
0.952941 0.505882 0.078431
0.117647 0.529412 0.078431
0.168627 0.525490 0.086275
0.223529 0.529412 0.078431
0.282353 0.537255 0.090196
0.337255 0.533333 0.082353
0.388235 0.537255 0.090196
0.450980 0.545098 0.086275
0.501961 0.541176 0.090196
0.556863 0.541176 0.094118
0.627451 0.549020 0.090196
0.686275 0.549020 0.074510
0.745098 0.556863 0.078431
0.807843 0.556863 0.082353
0.854902 0.556863 0.078431
0.905882 0.568627 0.086275
0.964706 0.560784 0.082353
0.133333 0.576471 0.074510
0.188235 0.588235 0.078431
0.235294 0.588235 0.070588
0.298039 0.588235 0.078431
0.356863 0.596078 0.074510
0.403922 0.596078 0.078431
0.462745 0.596078 0.082353
0.521569 0.603922 0.086275
0.572549 0.600000 0.086275
0.631373 0.603922 0.086275
0.694118 0.615686 0.082353
0.752941 0.607843 0.078431
0.807843 0.619608 0.086275
0.858824 0.615686 0.082353
0.913725 0.619608 0.086275
0.972549 0.623529 0.094118
0.141176 0.639216 0.062745
0.200000 0.643137 0.066667
0.254902 0.643137 0.070588
0.313725 0.647059 0.066667
0.368627 0.647059 0.070588
0.431373 0.654902 0.074510
0.474510 0.654902 0.070588
0.537255 0.654902 0.074510
0.596078 0.666667 0.082353
0.647059 0.662745 0.078431
0.701961 0.662745 0.082353
0.756863 0.666667 0.082353
0.807843 0.670588 0.086275
0.870588 0.670588 0.090196
0.917647 0.678431 0.090196
0.976471 0.678431 0.094118
0.160784 0.694118 0.062745
0.215686 0.698039 0.062745
0.266667 0.701961 0.066667
0.321569 0.705882 0.070588
0.380392 0.705882 0.070588
0.435294 0.709804 0.074510
0.490196 0.709804 0.074510
0.541176 0.717647 0.078431
0.596078 0.717647 0.082353
0.650980 0.721569 0.082353
0.705882 0.721569 0.086275
0.756863 0.729412 0.090196
0.819608 0.729412 0.090196
0.870588 0.733333 0.094118
0.925490 0.737255 0.094118
0.980392 0.737255 0.105882
0.168627 0.752941 0.066667
0.215686 0.760784 0.070588
0.278431 0.756863 0.070588
0.329412 0.764706 0.074510
0.384314 0.764706 0.082353
0.439216 0.768627 0.078431
0.494118 0.768627 0.090196
0.545098 0.776471 0.082353
0.607843 0.772549 0.086275
0.658824 0.780392 0.090196
0.713725 0.780392 0.090196
0.768627 0.784314 0.094118
0.823529 0.788235 0.094118
0.874510 0.792157 0.105882
0.929412 0.792157 0.101961
0.984314 0.796078 0.109804
0.168627 0.807843 0.066667
0.227451 0.815686 0.074510
0.282353 0.815686 0.082353
0.333333 0.823529 0.078431
0.396078 0.819608 0.090196
0.443137 0.827451 0.082353
0.494118 0.831373 0.094118
0.556863 0.831373 0.090196
0.607843 0.835294 0.098039
0.662745 0.839216 0.094118
0.717647 0.839216 0.101961
0.768627 0.835294 0.101961
0.831373 0.843137 0.101961
0.886275 0.847059 0.109804
0.933333 0.850980 0.105882
0.992157 0.854902 0.117647
0.176471 0.870588 0.082353
0.227451 0.866667 0.074510
0.282353 0.878431 0.090196
0.345098 0.878431 0.082353
0.388235 0.878431 0.090196
0.450980 0.886275 0.090196
0.505882 0.886275 0.098039
0.560784 0.890196 0.094118
0.611765 0.894118 0.101961
0.670588 0.886275 0.101961
0.721569 0.898039 0.109804
0.780392 0.898039 0.109804
0.831373 0.898039 0.109804
0.886275 0.905882 0.117647
0.945098 0.909804 0.109804
0.992157 0.905882 0.117647
0.184314 0.929412 0.090196
0.239216 0.933333 0.082353
0.290196 0.929412 0.090196
0.349020 0.937255 0.090196
0.400000 0.941176 0.098039
0.450980 0.937255 0.090196
0.509804 0.945098 0.101961
0.560784 0.941176 0.101961
0.619608 0.945098 0.105882
0.674510 0.952941 0.109804
0.725490 0.952941 0.109804
0.784314 0.956863 0.117647
0.839216 0.960784 0.117647
0.890196 0.956863 0.117647
0.952941 0.964706 0.121569
1.000000 0.968627 0.125490
0.133333 0.090196 0.066667
0.184314 0.098039 0.066667
0.227451 0.090196 0.070588
0.266667 0.094118 0.086275
0.309804 0.086275 0.098039
0.341176 0.086275 0.109804
0.392157 0.082353 0.121569
0.439216 0.082353 0.133333
0.505882 0.086275 0.121569
0.568627 0.090196 0.113725
0.627451 0.094118 0.098039
0.694118 0.098039 0.094118
0.756863 0.101961 0.082353
0.811765 0.101961 0.094118
0.866667 0.105882 0.086275
0.925490 0.105882 0.098039
0.133333 0.145098 0.074510
0.176471 0.152941 0.078431
0.219608 0.149020 0.090196
0.254902 0.141176 0.098039
0.294118 0.145098 0.113725
0.341176 0.137255 0.133333
0.384314 0.137255 0.121569
0.454902 0.141176 0.129412
0.517647 0.145098 0.113725
0.584314 0.149020 0.105882
0.647059 0.152941 0.090196
0.713725 0.152941 0.094118
0.760784 0.156863 0.086275
0.815686 0.160784 0.098039
0.874510 0.160784 0.101961
0.929412 0.164706 0.101961
0.125490 0.207843 0.090196
0.168627 0.200000 0.090196
0.215686 0.203922 0.105882
0.258824 0.200000 0.117647
0.301961 0.192157 0.113725
0.345098 0.192157 0.137255
0.396078 0.200000 0.133333
0.458824 0.192157 0.125490
0.521569 0.203922 0.113725
0.588235 0.207843 0.109804
0.650980 0.203922 0.090196
0.709804 0.211765 0.098039
0.772549 0.211765 0.101961
0.823529 0.219608 0.101961
0.878431 0.219608 0.105882
0.929412 0.219608 0.101961
0.117647 0.250980 0.101961
0.152941 0.250980 0.117647
0.203922 0.250980 0.113725
0.258824 0.250980 0.121569
0.301961 0.254902 0.137255
0.345098 0.247059 0.137255
0.407843 0.254902 0.141176
0.466667 0.258824 0.133333
0.533333 0.254902 0.113725
0.600000 0.262745 0.113725
0.662745 0.266667 0.101961
0.717647 0.262745 0.098039
0.776471 0.270588 0.105882
0.823529 0.270588 0.101961
0.886275 0.270588 0.105882
0.941176 0.282353 0.113725
0.101961 0.301961 0.113725
0.137255 0.301961 0.129412
0.200000 0.301961 0.137255
0.243137 0.305882 0.133333
0.298039 0.305882 0.141176
0.356863 0.309804 0.149020
0.407843 0.309804 0.141176
0.478431 0.313725 0.137255
0.545098 0.317647 0.125490
0.600000 0.317647 0.113725
0.670588 0.325490 0.105882
0.721569 0.321569 0.101961
0.772549 0.329412 0.105882
0.839216 0.333333 0.113725
0.886275 0.333333 0.109804
0.941176 0.333333 0.113725
0.094118 0.356863 0.141176
0.141176 0.352941 0.137255
0.188235 0.356863 0.141176
0.254902 0.360784 0.149020
0.301961 0.364706 0.145098
0.356863 0.364706 0.149020
0.419608 0.372549 0.149020
0.478431 0.368627 0.137255
0.541176 0.376471 0.125490
0.611765 0.372549 0.113725
0.674510 0.376471 0.113725
0.733333 0.384314 0.113725
0.784314 0.384314 0.109804
0.839216 0.384314 0.113725
0.894118 0.396078 0.121569
0.952941 0.392157 0.117647
0.090196 0.407843 0.141176
0.149020 0.411765 0.141176
0.203922 0.415686 0.141176
0.258824 0.415686 0.145098
0.317647 0.427451 0.149020
0.372549 0.419608 0.145098
0.427451 0.427451 0.149020
0.490196 0.427451 0.137255
0.556863 0.427451 0.133333
0.615686 0.435294 0.117647
0.678431 0.435294 0.117647
0.733333 0.439216 0.113725
0.788235 0.439216 0.121569
0.847059 0.443137 0.117647
0.901961 0.447059 0.121569
0.956863 0.454902 0.133333
0.098039 0.466667 0.141176
0.160784 0.470588 0.133333
0.219608 0.474510 0.129412
0.270588 0.478431 0.133333
0.333333 0.478431 0.137255
0.384314 0.482353 0.133333
0.443137 0.482353 0.145098
0.498039 0.486275 0.137255
0.560784 0.486275 0.137255
0.619608 0.494118 0.121569
0.690196 0.490196 0.121569
0.737255 0.498039 0.117647
0.796078 0.498039 0.129412
0.850980 0.501961 0.129412
0.905882 0.505882 0.133333
0.960784 0.505882 0.133333
0.121569 0.525490 0.129412
0.180392 0.529412 0.121569
0.235294 0.529412 0.125490
0.290196 0.533333 0.125490
0.349020 0.533333 0.133333
0.400000 0.541176 0.125490
0.462745 0.537255 0.133333
0.509804 0.545098 0.129412
0.572549 0.545098 0.137255
0.635294 0.549020 0.121569
0.690196 0.552941 0.129412
0.745098 0.556863 0.129412
0.800000 0.556863 0.133333
0.854902 0.560784 0.133333
0.909804 0.560784 0.137255
0.968627 0.564706 0.141176
0.129412 0.584314 0.125490
0.196078 0.588235 0.109804
0.250980 0.588235 0.121569
0.305882 0.592157 0.113725
0.360784 0.596078 0.121569
0.423529 0.596078 0.117647
0.474510 0.600000 0.125490
0.525490 0.600000 0.117647
0.588235 0.603922 0.129412
0.643137 0.607843 0.129412
0.694118 0.603922 0.129412
0.756863 0.611765 0.133333
0.803922 0.615686 0.137255
0.866667 0.615686 0.141176
0.917647 0.619608 0.141176
0.964706 0.627451 0.145098
0.141176 0.639216 0.117647
0.215686 0.643137 0.117647
0.266667 0.647059 0.117647
0.317647 0.647059 0.109804
0.376471 0.650980 0.121569
0.427451 0.650980 0.113725
0.482353 0.658824 0.129412
0.537255 0.662745 0.129412
0.588235 0.658824 0.129412
0.650980 0.666667 0.133333
0.705882 0.666667 0.137255
0.749020 0.670588 0.137255
0.815686 0.670588 0.141176
0.866667 0.678431 0.145098
0.917647 0.674510 0.141176
0.976471 0.682353 0.149020
0.164706 0.698039 0.117647
0.207843 0.698039 0.117647
0.270588 0.705882 0.121569
0.321569 0.701961 0.121569
0.376471 0.705882 0.121569
0.439216 0.713725 0.129412
0.490196 0.709804 0.129412
0.537255 0.713725 0.129412
0.603922 0.717647 0.137255
0.650980 0.721569 0.137255
0.709804 0.725490 0.141176
0.764706 0.729412 0.145098
0.815686 0.725490 0.141176
0.870588 0.737255 0.149020
0.933333 0.733333 0.152941
0.980392 0.737255 0.149020
0.168627 0.756863 0.121569
0.219608 0.752941 0.121569
0.278431 0.756863 0.121569
0.329412 0.764706 0.129412
0.380392 0.764706 0.129412
0.439216 0.764706 0.129412
0.498039 0.772549 0.137255
0.549020 0.772549 0.137255
0.600000 0.776471 0.137255
0.658824 0.784314 0.145098
0.709804 0.780392 0.141176
0.772549 0.788235 0.149020
0.819608 0.792157 0.152941
0.878431 0.788235 0.149020
0.933333 0.796078 0.156863
0.988235 0.800000 0.160784
0.168627 0.811765 0.121569
0.227451 0.811765 0.125490
0.274510 0.819608 0.129412
0.337255 0.815686 0.129412
0.392157 0.827451 0.137255
0.443137 0.823529 0.145098
0.498039 0.827451 0.137255
0.560784 0.831373 0.152941
0.603922 0.835294 0.141176
0.666667 0.835294 0.145098
0.721569 0.843137 0.152941
0.772549 0.843137 0.149020
0.827451 0.843137 0.152941
0.890196 0.850980 0.160784
0.933333 0.850980 0.164706
0.992157 0.858824 0.164706
0.176471 0.870588 0.129412
0.231373 0.870588 0.129412
0.286275 0.874510 0.133333
0.345098 0.874510 0.145098
0.392157 0.882353 0.137255
0.454902 0.878431 0.149020
0.505882 0.886275 0.141176
0.552941 0.890196 0.152941
0.619608 0.894118 0.152941
0.666667 0.894118 0.156863
0.721569 0.898039 0.152941
0.780392 0.901961 0.168627
0.831373 0.901961 0.164706
0.890196 0.905882 0.160784
0.949020 0.909804 0.176471
0.996078 0.913725 0.164706
0.180392 0.929412 0.133333
0.235294 0.929412 0.145098
0.294118 0.933333 0.137255
0.341176 0.937255 0.149020
0.403922 0.937255 0.141176
0.454902 0.941176 0.152941
0.509804 0.945098 0.149020
0.564706 0.945098 0.156863
0.619608 0.949020 0.152941
0.674510 0.956863 0.168627
0.733333 0.952941 0.164706
0.784314 0.956863 0.168627
0.843137 0.964706 0.176471
0.894118 0.960784 0.172549
0.945098 0.968627 0.176471
1.000000 0.972549 0.172549
0.125490 0.090196 0.121569
0.176471 0.094118 0.133333
0.227451 0.094118 0.125490
0.270588 0.090196 0.141176
0.301961 0.094118 0.156863
0.345098 0.082353 0.164706
0.388235 0.086275 0.180392
0.439216 0.086275 0.176471
0.501961 0.086275 0.172549
0.576471 0.094118 0.164706
0.627451 0.094118 0.156863
0.698039 0.094118 0.141176
0.760784 0.101961 0.145098
0.811765 0.101961 0.137255
0.866667 0.101961 0.149020
0.925490 0.109804 0.145098
0.125490 0.152941 0.125490
0.168627 0.141176 0.141176
0.219608 0.149020 0.149020
0.254902 0.141176 0.156863
0.294118 0.137255 0.168627
0.337255 0.137255 0.176471
0.388235 0.141176 0.180392
0.458824 0.141176 0.168627
0.513725 0.145098 0.168627
0.584314 0.149020 0.152941
0.654902 0.152941 0.149020
0.705882 0.156863 0.137255
0.760784 0.156863 0.149020
0.819608 0.164706 0.145098
0.870588 0.160784 0.152941
0.925490 0.164706 0.145098
0.129412 0.203922 0.133333
0.168627 0.196078 0.152941
0.203922 0.200000 0.160784
0.247059 0.192157 0.168627
0.286275 0.192157 0.180392
0.337255 0.196078 0.180392
0.407843 0.196078 0.180392
0.466667 0.200000 0.164706
0.533333 0.203922 0.160784
0.596078 0.207843 0.145098
0.658824 0.207843 0.149020
0.713725 0.211765 0.141176
0.772549 0.211765 0.152941
0.819608 0.219608 0.145098
0.882353 0.223529 0.160784
0.933333 0.219608 0.160784
0.113725 0.254902 0.152941
0.149020 0.254902 0.168627
0.196078 0.247059 0.176471
0.247059 0.250980 0.184314
0.294118 0.247059 0.192157
0.349020 0.250980 0.188235
0.411765 0.254902 0.184314
0.474510 0.258824 0.168627
0.549020 0.258824 0.164706
0.600000 0.262745 0.149020
0.666667 0.266667 0.152941
0.721569 0.270588 0.145098
0.768627 0.274510 0.156863
0.831373 0.270588 0.160784
0.882353 0.278431 0.160784
0.941176 0.282353 0.168627
0.105882 0.305882 0.168627
0.145098 0.301961 0.184314
0.188235 0.301961 0.192157
0.243137 0.305882 0.196078
0.298039 0.305882 0.196078
0.349020 0.305882 0.196078
0.423529 0.313725 0.188235
0.490196 0.313725 0.176471
0.545098 0.317647 0.168627
0.615686 0.321569 0.149020
0.670588 0.325490 0.156863
0.725490 0.325490 0.160784
0.780392 0.329412 0.160784
0.839216 0.329412 0.164706
0.886275 0.337255 0.168627
0.949020 0.333333 0.168627
0.090196 0.356863 0.188235
0.141176 0.356863 0.196078
0.192157 0.360784 0.192157
0.250980 0.356863 0.192157
0.305882 0.364706 0.196078
0.364706 0.368627 0.196078
0.423529 0.364706 0.188235
0.494118 0.372549 0.176471
0.556863 0.376471 0.168627
0.619608 0.372549 0.156863
0.674510 0.384314 0.160784
0.729412 0.384314 0.164706
0.788235 0.388235 0.168627
0.835294 0.392157 0.168627
0.898039 0.392157 0.172549
0.949020 0.396078 0.172549
0.090196 0.411765 0.196078
0.149020 0.411765 0.192157
0.211765 0.411765 0.180392
0.270588 0.423529 0.184314
0.321569 0.415686 0.188235
0.380392 0.427451 0.188235
0.435294 0.427451 0.188235
0.494118 0.427451 0.180392
0.568627 0.435294 0.168627
0.623529 0.439216 0.164706
0.682353 0.435294 0.160784
0.737255 0.443137 0.176471
0.792157 0.447059 0.172549
0.847059 0.447059 0.172549
0.905882 0.450980 0.176471
0.952941 0.454902 0.180392
0.098039 0.466667 0.192157
0.168627 0.474510 0.184314
0.227451 0.470588 0.172549
0.282353 0.474510 0.172549
0.345098 0.478431 0.180392
0.392157 0.482353 0.176471
0.458824 0.486275 0.180392
0.509804 0.490196 0.180392
0.568627 0.486275 0.168627
0.635294 0.494118 0.176471
0.686275 0.498039 0.172549
0.737255 0.494118 0.176471
0.796078 0.505882 0.176471
0.854902 0.505882 0.188235
0.905882 0.505882 0.176471
0.964706 0.509804 0.184314
0.121569 0.521569 0.184314
0.176471 0.529412 0.172549
0.250980 0.533333 0.164706
0.301961 0.533333 0.164706
0.349020 0.537255 0.164706
0.415686 0.541176 0.172549
0.462745 0.541176 0.168627
0.521569 0.541176 0.176471
0.580392 0.549020 0.176471
0.635294 0.545098 0.176471
0.690196 0.556863 0.176471
0.752941 0.556863 0.188235
0.800000 0.556863 0.176471
0.858824 0.564706 0.192157
0.913725 0.564706 0.196078
0.964706 0.564706 0.192157
0.125490 0.584314 0.176471
0.200000 0.584314 0.164706
0.258824 0.588235 0.156863
0.317647 0.596078 0.164706
0.368627 0.592157 0.160784
0.423529 0.592157 0.172549
0.478431 0.603922 0.172549
0.537255 0.596078 0.176471
0.588235 0.603922 0.172549
0.647059 0.611765 0.188235
0.698039 0.607843 0.176471
0.749020 0.611765 0.188235
0.807843 0.619608 0.196078
0.858824 0.615686 0.192157
0.921569 0.623529 0.200000
0.976471 0.627451 0.200000
0.149020 0.639216 0.172549
0.207843 0.643137 0.160784
0.262745 0.647059 0.160784
0.317647 0.647059 0.172549
0.376471 0.650980 0.168627
0.423529 0.654902 0.176471
0.486275 0.654902 0.172549
0.541176 0.662745 0.188235
0.592157 0.662745 0.176471
0.647059 0.662745 0.188235
0.709804 0.670588 0.196078
0.760784 0.666667 0.192157
0.815686 0.670588 0.196078
0.870588 0.682353 0.200000
0.925490 0.674510 0.200000
0.980392 0.686275 0.207843
0.164706 0.698039 0.168627
0.211765 0.701961 0.172549
0.274510 0.701961 0.176471
0.325490 0.705882 0.176471
0.380392 0.709804 0.172549
0.435294 0.709804 0.184314
0.490196 0.713725 0.176471
0.541176 0.717647 0.188235
0.600000 0.725490 0.196078
0.650980 0.721569 0.192157
0.709804 0.725490 0.196078
0.768627 0.733333 0.200000
0.815686 0.733333 0.200000
0.874510 0.733333 0.203922
0.925490 0.737255 0.203922
0.980392 0.737255 0.207843
0.168627 0.756863 0.176471
0.223529 0.756863 0.176471
0.274510 0.760784 0.180392
0.329412 0.764706 0.184314
0.384314 0.768627 0.184314
0.439216 0.768627 0.188235
0.498039 0.772549 0.188235
0.552941 0.772549 0.192157
0.603922 0.780392 0.196078
0.662745 0.776471 0.196078
0.713725 0.784314 0.200000
0.768627 0.784314 0.203922
0.827451 0.788235 0.203922
0.882353 0.792157 0.207843
0.929412 0.796078 0.207843
0.988235 0.796078 0.211765
0.172549 0.815686 0.180392
0.227451 0.815686 0.184314
0.282353 0.811765 0.180392
0.341176 0.819608 0.188235
0.392157 0.827451 0.188235
0.447059 0.827451 0.192157
0.501961 0.831373 0.196078
0.556863 0.831373 0.196078
0.615686 0.835294 0.200000
0.662745 0.839216 0.203922
0.717647 0.843137 0.203922
0.776471 0.843137 0.207843
0.831373 0.847059 0.207843
0.878431 0.850980 0.211765
0.941176 0.850980 0.215686
0.992157 0.854902 0.215686
0.172549 0.866667 0.180392
0.235294 0.874510 0.188235
0.290196 0.878431 0.188235
0.337255 0.878431 0.188235
0.400000 0.882353 0.196078
0.450980 0.886275 0.196078
0.505882 0.886275 0.207843
0.564706 0.890196 0.203922
0.619608 0.890196 0.211765
0.666667 0.898039 0.207843
0.729412 0.898039 0.207843
0.780392 0.901961 0.211765
0.835294 0.905882 0.215686
0.890196 0.905882 0.215686
0.941176 0.905882 0.215686
0.996078 0.913725 0.231373
0.184314 0.929412 0.188235
0.235294 0.929412 0.188235
0.294118 0.937255 0.196078
0.352941 0.937255 0.196078
0.403922 0.933333 0.203922
0.454902 0.945098 0.203922
0.517647 0.941176 0.211765
0.564706 0.945098 0.203922
0.619608 0.952941 0.215686
0.678431 0.952941 0.211765
0.729412 0.956863 0.223529
0.784314 0.960784 0.215686
0.835294 0.956863 0.223529
0.898039 0.964706 0.231373
0.952941 0.968627 0.223529
1.000000 0.964706 0.231373
0.113725 0.090196 0.176471
0.160784 0.086275 0.184314
0.215686 0.094118 0.192157
0.266667 0.094118 0.196078
0.305882 0.086275 0.203922
0.349020 0.082353 0.219608
0.384314 0.086275 0.231373
0.447059 0.082353 0.235294
0.505882 0.090196 0.223529
0.568627 0.090196 0.215686
0.635294 0.094118 0.203922
0.705882 0.098039 0.192157
0.756863 0.101961 0.192157
0.811765 0.101961 0.200000
0.870588 0.105882 0.196078
0.925490 0.105882 0.207843
0.117647 0.145098 0.192157
0.156863 0.137255 0.203922
0.200000 0.137255 0.203922
0.258824 0.145098 0.211765
0.294118 0.141176 0.227451
0.329412 0.137255 0.227451
0.396078 0.141176 0.235294
0.454902 0.145098 0.227451
0.513725 0.145098 0.211765
0.584314 0.149020 0.207843
0.654902 0.152941 0.196078
0.705882 0.156863 0.200000
0.768627 0.156863 0.196078
0.819608 0.160784 0.207843
0.874510 0.164706 0.200000
0.929412 0.164706 0.211765
0.117647 0.196078 0.196078
0.152941 0.200000 0.207843
0.196078 0.192157 0.223529
0.243137 0.192157 0.219608
0.290196 0.196078 0.235294
0.345098 0.196078 0.239216
0.403922 0.196078 0.223529
0.470588 0.203922 0.219608
0.545098 0.203922 0.207843
0.600000 0.203922 0.200000
0.662745 0.211765 0.196078
0.717647 0.211765 0.207843
0.768627 0.219608 0.200000
0.823529 0.219608 0.211765
0.878431 0.223529 0.203922
0.937255 0.223529 0.215686
0.117647 0.254902 0.215686
0.152941 0.250980 0.211765
0.192157 0.243137 0.235294
0.239216 0.250980 0.239216
0.290196 0.247059 0.235294
0.360784 0.254902 0.231373
0.419608 0.262745 0.223529
0.486275 0.254902 0.211765
0.552941 0.266667 0.200000
0.611765 0.266667 0.207843
0.662745 0.266667 0.196078
0.725490 0.270588 0.211765
0.780392 0.274510 0.203922
0.831373 0.270588 0.211765
0.886275 0.282353 0.211765
0.941176 0.282353 0.219608
0.101961 0.301961 0.223529
0.145098 0.301961 0.235294
0.184314 0.301961 0.243137
0.247059 0.301961 0.239216
0.305882 0.309804 0.250980
0.364706 0.309804 0.235294
0.427451 0.313725 0.223529
0.501961 0.317647 0.219608
0.552941 0.317647 0.200000
0.623529 0.321569 0.211765
0.674510 0.329412 0.203922
0.725490 0.325490 0.211765
0.784314 0.333333 0.211765
0.835294 0.337255 0.219608
0.890196 0.329412 0.219608
0.945098 0.341176 0.227451
0.090196 0.356863 0.239216
0.141176 0.356863 0.239216
0.203922 0.360784 0.250980
0.258824 0.360784 0.235294
0.313725 0.364706 0.239216
0.376471 0.372549 0.243137
0.435294 0.368627 0.231373
0.501961 0.372549 0.219608
0.572549 0.376471 0.211765
0.619608 0.380392 0.211765
0.686275 0.384314 0.211765
0.733333 0.388235 0.219608
0.784314 0.384314 0.219608
0.847059 0.392157 0.227451
0.898039 0.388235 0.223529
0.945098 0.396078 0.227451
0.090196 0.411765 0.250980
0.149020 0.411765 0.247059
0.211765 0.415686 0.239216
0.278431 0.427451 0.231373
0.337255 0.419608 0.227451
0.388235 0.423529 0.231373
0.450980 0.431373 0.231373
0.509804 0.431373 0.223529
0.572549 0.431373 0.215686
0.635294 0.439216 0.219608
0.686275 0.435294 0.219608
0.733333 0.443137 0.219608
0.792157 0.443137 0.223529
0.847059 0.447059 0.227451
