public/luts/vintage.cube
# Studiio — look « vintage », genere par scripts/lut/generer-luts.mjs
# Source : les coefficients de LOOKS_RENDUS, calcules par ffmpeg lui-meme.
# Aucune LUT tierce, aucun telechargement : provenance et licence du depot.
LUT_3D_SIZE 6
DOMAIN_MIN 0.0 0.0 0.0
DOMAIN_MAX 1.0 1.0 1.0
0.125490 0.090196 0.007843
0.266667 0.094118 0.027451
0.380392 0.078431 0.074510
0.560784 0.086275 0.054902
0.752941 0.094118 0.035294
0.921569 0.101961 0.039216
0.113725 0.254902 0.050980
0.270588 0.258824 0.058824
0.403922 0.250980 0.090196
0.584314 0.262745 0.066667
0.776471 0.266667 0.047059
0.937255 0.278431 0.054902
0.086275 0.407843 0.082353
0.258824 0.419608 0.094118
0.419608 0.427451 0.101961
0.615686 0.431373 0.082353
0.792157 0.443137 0.070588
0.952941 0.454902 0.070588
0.133333 0.576471 0.074510
0.298039 0.588235 0.078431
0.462745 0.596078 0.082353
0.631373 0.603922 0.086275
0.807843 0.619608 0.086275
0.972549 0.623529 0.094118
0.168627 0.752941 0.066667
0.329412 0.764706 0.074510
0.494118 0.768627 0.090196
0.658824 0.780392 0.090196
0.823529 0.788235 0.094118
0.984314 0.796078 0.109804
0.184314 0.929412 0.090196
0.349020 0.937255 0.090196
0.509804 0.945098 0.101961
0.674510 0.952941 0.109804
0.839216 0.960784 0.117647
1.000000 0.968627 0.125490
0.113725 0.090196 0.176471
0.266667 0.094118 0.196078
0.384314 0.086275 0.231373
0.568627 0.090196 0.215686
0.756863 0.101961 0.192157
0.925490 0.105882 0.207843
0.117647 0.254902 0.215686
0.239216 0.250980 0.239216
0.419608 0.262745 0.223529
0.611765 0.266667 0.207843
0.780392 0.274510 0.203922
0.941176 0.282353 0.219608
0.090196 0.411765 0.250980
0.278431 0.427451 0.231373
0.450980 0.431373 0.231373
0.635294 0.439216 0.219608
0.792157 0.443137 0.223529
0.956863 0.450980 0.231373
0.141176 0.584314 0.227451
0.317647 0.592157 0.215686
0.482353 0.600000 0.223529
0.647059 0.611765 0.231373
0.811765 0.615686 0.247059
0.972549 0.623529 0.254902
0.172549 0.760784 0.223529
0.337255 0.764706 0.239216
0.494118 0.768627 0.243137
0.654902 0.780392 0.250980
0.823529 0.788235 0.254902
0.984314 0.796078 0.262745
0.188235 0.925490 0.243137
0.349020 0.937255 0.250980
0.509804 0.945098 0.254902
0.678431 0.952941 0.270588
0.839216 0.960784 0.270588
1.000000 0.968627 0.278431
0.070588 0.070588 0.364706
0.223529 0.078431 0.376471
0.392157 0.082353 0.392157
0.572549 0.094118 0.368627
0.756863 0.101961 0.352941
0.925490 0.109804 0.360784
0.078431 0.243137 0.392157
0.254902 0.254902 0.372549
0.427451 0.258824 0.380392
0.611765 0.266667 0.360784
0.780392 0.274510 0.364706
0.941176 0.286275 0.372549
0.090196 0.411765 0.403922
0.286275 0.423529 0.392157
0.466667 0.435294 0.364706
0.627451 0.443137 0.372549
0.796078 0.447059 0.388235
0.960784 0.458824 0.388235
0.133333 0.588235 0.380392
0.317647 0.592157 0.376471
0.478431 0.603922 0.384314
0.643137 0.611765 0.392157
0.815686 0.619608 0.403922
0.976471 0.631373 0.411765
0.168627 0.760784 0.384314
0.337255 0.764706 0.392157
0.498039 0.776471 0.400000
0.666667 0.784314 0.407843
0.827451 0.792157 0.415686
0.996078 0.796078 0.427451
0.192157 0.929412 0.407843
0.352941 0.941176 0.407843
0.521569 0.949020 0.423529
0.682353 0.956863 0.427451
0.843137 0.968627 0.435294
1.000000 0.972549 0.443137
0.074510 0.070588 0.521569
0.247059 0.078431 0.525490
0.411765 0.090196 0.525490
0.576471 0.098039 0.533333
0.768627 0.105882 0.509804
0.929412 0.113725 0.517647
0.098039 0.247059 0.529412
0.294118 0.254902 0.501961
0.454902 0.262745 0.509804
0.623529 0.270588 0.525490
0.784314 0.282353 0.525490
0.945098 0.290196 0.537255
0.125490 0.415686 0.541176
0.309804 0.427451 0.525490
0.470588 0.439216 0.525490
0.639216 0.447059 0.537255
0.800000 0.454902 0.545098
0.964706 0.462745 0.552941
0.145098 0.592157 0.541176
0.321569 0.600000 0.533333
0.486275 0.603922 0.549020
0.647059 0.615686 0.549020
0.811765 0.627451 0.556863
0.980392 0.635294 0.576471
0.176471 0.764706 0.549020
0.337255 0.776471 0.549020
0.501961 0.780392 0.564706
0.662745 0.792157 0.572549
0.831373 0.796078 0.580392
1.000000 0.803922 0.588235
0.192157 0.941176 0.564706
0.356863 0.949020 0.572549
0.525490 0.952941 0.580392
0.686275 0.964706 0.588235
0.854902 0.968627 0.592157
1.000000 0.976471 0.596078
0.105882 0.078431 0.643137
0.278431 0.086275 0.643137
0.443137 0.094118 0.650980
0.603922 0.094118 0.662745
0.768627 0.105882 0.662745
0.929412 0.113725 0.678431
0.137255 0.250980 0.658824
0.294118 0.254902 0.662745
0.458824 0.262745 0.670588
0.619608 0.270588 0.678431
0.784314 0.282353 0.686275
0.949020 0.286275 0.690196
0.149020 0.419608 0.670588
0.301961 0.427451 0.670588
0.474510 0.435294 0.686275
0.635294 0.447059 0.690196
0.803922 0.450980 0.705882
0.964706 0.462745 0.705882
0.156863 0.592157 0.678431
0.325490 0.596078 0.694118
0.486275 0.607843 0.701961
0.647059 0.619608 0.701961
0.815686 0.623529 0.717647
0.980392 0.639216 0.729412
0.172549 0.764706 0.701961
0.341176 0.772549 0.709804
0.501961 0.784314 0.717647
0.670588 0.788235 0.733333
0.831373 0.800000 0.733333
0.992157 0.807843 0.737255
0.196078 0.937255 0.717647
0.356863 0.949020 0.733333
0.517647 0.956863 0.733333
0.686275 0.964706 0.745098
0.847059 0.972549 0.752941
1.000000 0.980392 0.760784
0.113725 0.078431 0.796078
0.274510 0.090196 0.796078
0.443137 0.094118 0.811765
0.607843 0.101961 0.819608
0.772549 0.109804 0.827451
0.937255 0.117647 0.835294
0.129412 0.254902 0.811765
0.298039 0.262745 0.819608
0.462745 0.266667 0.827451
0.623529 0.278431 0.835294
0.792157 0.282353 0.850980
0.952941 0.294118 0.850980
0.145098 0.423529 0.823529
0.313725 0.427451 0.839216
0.478431 0.443137 0.850980
0.647059 0.447059 0.858824
0.807843 0.458824 0.862745
0.968627 0.466667 0.870588
0.168627 0.592157 0.843137
0.329412 0.603922 0.850980
0.490196 0.611765 0.858824
0.658824 0.619608 0.866667
0.819608 0.631373 0.874510
0.992157 0.639216 0.894118
0.184314 0.768627 0.866667
0.345098 0.780392 0.866667
0.513725 0.784314 0.882353
0.674510 0.796078 0.890196
0.835294 0.803922 0.890196
1.000000 0.811765 0.905882
0.200000 0.945098 0.882353
0.360784 0.952941 0.890196
0.529412 0.960784 0.898039
0.690196 0.968627 0.905882
0.858824 0.976471 0.917647
1.000000 0.988235 0.917647
